P2
# Converted from input1.png
256 256
255
255 255 255 255 255 255 255 255 255 255 255 255 255 255 255 255 255 255 255 255 255 255 255 255 255 255 255 255 255 255 255 255 255 255 255 255 255 255 255 255 255 255 255 255 255 255 255 255 255 255 255 255 255 255 255 255 255 255 255 255 255 255 255 255 255 255 255 255 255 255 255 255 255 255 255 255 255 255 255 255 255 255 255 255 255 255 255 255 255 255 255 255 255 255 255 255 255 255 255 255 255 255 255 255 255 255 255 255 255 255 255 255 255 255 255 255 255 255 255 255 255 255 255 255 255 255 255 255 255 255 255 255 255 255 255 255 255 255 255 255 255 255 255 255 255 255 255 255 255 255 255 255 255 255 255 255 255 255 255 255 255 255 255 255 255 255 255 255 255 255 255 255 255 255 255 255 255 255 255 255 255 255 255 255 255 255 255 255 255 255 255 255 255 255 255 255 255 255 255 255 255 255 255 255 255 255 255 255 255 255 255 255 255 255 255 255 255 255 255 255 255 255 255 255 255 255 255 255 255 255 255 255 255 255 255 255 255 255 255 255 255 255 255 255 255 255 255 255 255 255 255 255 255 255 255 255
255 255 255 255 255 255 255 255 255 255 255 255 255 255 255 255 255 255 255 255 255 255 255 255 255 255 255 255 255 255 255 255 255 255 255 255 255 255 255 255 255 255 255 255 255 255 255 255 255 255 255 255 255 255 255 255 255 255 255 255 255 255 255 255 255 255 255 255 255 255 255 255 255 255 255 255 255 255 255 255 255 255 255 255 255 255 255 255 255 255 255 255 255 255 255 255 255 255 255 255 255 255 255 255 255 255 255 255 255 255 255 255 255 255 255 255 255 255 255 255 255 255 255 255 255 255 255 255 255 255 255 255 255 255 255 255 255 255 255 255 255 255 255 255 255 255 255 255 255 255 255 255 255 255 255 255 255 255 255 255 255 255 255 255 255 255 255 255 255 255 255 255 255 255 255 255 255 255 255 255 255 255 255 255 255 255 255 255 255 255 255 255 255 255 255 255 255 255 255 255 255 255 255 255 255 255 255 255 255 255 255 255 255 255 255 255 255 255 255 255 255 255 255 255 255 255 255 255 255 255 255 255 255 255 255 255 255 255 255 255 255 255 255 255 255 255 255 255 255 255 255 255 255 255 255 255
255 255 255 255 255 255 255 255 255 255 255 255 255 255 255 255 255 255 255 255 255 255 255 255 255 255 255 255 255 255 255 255 255 255 255 255 255 255 255 255 255 255 255 255 255 255 255 255 255 255 255 255 255 255 255 255 255 255 255 255 255 255 255 255 255 255 255 255 255 255 255 255 255 255 255 255 255 255 255 255 255 255 255 255 255 255 255 255 255 255 255 255 255 255 255 255 255 255 255 255 255 255 255 255 255 255 255 255 255 255 255 255 255 255 255 255 255 255 255 255 255 255 255 255 255 255 255 255 255 255 255 255 255 255 255 255 255 255 255 255 255 255 255 255 255 255 255 255 255 255 255 255 255 255 255 255 255 255 255 255 255 255 255 255 255 255 255 255 255 255 255 255 255 255 255 255 255 255 255 255 255 255 255 255 255 255 255 255 255 255 255 255 255 255 255 255 255 255 255 255 255 255 255 255 255 255 255 255 255 255 255 255 255 255 255 255 255 255 255 255 255 255 255 255 255 255 255 255 255 255 255 255 255 255 255 255 255 255 255 255 255 255 255 255 255 255 255 255 255 255 255 255 255 255 255 255
255 255 255 255 255 255 255 255 255 255 255 255 255 255 255 255 255 255 255 255 255 255 255 255 255 255 255 255 255 255 255 255 255 255 255 255 255 255 255 255 255 255 255 255 255 255 255 255 255 255 255 255 255 255 255 255 255 255 255 255 255 255 255 255 255 255 255 255 255 255 255 255 255 255 255 255 255 255 255 255 255 255 255 255 255 255 255 255 255 255 255 255 255 255 255 255 255 255 255 255 255 255 255 255 255 255 255 255 255 255 255 255 255 255 255 255 255 255 255 255 255 255 255 255 255 255 255 255 255 255 255 255 255 255 255 255 255 255 255 255 255 255 255 255 255 255 255 255 255 255 255 255 255 255 255 255 255 255 255 255 255 255 255 255 255 255 255 255 255 255 255 255 255 255 255 255 255 255 255 255 255 255 255 255 255 255 255 255 255 255 255 255 255 255 255 255 255 255 255 255 255 255 255 255 255 255 255 255 255 255 255 255 255 255 255 255 255 255 255 255 255 255 255 255 255 255 255 255 255 255 255 255 255 255 255 255 255 255 255 255 255 255 255 255 255 255 255 255 255 255 255 255 255 255 255 255
255 255 255 255 255 255 255 255 255 255 255 255 255 255 255 255 255 255 255 255 255 255 255 255 255 255 255 255 255 255 255 255 255 255 255 255 255 255 255 255 255 255 255 255 255 255 255 255 255 255 255 255 255 255 255 255 255 255 255 255 255 255 255 255 255 255 255 255 255 255 255 255 255 255 255 255 255 255 255 255 255 255 255 255 255 255 255 255 255 255 255 255 255 255 255 255 255 255 255 255 255 255 255 255 255 255 255 255 255 255 255 255 255 255 255 255 255 255 255 255 255 255 255 255 255 255 255 255 255 255 255 255 255 255 255 255 255 255 255 255 255 255 255 255 255 255 255 255 255 255 255 255 255 255 255 255 255 255 255 255 255 255 255 255 255 255 255 255 255 255 255 255 255 255 255 255 255 255 255 255 255 255 255 255 255 255 255 255 255 255 255 255 255 255 255 255 255 255 255 255 255 255 255 255 255 255 255 255 255 255 255 255 255 255 255 255 255 255 255 255 255 255 255 255 255 255 255 255 255 255 255 255 255 255 255 255 255 255 255 255 255 255 255 255 255 255 255 255 255 255 255 255 255 255 255 255
255 255 255 255 255 255 255 255 255 255 255 255 255 255 255 255 255 255 255 255 255 255 255 255 255 255 255 255 255 255 255 255 255 255 255 255 255 255 255 255 255 255 255 255 255 255 255 255 255 255 255 255 255 255 255 255 255 255 255 255 255 255 255 255 255 255 255 255 255 255 255 255 255 255 255 255 255 255 255 255 255 255 255 255 255 255 255 255 255 255 255 255 255 255 255 255 255 255 255 255 255 255 255 255 255 255 255 255 255 255 255 255 255 255 255 255 255 255 255 255 255 255 255 255 255 255 255 255 255 255 255 255 255 255 255 255 255 255 255 255 255 255 255 255 255 255 255 255 255 255 255 255 255 255 255 255 255 255 255 255 255 255 255 255 255 255 255 255 255 255 255 255 255 255 255 255 255 255 255 255 255 255 255 255 255 255 255 255 255 255 255 255 255 255 255 255 255 255 255 255 255 255 255 255 255 255 255 255 255 255 255 255 255 255 255 255 255 255 255 255 255 255 255 255 255 255 255 255 255 255 255 255 255 255 255 255 255 255 255 255 255 255 255 255 255 255 255 255 255 255 255 255 255 255 255 255
255 255 255 255 255 255 255 255 255 255 255 255 255 255 255 255 255 255 255 255 255 255 255 255 255 255 255 255 255 255 255 255 255 255 255 255 255 255 255 255 255 255 255 255 255 255 255 255 255 255 255 255 255 255 255 255 255 255 255 255 255 255 255 255 255 255 255 255 255 255 255 255 255 255 255 255 255 255 255 255 255 255 255 255 255 255 255 255 255 255 255 255 255 255 255 255 255 255 255 255 255 255 255 255 255 255 255 255 255 255 255 255 255 255 255 255 255 255 255 255 255 255 255 255 255 255 255 255 255 255 255 255 255 255 255 255 255 255 255 255 255 255 255 255 255 255 255 255 255 255 255 255 255 255 255 255 255 255 255 255 255 255 255 255 255 255 255 255 255 255 255 255 255 255 255 255 255 255 255 255 255 255 255 255 255 255 255 255 255 255 255 255 255 255 255 255 255 255 255 255 255 255 255 255 255 255 255 255 255 255 255 255 255 255 255 255 255 255 255 255 255 255 255 255 255 255 255 255 255 255 255 255 255 255 255 255 255 255 255 255 255 255 255 255 255 255 255 255 255 255 255 255 255 255 255 255
255 255 255 255 255 255 255 255 255 255 255 255 255 255 255 255 255 255 255 255 255 255 255 255 255 255 255 255 255 255 255 255 255 255 255 255 255 255 255 255 255 255 255 255 255 255 255 255 255 255 255 255 255 255 255 255 255 255 255 255 255 255 255 255 255 255 255 255 255 255 255 255 255 255 255 255 255 255 255 255 255 255 255 255 255 255 255 255 255 255 255 255 255 255 255 255 255 255 255 255 255 255 255 255 255 255 255 255 255 255 255 255 255 255 255 255 255 255 255 255 255 255 255 255 255 255 255 255 255 255 255 255 255 255 255 255 255 255 255 255 255 255 255 255 255 255 255 255 255 255 255 255 255 255 255 255 255 255 255 255 255 255 255 255 255 255 255 255 255 255 255 255 255 255 255 255 255 255 255 255 255 255 255 255 255 255 255 255 255 255 255 255 255 255 255 255 255 255 255 255 255 255 255 255 255 255 255 255 255 255 255 255 255 255 255 255 255 255 255 255 255 255 255 255 255 255 255 255 255 255 255 255 255 255 255 255 255 255 255 255 255 255 255 255 255 255 255 255 255 255 255 255 255 255 255 255
255 255 255 255 255 255 255 255 255 255 255 255 255 255 255 255 255 255 255 255 255 255 255 255 255 255 255 255 255 255 255 255 255 255 255 255 255 255 255 255 255 255 255 255 255 255 255 255 255 255 255 255 255 255 255 255 255 255 255 255 255 255 255 255 255 255 255 255 255 255 255 255 255 255 255 255 255 255 255 255 255 255 255 255 255 255 255 255 255 255 255 255 255 255 255 255 255 255 255 255 255 255 255 255 255 255 255 255 255 255 255 255 255 255 255 255 255 255 255 255 255 255 255 255 255 255 255 255 255 255 255 255 255 255 255 255 255 255 255 255 255 255 255 255 255 255 255 255 255 255 255 255 255 255 255 255 255 255 255 255 255 255 255 255 255 255 255 255 255 255 255 255 255 255 255 255 255 255 255 255 255 255 255 255 255 255 255 255 255 255 255 255 255 255 255 255 255 255 255 255 255 255 255 255 255 255 255 255 255 255 255 255 255 255 255 255 255 255 255 255 255 255 255 255 255 255 255 255 255 255 255 255 255 255 255 255 255 255 255 255 255 255 255 255 255 255 255 255 255 255 255 255 255 255 255 255
255 255 255 255 255 255 255 255 255 255 255 255 255 255 255 255 255 255 255 255 255 255 255 255 255 255 255 255 255 255 255 255 255 255 255 255 255 255 255 255 255 255 255 255 255 255 255 255 255 255 255 255 255 255 255 255 255 255 255 255 255 255 255 255 255 255 255 255 255 255 255 255 255 255 255 255 255 255 255 255 255 255 255 255 255 255 255 255 255 255 255 255 255 255 255 255 255 255 255 255 255 255 255 255 255 255 255 255 255 255 255 255 255 255 255 255 255 255 255 255 255 255 255 255 255 255 255 255 255 255 255 255 255 255 255 255 255 255 255 255 255 255 255 255 255 255 255 255 255 255 255 255 255 255 255 255 255 255 255 255 255 255 255 255 255 255 255 255 255 255 255 255 255 255 255 255 255 255 255 255 255 255 255 255 255 255 255 255 255 255 255 255 255 255 255 255 255 255 255 255 255 255 255 255 255 255 255 255 255 255 255 255 255 255 255 255 255 255 255 255 255 255 255 255 255 255 255 255 255 255 255 255 255 255 255 255 255 255 255 255 255 255 255 255 255 255 255 255 255 255 255 255 255 255 255 255
255 255 255 255 255 255 255 255 255 255 255 255 255 255 255 255 255 255 255 255 255 255 255 255 255 255 255 255 255 255 255 255 255 255 255 255 255 255 255 255 255 255 255 255 255 255 255 255 255 255 255 255 255 255 255 255 255 255 255 255 255 255 255 255 255 255 255 255 255 255 255 255 255 255 255 255 255 255 255 255 255 255 255 255 255 255 255 255 255 255 255 255 255 255 255 255 255 255 255 255 255 255 255 255 255 255 255 255 255 255 255 255 255 255 255 255 255 255 255 255 255 255 255 255 255 255 255 255 255 255 255 255 255 255 255 255 255 255 255 255 255 255 255 255 255 255 255 255 255 255 255 255 255 255 255 255 255 255 255 255 255 255 255 255 255 255 255 255 255 255 255 255 255 255 255 255 255 255 255 255 255 255 255 255 255 255 255 255 255 255 255 255 255 255 255 255 255 255 255 255 255 255 255 255 255 255 255 255 255 255 255 255 255 255 255 255 255 255 255 255 255 255 255 255 255 255 255 255 255 255 255 255 255 255 255 255 255 255 255 255 255 255 255 255 255 255 255 255 255 255 255 255 255 255 255 255
255 255 255 255 255 255 255 255 255 255 255 255 255 255 255 255 255 255 255 255 255 255 255 255 255 255 255 255 255 255 255 255 255 255 255 255 255 255 255 255 255 255 255 255 255 255 255 255 255 255 255 255 255 255 255 255 255 255 255 255 255 255 255 255 255 255 255 255 255 255 255 255 255 255 255 255 255 255 255 255 255 255 255 255 255 255 255 255 255 255 255 255 255 255 255 255 255 255 255 255 255 255 255 255 255 255 255 255 255 255 255 255 255 255 255 255 255 255 255 255 255 255 255 255 255 255 255 255 255 255 255 255 255 255 255 255 255 255 255 255 255 255 255 255 255 255 255 255 255 255 255 255 255 255 255 255 255 255 255 255 255 255 255 255 255 255 255 255 255 255 255 255 255 255 255 255 255 255 255 255 255 255 255 255 255 255 255 255 255 255 255 255 255 255 255 255 255 255 255 255 255 255 255 255 255 255 255 255 255 255 255 255 255 255 255 255 255 255 255 255 255 255 255 255 255 255 255 255 255 255 255 255 255 255 255 255 255 255 255 255 255 255 255 255 255 255 255 255 255 255 255 255 255 255 255 255
255 255 255 255 255 255 255 255 255 255 255 255 255 255 255 255 255 255 255 255 255 255 255 255 255 255 255 255 255 255 255 255 255 255 255 255 255 255 255 255 255 255 255 255 255 255 255 255 255 255 255 255 255 255 255 255 255 255 255 255 255 255 255 255 255 255 255 255 255 255 255 255 255 255 255 255 255 255 255 255 255 255 255 255 255 255 255 255 255 255 255 255 255 255 255 255 255 255 255 255 255 255 255 255 255 255 255 255 255 255 255 255 255 255 255 255 255 255 255 255 255 255 255 255 255 255 255 255 255 255 255 255 255 255 255 255 255 255 255 255 255 255 255 255 255 255 255 255 255 255 255 255 255 255 255 255 255 255 255 255 255 255 255 255 255 255 255 255 255 255 255 255 255 255 255 255 255 255 255 255 255 255 255 255 255 255 255 255 255 255 255 255 255 255 255 255 255 255 255 255 255 255 255 255 255 255 255 255 255 255 255 255 255 255 255 255 255 255 255 255 255 255 255 255 255 255 255 255 255 255 255 255 255 255 255 255 255 255 255 255 255 255 255 255 255 255 255 255 255 255 255 255 255 255 255 255
255 255 255 255 255 255 255 255 255 255 255 255 255 255 255 255 255 255 255 255 255 255 255 255 255 255 255 255 255 255 255 255 255 255 255 255 255 255 255 255 255 255 255 255 255 255 255 255 255 255 255 255 255 255 255 255 255 255 255 255 255 255 255 255 255 255 255 255 255 255 255 255 255 255 255 255 255 255 255 255 255 255 255 255 255 255 255 255 255 255 255 255 255 255 255 255 255 255 255 255 255 255 255 255 255 255 255 255 255 255 255 255 255 255 255 255 255 255 255 255 255 255 255 255 255 255 255 255 255 255 255 255 255 255 255 255 255 255 255 255 255 255 255 255 255 255 255 255 255 255 255 255 255 255 255 255 255 255 255 255 255 255 255 255 255 255 255 255 255 255 255 255 255 255 255 255 255 255 255 255 255 255 255 255 255 255 255 255 255 255 255 255 255 255 255 255 255 255 255 255 255 255 255 255 255 255 255 255 255 255 255 255 255 255 255 255 255 255 255 255 255 255 255 255 255 255 255 255 255 255 255 255 255 255 255 255 255 255 255 255 255 255 255 255 255 255 255 255 255 255 255 255 255 255 255 255
255 255 255 255 255 255 255 255 255 255 255 255 255 255 255 255 255 255 255 255 255 255 255 255 255 255 255 255 255 255 255 255 255 255 255 255 255 255 255 255 255 255 255 255 255 255 255 255 255 255 255 255 255 255 255 255 255 255 255 255 255 255 255 255 255 255 255 255 255 255 255 255 255 255 255 255 255 255 255 255 255 255 255 255 255 255 255 255 255 255 255 255 255 255 255 255 255 255 255 255 255 255 255 255 255 255 255 255 255 255 255 255 255 255 255 255 255 255 255 255 255 255 255 255 255 255 255 255 255 255 255 255 255 255 255 255 255 255 255 255 255 255 255 255 255 255 255 255 255 255 255 255 255 255 255 255 255 255 255 255 255 255 255 255 255 255 255 255 255 255 255 255 255 255 255 255 255 255 255 255 255 255 255 255 255 255 255 255 255 255 255 255 255 255 255 255 255 255 255 255 255 255 255 255 255 255 255 255 255 255 255 255 255 255 255 255 255 255 255 255 255 255 255 255 255 255 255 255 255 255 255 255 255 255 255 255 255 255 255 255 255 255 255 255 255 255 255 255 255 255 255 255 255 255 255 255
255 255 255 255 255 255 255 255 255 255 255 255 255 255 255 255 255 255 255 255 255 255 255 255 255 255 255 255 255 255 255 255 255 255 255 255 255 255 255 255 255 255 255 255 255 255 255 255 255 255 255 255 255 255 255 255 255 255 255 255 255 255 255 255 255 255 255 255 255 255 255 255 255 255 255 255 255 255 255 255 255 255 255 255 255 255 255 255 255 255 255 255 255 255 255 255 255 255 255 255 255 255 255 255 255 255 255 255 255 255 255 255 255 255 255 255 255 255 255 255 255 255 255 255 255 255 255 255 255 255 255 255 255 255 255 255 255 255 255 255 255 255 255 255 255 255 255 255 255 255 255 255 255 255 255 255 255 255 255 255 255 255 255 255 255 255 255 255 255 255 255 255 255 255 255 255 255 255 255 255 255 255 255 255 255 255 255 255 255 255 255 255 255 255 255 255 255 255 255 255 255 255 255 255 255 255 255 255 255 255 255 255 255 255 255 255 255 255 255 255 255 255 255 255 255 255 255 255 255 255 255 255 255 255 255 255 255 255 255 255 255 255 255 255 255 255 255 255 255 255 255 255 255 255 255 255
255 255 255 255 255 255 255 255 255 255 255 255 255 255 255 255 255 255 255 255 255 255 255 255 255 255 255 255 255 255 255 255 255 255 255 255 255 255 255 255 255 255 255 255 255 255 255 255 255 255 255 255 255 255 255 255 255 255 255 255 255 255 255 255 255 255 255 255 255 255 255 255 255 255 255 255 255 255 255 255 255 255 255 255 255 255 255 255 255 255 255 255 255 255 255 255 255 255 255 255 255 255 255 255 255 255 255 255 255 255 255 255 255 255 255 255 255 255 255 255 255 255 255 255 255 255 255 255 255 255 255 255 255 255 255 255 255 255 255 255 255 255 255 255 255 255 255 255 255 255 255 255 255 255 255 255 255 255 255 255 255 255 255 255 255 255 255 255 255 255 255 255 255 255 255 255 255 255 255 255 255 255 255 255 255 255 255 255 255 255 255 255 255 255 255 255 255 255 255 255 255 255 255 255 255 255 255 255 255 255 255 255 255 255 255 255 255 255 255 255 255 255 255 255 255 255 255 255 255 255 255 255 255 255 255 255 255 255 255 255 255 255 255 255 255 255 255 255 255 255 255 255 255 255 255 255
255 255 255 255 255 255 255 255 255 255 255 255 255 255 255 255 255 255 255 255 255 255 255 255 255 255 255 255 255 255 255 255 255 255 255 255 255 255 255 255 255 255 255 255 255 255 255 255 255 255 255 255 255 255 255 255 255 255 255 255 255 255 255 255 255 255 255 255 255 255 255 255 255 255 255 255 255 255 255 255 255 255 255 255 255 255 255 255 255 255 255 255 255 255 255 255 255 255 255 255 255 255 255 255 255 255 255 255 255 255 255 255 255 255 255 255 255 255 255 255 255 255 255 255 255 255 255 255 255 255 255 255 255 255 255 255 255 255 255 255 255 255 255 255 255 255 255 255 255 255 255 255 255 255 255 255 255 255 255 255 255 255 255 255 255 255 255 255 255 255 255 255 255 255 255 255 255 255 255 255 255 255 255 255 255 255 255 255 255 255 255 255 255 255 255 255 255 255 255 255 255 255 255 255 255 255 255 255 255 255 255 255 255 255 255 255 255 255 255 255 255 255 255 255 255 255 255 255 255 255 255 255 255 255 255 255 255 255 255 255 255 255 255 255 255 255 255 255 255 255 255 255 255 255 255 255
255 255 255 255 255 255 255 255 255 255 255 255 255 255 255 255 255 255 255 255 255 255 255 255 255 255 255 255 255 255 255 255 255 255 255 255 255 255 255 255 255 255 255 255 255 255 255 255 255 255 255 255 255 255 255 255 255 255 255 255 255 255 255 255 255 255 255 255 255 255 255 255 255 255 255 255 255 255 255 255 255 255 255 255 255 255 255 255 255 255 255 255 255 255 255 255 255 255 255 255 255 255 255 255 255 255 255 255 255 255 255 255 255 255 255 255 255 255 255 255 255 255 255 255 255 255 255 255 255 255 255 255 255 255 255 255 255 255 255 255 255 255 255 255 255 255 255 255 255 255 255 255 255 255 255 255 255 255 255 255 255 255 255 255 255 255 255 255 255 255 255 255 255 255 255 255 255 255 255 255 255 255 255 255 255 255 255 255 255 255 255 255 255 255 255 255 255 255 255 255 255 255 255 255 255 255 255 255 255 255 255 255 255 255 255 255 255 255 255 255 255 255 255 255 255 255 255 255 255 255 255 255 255 255 255 255 255 255 255 255 255 255 255 255 255 255 255 255 255 255 255 255 255 255 255 255
255 255 255 255 255 255 255 255 255 255 255 255 255 255 255 255 255 255 255 255 255 255 255 255 255 255 255 255 255 255 255 255 255 255 255 255 255 255 255 255 255 255 255 255 255 255 255 255 255 255 255 255 255 255 255 255 255 255 255 255 255 255 255 255 255 255 255 255 255 255 255 255 255 255 255 255 255 255 255 255 255 255 255 255 255 255 255 255 255 255 255 255 255 255 255 255 255 255 255 255 255 255 255 255 255 255 255 255 255 255 255 255 255 255 255 255 255 255 255 255 255 255 255 255 255 255 255 255 255 255 255 255 255 255 255 255 255 255 255 255 255 255 255 255 255 255 255 255 255 255 255 255 255 255 255 255 255 255 255 255 255 255 255 255 255 255 255 255 255 255 255 255 255 255 255 255 255 255 255 255 255 255 255 255 255 255 255 255 255 255 255 255 255 255 255 255 255 255 255 255 255 255 255 255 255 255 255 255 255 255 255 255 255 255 255 255 255 255 255 255 255 255 255 255 255 255 255 255 255 255 255 255 255 255 255 255 255 255 255 255 255 255 255 255 255 255 255 255 255 255 255 255 255 255 255 255
255 255 255 255 255 255 255 255 255 255 255 255 255 255 255 255 255 255 255 255 255 255 255 255 255 255 255 255 255 255 255 255 255 255 255 255 255 255 255 255 255 255 255 255 255 255 255 255 255 255 255 255 255 255 255 255 255 255 255 255 255 255 255 255 255 255 255 255 255 255 255 255 255 255 255 255 255 255 255 255 255 255 255 255 255 255 255 255 255 255 255 255 255 255 255 255 255 255 255 255 255 255 255 255 255 255 255 255 255 255 255 255 255 255 255 255 255 255 255 255 255 255 255 255 255 255 255 255 255 255 255 255 255 255 255 255 255 255 255 255 255 255 255 255 255 255 255 255 255 255 255 255 255 255 255 255 255 255 255 255 255 255 255 255 255 255 255 255 255 255 255 255 255 255 255 255 255 255 255 255 255 255 255 255 255 255 255 255 255 255 255 255 255 255 255 255 255 255 255 255 255 255 255 255 255 255 255 255 255 255 255 255 255 255 255 255 255 255 255 255 255 255 255 255 255 255 255 255 255 255 255 255 255 255 255 255 255 255 255 255 255 255 255 255 255 255 255 255 255 255 255 255 255 255 255 255
255 255 255 255 255 255 255 255 255 255 255 255 255 255 255 255 255 255 255 255 255 255 255 255 255 255 255 255 255 255 255 255 255 255 255 255 255 255 255 255 255 255 255 255 255 255 255 255 255 255 255 255 255 255 255 255 255 255 255 255 255 255 255 255 255 255 255 255 255 255 255 255 255 255 255 255 255 255 255 255 255 255 255 255 255 255 255 255 255 255 255 255 255 255 255 255 255 255 255 255 255 255 255 255 255 255 255 255 255 255 255 255 255 255 255 255 255 255 255 255 255 255 255 255 255 255 255 255 255 255 255 255 255 255 255 255 255 255 255 255 255 255 255 255 255 255 255 255 255 255 255 255 255 255 255 255 255 255 255 255 255 255 255 255 255 255 255 255 255 255 255 255 255 255 255 255 255 255 255 255 255 255 255 255 255 255 255 255 255 255 255 255 255 255 255 255 255 255 255 255 255 255 255 255 255 255 255 255 255 255 255 255 255 255 255 255 255 255 255 255 255 255 255 255 255 255 255 255 255 255 255 255 255 255 255 255 255 255 255 255 255 255 255 255 255 255 255 255 255 255 255 255 255 255 255 255
255 255 255 255 255 255 255 255 255 255 255 255 255 255 255 255 255 255 255 255 255 255 255 255 255 255 255 255 255 255 255 255 255 255 255 255 255 255 255 255 255 255 255 255 255 255 255 255 255 255 255 255 255 255 255 255 255 255 255 255 255 255 255 255 255 255 255 255 255 255 255 255 255 255 255 255 255 255 255 255 255 255 255 255 255 255 255 255 255 255 255 255 255 255 255 255 255 255 255 255 255 255 255 255 255 255 255 255 255 255 255 255 255 255 255 255 255 255 255 255 255 255 255 255 255 255 255 255 255 255 255 255 255 255 255 255 255 255 255 255 255 255 255 255 255 255 255 255 255 255 255 255 255 255 255 255 255 255 255 255 255 255 255 255 255 255 255 255 255 255 255 255 255 255 255 255 255 255 255 255 255 255 255 255 255 255 255 255 255 255 255 255 255 255 255 255 255 255 255 255 255 255 255 255 255 255 255 255 255 255 255 255 255 255 255 255 255 255 255 255 255 255 255 255 255 255 255 255 255 255 255 255 255 255 255 255 255 255 255 255 255 255 255 255 255 255 255 255 255 255 255 255 255 255 255 255
255 255 255 255 255 255 255 255 255 255 255 255 255 255 255 255 255 255 255 255 255 255 255 255 255 255 255 255 255 255 255 255 255 255 255 255 255 255 255 255 255 255 255 255 255 255 255 255 255 255 255 255 255 255 255 255 255 255 255 255 255 255 255 255 255 255 255 255 255 255 255 255 255 255 255 255 255 255 255 255 255 255 255 255 255 255 255 255 255 255 255 255 255 255 255 255 255 255 255 255 255 255 255 255 255 255 255 255 255 255 255 255 255 255 255 255 255 255 255 255 255 255 255 255 255 255 255 255 255 255 255 255 255 255 255 255 255 255 255 255 255 255 255 255 255 255 255 255 255 255 255 255 255 255 255 255 255 255 255 255 255 255 255 255 255 255 255 255 255 255 255 255 255 255 255 255 255 255 255 255 255 255 255 255 255 255 255 255 255 255 255 255 255 255 255 255 255 255 255 255 255 255 255 255 255 255 255 255 255 255 255 255 255 255 255 255 255 255 255 255 255 255 255 255 255 255 255 255 255 255 255 255 255 255 255 255 255 255 255 255 255 255 255 255 255 255 255 255 255 255 255 255 255 255 255 255
255 255 255 255 255 255 255 255 255 255 255 255 255 255 255 255 255 255 255 255 255 255 255 255 255 255 255 255 255 255 255 255 255 255 255 255 255 255 255 255 255 255 255 255 255 255 255 255 255 255 255 255 255 255 255 255 255 255 255 255 255 255 255 255 255 255 255 255 255 255 255 255 255 255 255 255 255 255 255 255 255 255 255 255 255 255 255 255 255 255 255 255 255 255 255 255 255 255 255 255 255 255 255 255 255 255 255 255 255 255 255 254 254 254 253 253 253 252 252 252 252 252 251 251 251 251 251 251 251 251 251 251 251 251 252 252 252 252 253 253 253 254 254 254 255 255 255 255 255 255 255 255 255 255 255 255 255 255 255 255 255 255 255 255 255 255 255 255 255 255 255 255 255 255 255 255 255 255 255 255 255 255 255 255 255 255 255 255 255 255 255 255 255 255 255 255 255 255 255 255 255 255 255 255 255 255 255 255 255 255 255 255 255 255 255 255 255 255 255 255 255 255 255 255 255 255 255 255 255 255 255 255 255 255 255 255 255 255 255 255 255 255 255 255 255 255 255 255 255 255 255 255 255 255 255 255
255 255 255 255 255 255 255 255 255 255 255 255 255 255 255 255 255 255 255 255 255 255 255 255 255 255 255 255 255 255 255 255 255 255 255 255 255 255 255 255 255 255 255 255 255 255 255 255 255 255 255 255 255 255 255 255 255 255 255 255 255 255 255 255 255 255 255 255 255 255 255 255 255 255 255 255 255 255 255 255 255 255 255 255 255 255 255 255 255 255 255 255 255 255 255 255 255 255 255 255 255 255 255 255 254 254 254 253 253 251 248 243 236 230 226 221 216 210 205 200 197 194 192 189 187 186 183 182 182 183 185 186 188 191 195 199 203 208 213 218 224 230 235 242 247 251 253 253 254 254 254 255 255 255 255 255 255 255 255 255 255 255 255 255 255 255 255 255 255 255 255 255 255 255 255 255 255 255 255 255 255 255 255 255 255 255 255 255 255 255 255 255 255 255 255 255 255 255 255 255 255 255 255 255 255 255 255 255 255 255 255 255 255 255 255 255 255 255 255 255 255 255 255 255 255 255 255 255 255 255 255 255 255 255 255 255 255 255 255 255 255 255 255 255 255 255 255 255 255 255 255 255 255 255 255 255
255 255 255 255 255 255 255 255 255 255 255 255 255 255 255 255 255 255 255 255 255 255 255 255 255 255 255 255 255 255 255 255 255 255 255 255 255 255 255 255 255 255 255 255 255 255 255 255 255 255 255 255 255 255 255 255 255 255 255 255 255 255 255 255 255 255 255 255 255 255 255 255 255 255 255 255 255 255 255 255 255 255 255 255 255 255 255 255 255 255 255 255 255 255 255 255 255 255 255 255 255 254 254 251 246 241 235 231 226 221 215 208 201 195 189 185 179 173 167 162 157 154 151 149 147 145 142 139 139 141 144 145 146 150 155 159 164 169 174 180 187 193 199 205 212 218 224 229 235 240 246 251 254 254 255 255 255 255 255 255 255 255 255 255 255 255 255 255 255 255 255 255 255 255 255 255 255 255 255 255 255 255 255 255 255 255 255 255 255 255 255 255 255 255 255 255 255 255 255 255 255 255 255 255 255 255 255 255 255 255 255 255 255 255 255 255 255 255 255 255 255 255 255 255 255 255 255 255 255 255 255 255 255 255 255 255 255 255 255 255 255 255 255 255 255 255 255 255 255 255 255 255 255 255 255 255
255 255 255 255 255 255 255 255 255 255 255 255 255 255 255 255 255 255 255 255 255 255 255 255 255 255 255 255 255 255 255 255 255 255 255 255 255 255 255 255 255 255 255 255 255 255 255 255 255 255 255 255 255 255 255 255 255 255 255 255 255 255 255 255 255 255 255 255 255 255 255 255 255 255 255 255 255 255 255 255 255 255 255 255 255 255 255 255 255 255 255 255 255 255 255 255 255 254 252 250 248 245 242 235 223 212 201 190 179 167 158 153 151 149 148 147 145 143 142 141 140 139 138 138 137 137 136 136 136 136 136 136 136 137 138 139 139 140 141 143 144 146 147 149 152 160 173 186 198 210 222 233 241 245 248 250 252 254 255 255 255 255 255 255 255 255 255 255 255 255 255 255 255 255 255 255 255 255 255 255 255 255 255 255 255 255 255 255 255 255 255 255 255 255 255 255 255 255 255 255 255 255 255 255 255 255 255 255 255 255 255 255 255 255 255 255 255 255 255 255 255 255 255 255 255 255 255 255 255 255 255 255 255 255 255 255 255 255 255 255 255 255 255 255 255 255 255 255 255 255 255 255 255 255 255 255
255 255 255 255 255 255 255 255 255 255 255 255 255 255 255 255 255 255 255 255 255 255 255 255 255 255 255 255 255 255 255 255 255 255 255 255 255 255 255 255 255 255 255 255 255 255 255 255 255 255 255 255 255 255 255 255 255 255 255 255 255 255 255 255 255 255 255 255 255 255 255 255 255 255 255 255 255 255 255 255 255 255 255 255 255 255 255 255 255 255 255 255 255 254 254 253 252 247 239 229 219 208 197 187 178 171 164 157 151 144 139 137 137 137 137 137 137 137 136 136 136 136 136 136 136 136 136 136 136 136 135 135 135 135 134 134 134 133 133 133 133 133 132 132 133 136 143 151 159 167 174 183 193 205 216 228 239 248 252 253 254 255 255 255 255 255 255 255 255 255 255 255 255 255 255 255 255 255 255 255 255 255 255 255 255 255 255 255 255 255 255 255 255 255 255 255 255 255 255 255 255 255 255 255 255 255 255 255 255 255 255 255 255 255 255 255 255 255 255 255 255 255 255 255 255 255 255 255 255 255 255 255 255 255 255 255 255 255 255 255 255 255 255 255 255 255 255 255 255 255 255 255 255 255 255 255
255 255 255 255 255 255 255 255 255 255 255 255 255 255 255 255 255 255 255 255 255 255 255 255 255 255 255 255 255 255 255 255 255 255 255 255 255 255 255 255 255 255 255 255 255 255 255 255 255 255 255 255 255 255 255 255 255 255 255 255 255 255 255 255 255 255 255 255 255 255 255 255 255 255 255 255 255 255 255 255 255 255 255 255 255 255 255 255 255 255 255 255 254 250 244 237 229 220 208 195 182 167 153 144 142 141 141 140 140 139 139 139 139 139 138 138 138 138 137 137 137 137 137 136 136 136 136 136 136 136 136 135 135 135 135 135 135 134 134 134 134 134 134 134 133 133 133 134 134 134 134 137 146 161 176 192 207 220 229 237 244 250 254 255 255 255 255 255 255 255 255 255 255 255 255 255 255 255 255 255 255 255 255 255 255 255 255 255 255 255 255 255 255 255 255 255 255 255 255 255 255 255 255 255 255 255 255 255 255 255 255 255 255 255 255 255 255 255 255 255 255 255 255 255 255 255 255 255 255 255 255 255 255 255 255 255 255 255 255 255 255 255 255 255 255 255 255 255 255 255 255 255 255 255 255 255
255 255 255 255 255 255 255 255 255 255 255 255 255 255 255 255 255 255 255 255 255 255 255 255 255 255 255 255 255 255 255 255 255 255 255 255 255 255 255 255 255 255 255 255 255 255 255 255 255 255 255 255 255 255 255 255 255 255 255 255 255 255 255 255 255 255 255 255 255 255 255 255 255 255 255 255 255 255 255 255 255 255 255 255 255 255 255 255 255 253 251 248 243 233 218 201 183 169 160 156 151 147 143 140 140 140 140 140 140 140 139 139 139 139 138 138 138 138 138 137 137 137 137 137 136 136 136 136 136 136 136 135 135 135 135 135 135 135 134 134 134 134 134 134 134 133 133 133 133 132 132 133 135 139 143 147 154 164 181 200 217 233 243 249 252 254 255 255 255 255 255 255 255 255 255 255 255 255 255 255 255 255 255 255 255 255 255 255 255 255 255 255 255 255 255 255 255 255 255 255 255 255 255 255 255 255 255 255 255 255 255 255 255 255 255 255 255 255 255 255 255 255 255 255 255 255 255 255 255 255 255 255 255 255 255 255 255 255 255 255 255 255 255 255 255 255 255 255 255 255 255 255 255 255 255 255
255 255 255 255 255 255 255 255 255 255 255 255 255 255 255 255 255 255 255 255 255 255 255 255 255 255 255 255 255 255 255 255 255 255 255 255 255 255 255 255 255 255 255 255 255 255 255 255 255 255 255 255 255 255 255 255 255 255 255 255 255 255 255 255 255 255 255 255 255 255 255 255 255 255 255 255 255 255 255 255 255 255 255 255 255 255 254 254 251 243 230 217 205 192 180 167 153 145 141 141 141 141 141 141 141 141 140 140 140 140 140 139 139 139 139 138 138 138 138 137 137 137 137 137 136 136 136 136 136 136 136 135 135 135 135 135 135 135 135 134 134 134 134 134 134 134 133 133 133 133 133 133 133 132 132 131 131 135 146 161 175 190 205 219 234 245 252 254 254 255 255 255 255 255 255 255 255 255 255 255 255 255 255 255 255 255 255 255 255 255 255 255 255 255 255 255 255 255 255 255 255 255 255 255 255 255 255 255 255 255 255 255 255 255 255 255 255 255 255 255 255 255 255 255 255 255 255 255 255 255 255 255 255 255 255 255 255 255 255 255 255 255 255 255 255 255 255 255 255 255 255 255 255 255 255 255
255 255 255 255 255 255 255 255 255 255 255 255 255 255 255 255 255 255 255 255 255 255 255 255 255 255 255 255 255 255 255 255 255 255 255 255 255 255 255 255 255 255 255 255 255 255 255 255 255 255 255 255 255 255 255 255 255 255 255 255 255 255 255 255 255 255 255 255 255 255 255 255 255 255 255 255 255 255 255 255 255 255 255 255 255 252 247 240 231 216 197 177 160 150 147 145 144 143 142 142 142 142 141 141 141 141 140 140 140 140 140 140 139 139 139 139 138 138 138 138 137 137 137 137 136 136 136 136 136 136 136 136 135 135 135 135 135 135 135 134 134 134 134 134 134 134 133 133 133 133 133 133 133 133 133 133 133 133 134 135 136 143 156 178 200 218 230 240 248 253 255 255 255 255 255 255 255 255 255 255 255 255 255 255 255 255 255 255 255 255 255 255 255 255 255 255 255 255 255 255 255 255 255 255 255 255 255 255 255 255 255 255 255 255 255 255 255 255 255 255 255 255 255 255 255 255 255 255 255 255 255 255 255 255 255 255 255 255 255 255 255 255 255 255 255 255 255 255 255 255 255 255 255 255 255 255
255 255 255 255 255 255 255 255 255 255 255 255 255 255 255 255 255 255 255 255 255 255 255 255 255 255 255 255 255 255 255 255 255 255 255 255 255 255 255 255 255 255 255 255 255 255 255 255 255 255 255 255 255 255 255 255 255 255 255 255 255 255 255 255 255 255 255 255 255 255 255 255 255 255 255 255 255 255 255 255 255 255 253 251 247 239 225 207 187 171 161 152 146 143 143 143 143 143 143 142 142 142 141 141 141 141 141 140 140 140 140 140 139 139 139 138 138 138 138 138 138 137 137 137 137 136 136 136 136 136 136 136 135 135 135 135 135 135 135 135 134 134 134 134 134 134 134 134 134 133 133 133 133 133 133 133 133 132 132 131 131 132 137 145 154 165 183 205 227 241 249 253 254 255 255 255 255 255 255 255 255 255 255 255 255 255 255 255 255 255 255 255 255 255 255 255 255 255 255 255 255 255 255 255 255 255 255 255 255 255 255 255 255 255 255 255 255 255 255 255 255 255 255 255 255 255 255 255 255 255 255 255 255 255 255 255 255 255 255 255 255 255 255 255 255 255 255 255 255 255 255 255 255 255 255 255
255 255 255 255 255 255 255 255 255 255 255 255 255 255 255 255 255 255 255 255 255 255 255 255 255 255 255 255 255 255 255 255 255 255 255 255 255 255 255 255 255 255 255 255 255 255 255 255 255 255 255 255 255 255 255 255 255 255 255 255 255 255 255 255 255 255 255 255 255 255 255 255 255 255 255 255 255 255 255 255 255 252 244 232 217 204 189 173 156 146 144 144 144 144 144 144 144 143 143 142 142 142 142 141 141 141 141 141 140 140 140 140 139 139 139 139 138 138 138 138 138 138 137 137 137 137 136 136 136 136 136 136 136 135 135 135 135 135 135 135 135 134 134 134 134 134 134 134 134 133 133 133 133 133 133 133 133 133 132 132 132 132 132 131 130 133 146 165 186 206 223 239 249 254 255 255 255 255 255 255 255 255 255 255 255 255 255 255 255 255 255 255 255 255 255 255 255 255 255 255 255 255 255 255 255 255 255 255 255 255 255 255 255 255 255 255 255 255 255 255 255 255 255 255 255 255 255 255 255 255 255 255 255 255 255 255 255 255 255 255 255 255 255 255 255 255 255 255 255 255 255 255 255 255 255 255
255 255 255 255 255 255 255 255 255 255 255 255 255 255 255 255 255 255 255 255 255 255 255 255 255 255 255 255 255 255 255 255 255 255 255 255 255 255 255 255 255 255 255 255 255 255 255 255 255 255 255 255 255 255 255 255 255 255 255 255 255 255 255 255 255 255 255 255 255 255 255 255 255 255 255 255 255 255 255 251 246 235 220 199 176 161 153 150 148 146 145 145 145 144 144 144 144 143 143 143 143 142 142 142 141 141 141 141 141 140 140 140 140 140 139 139 139 139 138 138 138 138 138 137 137 137 136 136 136 136 136 136 136 136 136 135 135 135 135 135 135 134 134 134 134 134 134 134 134 134 134 133 133 133 133 133 133 133 133 132 132 132 132 132 132 132 134 136 143 159 182 208 227 240 249 254 255 255 255 255 255 255 255 255 255 255 255 255 255 255 255 255 255 255 255 255 255 255 255 255 255 255 255 255 255 255 255 255 255 255 255 255 255 255 255 255 255 255 255 255 255 255 255 255 255 255 255 255 255 255 255 255 255 255 255 255 255 255 255 255 255 255 255 255 255 255 255 255 255 255 255 255 255 255 255 255
255 255 255 255 255 255 255 255 255 255 255 255 255 255 255 255 255 255 255 255 255 255 255 255 255 255 255 255 255 255 255 255 255 255 255 255 255 255 255 255 255 255 255 255 255 255 255 255 255 255 255 255 255 255 255 255 255 255 255 255 255 255 255 255 255 255 255 255 255 255 255 255 255 255 255 255 254 252 248 238 220 199 180 165 155 148 146 146 146 146 146 145 145 145 144 144 144 144 143 143 143 142 142 142 142 141 141 141 141 140 140 140 140 140 139 139 139 139 138 138 138 138 138 138 137 137 137 136 136 136 136 136 136 136 136 135 135 135 135 135 135 134 134 134 134 134 134 134 134 134 134 133 133 133 133 133 133 133 133 132 132 132 132 132 132 132 132 131 131 137 147 163 182 204 229 244 251 254 255 255 255 255 255 255 255 255 255 255 255 255 255 255 255 255 255 255 255 255 255 255 255 255 255 255 255 255 255 255 255 255 255 255 255 255 255 255 255 255 255 255 255 255 255 255 255 255 255 255 255 255 255 255 255 255 255 255 255 255 255 255 255 255 255 255 255 255 255 255 255 255 255 255 255 255 255 255
255 255 255 255 255 255 255 255 255 255 255 255 255 255 255 255 255 255 255 255 255 255 255 255 255 255 255 255 255 255 255 255 255 255 255 255 255 255 255 255 255 255 255 255 255 255 255 255 255 255 255 255 255 255 255 255 255 255 255 255 255 255 255 255 255 255 255 255 255 255 255 255 255 255 255 253 247 236 222 205 185 165 153 148 148 148 148 147 147 146 146 145 145 145 144 144 144 144 144 143 143 142 142 142 142 142 141 141 141 140 140 140 140 140 139 139 139 139 139 138 138 138 138 138 137 137 137 137 136 136 136 136 136 136 136 136 135 135 135 135 135 135 134 134 134 134 134 134 134 134 134 133 133 133 133 133 133 133 133 132 132 132 132 132 132 132 132 132 132 132 132 133 144 165 190 213 231 245 253 255 255 255 255 255 255 255 255 255 255 255 255 255 255 255 255 255 255 255 255 255 255 255 255 255 255 255 255 255 255 255 255 255 255 255 255 255 255 255 255 255 255 255 255 255 255 255 255 255 255 255 255 255 255 255 255 255 255 255 255 255 255 255 255 255 255 255 255 255 255 255 255 255 255 255 255 255
255 255 255 255 255 255 255 255 255 255 255 255 255 255 255 255 255 255 255 255 255 255 255 255 255 255 255 255 255 255 255 255 255 255 255 255 255 255 255 255 255 255 255 255 255 255 255 255 255 255 255 255 255 255 255 255 255 255 255 255 255 255 255 255 255 255 255 255 255 255 255 255 255 254 249 241 227 205 183 166 156 152 149 148 148 148 148 148 147 147 146 146 145 145 145 144 144 144 144 144 143 143 143 142 142 142 141 141 141 141 140 140 140 140 140 139 139 139 139 138 138 138 138 138 138 137 137 137 137 136 136 136 136 136 136 136 136 135 135 135 135 135 135 135 134 134 134 134 134 134 134 133 133 133 133 133 133 133 133 132 133 133 132 132 132 132 132 132 132 132 132 131 133 139 147 167 194 221 239 248 253 255 255 255 255 255 255 255 255 255 255 255 255 255 255 255 255 255 255 255 255 255 255 255 255 255 255 255 255 255 255 255 255 255 255 255 255 255 255 255 255 255 255 255 255 255 255 255 255 255 255 255 255 255 255 255 255 255 255 255 255 255 255 255 255 255 255 255 255 255 255 255 255 255 255 255
255 255 255 255 255 255 255 255 255 255 255 255 255 255 255 255 255 255 255 255 255 255 255 255 255 255 255 255 255 255 255 255 255 255 255 255 255 255 255 255 255 255 255 255 255 255 255 255 255 255 255 255 255 255 255 255 255 255 255 255 255 255 255 255 255 255 255 255 255 255 255 254 253 247 231 210 188 172 160 152 149 149 149 149 149 149 148 148 148 147 147 146 145 145 145 145 145 144 144 144 144 143 143 143 142 142 141 141 141 141 141 140 140 140 140 140 139 139 139 138 138 138 138 138 138 138 137 137 137 136 136 136 136 136 136 136 136 136 135 135 135 135 135 135 134 134 134 134 134 134 134 134 134 134 133 133 133 133 133 133 133 133 133 132 132 132 132 132 132 132 132 132 132 131 131 140 156 177 201 226 244 253 255 255 255 255 255 255 255 255 255 255 255 255 255 255 255 255 255 255 255 255 255 255 255 255 255 255 255 255 255 255 255 255 255 255 255 255 255 255 255 255 255 255 255 255 255 255 255 255 255 255 255 255 255 255 255 255 255 255 255 255 255 255 255 255 255 255 255 255 255 255 255 255 255 255
255 255 255 255 255 255 255 255 255 255 255 255 255 255 255 255 255 255 255 255 255 255 255 255 255 255 255 255 255 255 255 255 255 255 255 255 255 255 255 255 255 255 255 255 255 255 255 255 255 255 255 255 255 255 255 255 255 255 255 255 255 255 255 255 255 255 255 255 255 255 254 248 237 221 200 177 158 153 152 151 151 150 149 149 149 149 149 148 148 147 147 146 146 146 145 145 145 144 144 144 144 143 143 143 142 142 142 141 141 141 141 141 140 140 140 140 139 139 139 139 138 138 138 138 138 138 137 137 137 137 137 136 136 136 136 136 136 136 136 135 135 135 135 135 135 134 134 134 134 134 134 134 134 133 133 133 133 133 133 133 133 133 133 132 132 132 132 132 132 132 132 132 132 132 132 132 134 141 160 189 215 235 249 255 255 255 255 255 255 255 255 255 255 255 255 255 255 255 255 255 255 255 255 255 255 255 255 255 255 255 255 255 255 255 255 255 255 255 255 255 255 255 255 255 255 255 255 255 255 255 255 255 255 255 255 255 255 255 255 255 255 255 255 255 255 255 255 255 255 255 255 255 255 255 255 255
255 255 255 255 255 255 255 255 255 255 255 255 255 255 255 255 255 255 255 255 255 255 255 255 255 255 255 255 255 255 255 255 255 255 255 255 255 255 255 255 255 255 255 255 255 255 255 255 255 255 255 255 255 255 255 255 255 255 255 255 255 255 255 255 255 255 255 255 254 251 244 230 207 183 168 158 152 151 151 151 151 151 150 149 149 149 149 148 148 148 147 146 146 146 145 145 145 145 144 144 144 143 143 143 142 142 142 142 141 141 141 141 140 140 140 140 139 139 139 139 139 138 138 138 138 138 137 137 137 137 137 137 136 136 136 136 136 136 136 135 135 135 135 135 135 135 134 134 134 134 134 134 134 133 133 133 133 133 133 133 133 133 132 132 132 132 132 132 132 132 132 132 132 132 132 132 131 133 138 149 172 200 229 246 252 254 255 255 255 255 255 255 255 255 255 255 255 255 255 255 255 255 255 255 255 255 255 255 255 255 255 255 255 255 255 255 255 255 255 255 255 255 255 255 255 255 255 255 255 255 255 255 255 255 255 255 255 255 255 255 255 255 255 255 255 255 255 255 255 255 255 255 255 255 255 255
255 255 255 255 255 255 255 255 255 255 255 255 255 255 255 255 255 255 255 255 255 255 255 255 255 255 255 255 255 255 255 255 255 255 255 255 255 255 255 255 255 255 255 255 255 255 255 255 255 255 255 255 255 255 255 255 255 255 255 255 255 255 255 255 255 255 255 254 250 235 216 195 176 161 155 153 153 152 152 152 151 151 150 150 149 149 149 149 148 147 147 147 146 146 146 146 145 145 145 144 144 144 143 143 143 142 142 142 142 141 141 141 140 140 140 140 140 139 139 139 139 139 138 138 138 138 138 137 137 137 137 137 136 136 136 136 136 136 136 135 135 135 135 135 135 135 134 134 134 134 134 134 134 134 134 133 133 133 133 133 133 133 132 132 132 132 132 132 132 132 132 132 132 132 132 132 132 132 132 133 143 163 189 216 239 251 255 255 255 255 255 255 255 255 255 255 255 255 255 255 255 255 255 255 255 255 255 255 255 255 255 255 255 255 255 255 255 255 255 255 255 255 255 255 255 255 255 255 255 255 255 255 255 255 255 255 255 255 255 255 255 255 255 255 255 255 255 255 255 255 255 255 255 255 255 255
255 255 255 255 255 255 255 255 255 255 255 255 255 255 255 255 255 255 255 255 255 255 255 255 255 255 255 255 255 255 255 255 255 255 255 255 255 255 255 255 255 255 255 255 255 255 255 255 255 255 255 255 255 255 255 255 255 255 255 255 255 255 255 255 255 255 252 244 229 207 184 165 157 155 154 154 153 153 152 152 152 151 151 150 150 149 149 149 149 148 147 147 147 146 146 146 145 145 145 145 144 144 144 143 143 143 142 142 142 142 141 141 141 140 140 140 140 140 139 139 139 139 138 138 138 138 138 138 137 137 137 137 136 136 136 136 136 136 136 136 135 135 135 135 135 135 134 134 134 134 134 134 134 134 134 134 133 133 133 133 133 133 133 132 132 132 132 132 132 132 132 132 132 132 132 132 132 132 132 132 133 138 151 178 210 232 247 254 255 255 255 255 255 255 255 255 255 255 255 255 255 255 255 255 255 255 255 255 255 255 255 255 255 255 255 255 255 255 255 255 255 255 255 255 255 255 255 255 255 255 255 255 255 255 255 255 255 255 255 255 255 255 255 255 255 255 255 255 255 255 255 255 255 255 255 255
255 255 255 255 255 255 255 255 255 255 255 255 255 255 255 255 255 255 255 255 255 255 255 255 255 255 255 255 255 255 255 255 255 255 255 255 255 255 255 255 255 255 255 255 255 255 255 255 255 255 255 255 255 255 255 255 255 255 255 255 255 255 255 255 254 250 241 221 195 174 163 157 155 155 154 154 153 153 153 152 152 151 151 151 150 150 149 149 149 148 148 148 147 146 146 146 146 145 145 145 145 144 144 144 143 143 143 142 142 142 141 141 141 141 140 140 140 140 139 139 139 139 139 138 138 138 138 138 138 137 137 137 136 136 136 136 136 136 136 136 135 135 135 135 135 135 135 134 134 134 134 134 134 134 134 134 133 133 133 133 133 133 133 133 132 132 132 132 132 132 132 132 132 132 132 132 132 132 132 132 132 132 135 145 166 197 226 245 253 255 255 255 255 255 255 255 255 255 255 255 255 255 255 255 255 255 255 255 255 255 255 255 255 255 255 255 255 255 255 255 255 255 255 255 255 255 255 255 255 255 255 255 255 255 255 255 255 255 255 255 255 255 255 255 255 255 255 255 255 255 255 255 255 255 255 255
255 255 255 255 255 255 255 255 255 255 255 255 255 255 255 255 255 255 255 255 255 255 255 255 255 255 255 255 255 255 255 255 255 255 255 255 255 255 255 255 255 255 255 255 255 255 255 255 255 255 255 255 255 255 255 255 255 255 255 255 255 255 255 254 247 232 211 189 169 159 157 156 155 155 155 154 154 154 153 152 152 152 151 151 150 150 150 149 149 149 148 148 147 147 146 146 146 145 145 145 145 145 144 144 144 143 143 143 142 142 142 141 141 141 141 140 140 140 140 140 139 139 139 139 139 138 138 138 138 137 137 137 137 136 136 136 136 136 136 136 136 135 135 135 135 135 135 135 135 134 134 134 134 134 134 134 134 133 133 133 133 133 133 133 133 133 132 132 132 132 132 132 132 132 132 132 132 132 132 132 132 132 132 132 139 160 189 218 241 253 255 255 255 255 255 255 255 255 255 255 255 255 255 255 255 255 255 255 255 255 255 255 255 255 255 255 255 255 255 255 255 255 255 255 255 255 255 255 255 255 255 255 255 255 255 255 255 255 255 255 255 255 255 255 255 255 255 255 255 255 255 255 255 255 255 255
255 255 255 255 255 255 255 255 255 255 255 255 255 255 255 255 255 255 255 255 255 255 255 255 255 255 255 255 255 255 255 255 255 255 255 255 255 255 255 255 255 255 255 255 255 255 255 255 255 255 255 255 255 255 255 255 255 255 255 255 255 255 252 244 227 204 180 164 158 157 157 156 156 155 155 155 154 154 154 153 152 152 152 151 150 150 150 149 149 149 148 148 148 147 147 146 146 146 145 145 145 145 144 144 144 144 143 143 143 142 142 142 141 141 141 140 140 140 140 140 140 139 139 139 139 139 138 138 138 137 137 137 137 137 136 136 136 136 136 136 136 135 135 135 135 135 135 135 135 134 134 134 134 134 134 134 134 134 133 133 133 133 133 133 133 133 133 132 132 132 132 132 132 132 132 132 132 132 132 132 132 132 132 132 132 137 153 181 213 238 250 254 255 255 255 255 255 255 255 255 255 255 255 255 255 255 255 255 255 255 255 255 255 255 255 255 255 255 255 255 255 255 255 255 255 255 255 255 255 255 255 255 255 255 255 255 255 255 255 255 255 255 255 255 255 255 255 255 255 255 255 255 255 255 255 255
255 255 255 255 255 255 255 255 255 255 255 255 255 255 255 255 255 255 255 255 255 255 255 255 255 255 255 255 255 255 255 255 255 255 255 255 255 255 255 255 255 255 255 255 255 255 255 255 255 255 255 255 255 255 255 255 255 255 255 255 254 251 241 220 194 175 163 158 158 157 157 156 156 156 155 155 154 154 154 153 153 153 152 152 151 151 151 150 149 149 149 148 148 148 147 147 146 146 146 145 145 145 144 144 144 144 144 143 143 142 142 142 142 141 141 141 140 140 140 140 140 139 139 139 139 139 138 138 138 138 137 137 137 137 137 136 136 136 136 136 136 136 135 135 135 135 135 135 135 134 134 134 134 134 134 134 134 134 134 133 133 133 133 133 133 133 133 132 132 132 132 132 132 132 132 132 132 132 132 132 132 132 132 132 132 132 136 148 172 204 235 250 254 255 255 255 255 255 255 255 255 255 255 255 255 255 255 255 255 255 255 255 255 255 255 255 255 255 255 255 255 255 255 255 255 255 255 255 255 255 255 255 255 255 255 255 255 255 255 255 255 255 255 255 255 255 255 255 255 255 255 255 255 255 255 255
255 255 255 255 255 255 255 255 255 255 255 255 255 255 255 255 255 255 255 255 255 255 255 255 255 255 255 255 255 255 255 255 255 255 255 255 255 255 255 255 255 255 255 255 255 255 255 255 255 255 255 255 255 255 255 255 255 255 255 254 250 236 215 191 171 161 158 158 158 158 157 157 156 156 155 155 154 154 154 154 153 153 152 152 152 151 151 150 149 149 149 149 148 148 147 147 147 146 146 146 145 145 145 144 144 144 144 143 143 143 142 142 142 142 141 141 140 140 140 140 140 140 139 139 139 139 139 138 138 138 138 137 137 137 137 137 136 136 136 136 136 136 136 135 135 135 135 135 135 135 134 134 134 134 134 134 134 134 134 133 133 133 133 133 133 133 133 133 132 132 132 132 132 132 132 132 132 132 132 132 132 132 132 132 132 132 132 134 143 168 202 231 248 254 255 255 255 255 255 255 255 255 255 255 255 255 255 255 255 255 255 255 255 255 255 255 255 255 255 255 255 255 255 255 255 255 255 255 255 255 255 255 255 255 255 255 255 255 255 255 255 255 255 255 255 255 255 255 255 255 255 255 255 255 255 255
255 255 255 255 255 255 255 255 255 255 255 255 255 255 255 255 255 255 255 255 255 255 255 255 255 255 255 255 255 255 255 255 255 255 255 255 255 255 255 255 255 255 255 255 255 255 255 255 255 255 255 255 255 255 255 255 255 255 253 248 235 211 184 168 162 160 159 159 158 158 158 157 157 156 155 155 155 154 154 154 154 153 152 152 152 151 151 150 150 149 149 149 149 148 147 147 147 147 146 146 146 145 145 145 144 144 144 143 143 143 143 142 142 142 141 141 140 140 140 140 140 140 140 139 139 139 139 138 138 138 138 138 137 137 137 137 137 136 136 136 136 136 136 135 135 135 135 135 135 135 135 134 134 134 134 134 134 134 134 133 133 133 133 133 133 133 133 133 132 132 132 132 132 132 132 132 132 132 132 132 132 132 132 132 132 132 132 132 134 141 162 199 231 247 253 255 255 255 255 255 255 255 255 255 255 255 255 255 255 255 255 255 255 255 255 255 255 255 255 255 255 255 255 255 255 255 255 255 255 255 255 255 255 255 255 255 255 255 255 255 255 255 255 255 255 255 255 255 255 255 255 255 255 255 255 255
255 255 255 255 255 255 255 255 255 255 255 255 255 255 255 255 255 255 255 255 255 255 255 255 255 255 255 255 255 255 255 255 255 255 255 255 255 255 255 255 255 255 255 255 255 255 255 255 255 255 255 255 255 255 255 255 255 254 247 232 205 181 168 162 161 160 159 159 159 158 158 157 157 157 156 156 156 155 154 154 154 153 153 153 152 151 151 151 150 149 149 149 149 149 148 147 147 147 147 146 146 145 145 145 145 144 144 144 144 143 143 143 142 142 141 141 141 140 140 140 140 140 140 140 139 139 139 139 139 138 138 138 138 138 137 137 137 137 136 136 136 136 136 136 135 135 135 135 135 135 135 135 134 134 134 134 134 134 134 134 133 133 133 133 133 133 133 133 133 133 133 132 132 132 132 132 132 132 132 132 132 132 132 132 132 132 132 132 132 133 140 161 193 226 246 253 255 255 255 255 255 255 255 255 255 255 255 255 255 255 255 255 255 255 255 255 255 255 255 255 255 255 255 255 255 255 255 255 255 255 255 255 255 255 255 255 255 255 255 255 255 255 255 255 255 255 255 255 255 255 255 255 255 255 255 255
255 255 255 255 255 255 255 255 255 255 255 255 255 255 255 255 255 255 255 255 255 255 255 255 255 255 255 255 255 255 255 255 255 255 255 255 255 255 255 255 255 255 255 255 255 255 255 255 255 255 255 255 255 255 255 255 252 245 228 205 180 165 162 162 161 161 160 159 159 158 158 157 157 157 156 156 156 155 154 154 154 153 153 153 152 152 151 151 151 150 149 149 149 149 148 148 147 147 147 147 146 145 145 145 145 145 144 144 144 143 143 143 143 142 142 141 141 141 140 140 140 140 140 140 140 139 139 139 139 138 138 138 138 138 137 137 137 137 137 136 136 136 136 136 136 135 135 135 135 135 135 135 135 134 134 134 134 134 134 134 134 133 133 133 133 133 133 133 133 133 132 132 132 132 132 132 132 132 132 132 132 132 132 132 132 132 132 132 132 132 132 136 158 194 226 246 254 255 255 255 255 255 255 255 255 255 255 255 255 255 255 255 255 255 255 255 255 255 255 255 255 255 255 255 255 255 255 255 255 255 255 255 255 255 255 255 255 255 255 255 255 255 255 255 255 255 255 255 255 255 255 255 255 255 255 255
255 255 255 255 255 255 255 255 255 255 255 255 255 255 255 255 255 255 255 255 255 255 255 255 255 255 255 255 255 255 255 255 255 255 255 255 255 255 255 255 255 255 255 255 255 255 255 255 255 255 255 255 255 255 255 252 244 226 200 176 166 163 162 162 161 161 160 160 159 158 158 158 157 157 156 156 156 155 155 155 154 154 153 153 152 152 152 151 151 150 150 149 149 149 148 148 147 147 147 147 146 145 145 145 145 145 144 144 144 143 143 143 143 143 142 141 141 141 141 140 140 140 140 140 140 140 139 139 139 138 138 138 138 138 138 137 137 137 137 137 136 136 136 136 136 136 135 135 135 135 135 135 135 135 134 134 134 134 134 134 134 134 133 133 133 133 133 133 133 132 132 132 132 132 132 132 132 132 132 132 132 132 132 132 132 132 132 132 132 132 132 133 137 155 194 228 246 254 255 255 255 255 255 255 255 255 255 255 255 255 255 255 255 255 255 255 255 255 255 255 255 255 255 255 255 255 255 255 255 255 255 255 255 255 255 255 255 255 255 255 255 255 255 255 255 255 255 255 255 255 255 255 255 255 255 255
255 255 255 255 255 255 255 255 255 255 255 255 255 255 255 255 255 255 255 255 255 255 255 255 255 255 255 255 255 255 255 255 255 255 255 255 255 255 255 255 255 255 255 255 255 255 255 255 255 255 255 255 255 255 253 243 225 198 177 166 163 163 163 162 162 161 161 160 160 159 158 158 157 157 157 156 156 156 155 155 155 154 154 153 153 152 152 152 151 151 150 150 149 149 149 148 148 147 147 147 146 146 146 145 145 145 145 144 144 144 143 143 143 143 142 142 141 141 141 141 140 140 140 140 140 140 139 139 139 138 138 138 138 138 137 137 137 137 137 137 136 136 136 136 136 136 135 135 135 135 135 135 135 134 134 134 134 134 134 134 134 133 134 133 133 133 133 133 133 133 132 132 132 132 132 132 132 132 132 132 132 132 132 132 132 132 132 132 132 132 132 132 132 137 160 195 229 248 254 255 255 255 255 255 255 255 255 255 255 255 255 255 255 255 255 255 255 255 255 255 255 255 255 255 255 255 255 255 255 255 255 255 255 255 255 255 255 255 255 255 255 255 255 255 255 255 255 255 255 255 255 255 255 255 255 255
255 255 255 255 255 255 255 255 255 255 255 255 255 255 255 255 255 255 255 255 255 255 255 255 255 255 255 255 255 255 255 255 255 255 255 255 255 255 255 255 255 255 255 255 255 255 255 255 255 255 255 255 255 252 243 224 199 176 165 165 164 163 163 163 162 162 161 161 160 159 159 158 158 157 157 157 156 156 156 155 155 154 154 154 153 153 152 152 152 151 151 150 149 149 149 149 148 148 147 147 147 146 146 146 145 145 145 144 144 144 144 143 143 143 142 142 142 141 141 141 141 140 140 140 140 140 139 139 139 138 138 138 138 138 137 137 137 137 137 137 137 136 136 136 136 136 135 135 135 135 135 135 135 134 134 134 134 134 134 134 134 133 134 134 133 133 133 133 133 133 133 132 132 132 132 132 132 132 132 132 132 132 132 132 132 132 132 132 132 132 132 132 132 133 137 160 199 230 248 254 255 255 255 255 255 255 255 255 255 255 255 255 255 255 255 255 255 255 255 255 255 255 255 255 255 255 255 255 255 255 255 255 255 255 255 255 255 255 255 255 255 255 255 255 255 255 255 255 255 255 255 255 255 255 255 255
255 255 255 255 255 255 255 255 255 255 255 255 255 255 255 255 255 255 255 255 255 255 255 255 255 255 255 255 255 255 255 255 255 255 255 255 255 255 255 255 255 255 255 255 255 255 255 255 255 255 255 255 253 243 223 197 176 168 165 165 164 164 164 163 162 162 162 161 160 159 159 159 158 158 157 157 157 156 156 155 155 155 154 154 153 153 153 152 152 151 151 151 150 149 149 149 149 148 148 147 147 147 146 146 145 145 145 144 144 144 144 144 143 143 143 142 142 142 141 141 141 140 140 140 140 140 140 139 139 139 138 138 138 138 138 138 138 137 137 137 137 137 136 136 136 136 136 135 135 135 135 135 135 135 135 134 134 134 134 134 134 134 134 134 133 133 133 133 133 133 133 133 132 132 132 132 132 132 132 133 133 133 133 133 134 134 134 133 133 133 133 133 132 132 132 139 160 198 233 249 254 255 255 255 255 255 255 255 255 255 255 255 255 255 255 255 255 255 255 255 255 255 255 255 255 255 255 255 255 255 255 255 255 255 255 255 255 255 255 255 255 255 255 255 255 255 255 255 255 255 255 255 255 255 255 255
255 255 255 255 255 255 255 255 255 255 255 255 255 255 255 255 255 255 255 255 255 255 255 255 255 255 255 255 255 255 255 255 255 255 255 255 255 255 255 255 255 255 255 255 255 255 255 255 255 255 255 253 245 226 198 177 167 166 166 165 165 164 164 164 162 162 162 162 161 160 160 159 159 158 158 157 157 157 156 156 155 155 154 154 153 153 153 153 152 151 151 151 150 149 149 149 149 148 148 148 147 147 146 146 146 145 145 145 144 144 144 144 143 143 143 143 142 142 141 141 141 140 140 140 140 140 140 139 139 139 139 138 138 138 138 138 138 137 137 137 137 137 137 136 136 136 136 136 135 135 135 135 135 135 135 135 134 134 134 134 134 134 134 134 133 133 133 133 133 133 133 133 133 133 133 132 132 133 135 137 139 140 141 142 142 142 143 142 141 140 139 137 136 134 133 132 138 165 202 234 251 255 255 255 255 255 255 255 255 255 255 255 255 255 255 255 255 255 255 255 255 255 255 255 255 255 255 255 255 255 255 255 255 255 255 255 255 255 255 255 255 255 255 255 255 255 255 255 255 255 255 255 255 255 255 255
255 255 255 255 255 255 255 255 255 255 255 255 255 255 255 255 255 255 255 255 255 255 255 255 255 255 255 255 255 255 255 255 255 255 255 255 255 255 255 255 255 255 255 255 255 255 255 255 255 255 253 246 228 203 178 169 168 167 166 166 165 165 164 164 163 162 162 162 161 161 160 159 159 159 158 158 157 157 157 156 156 155 154 154 154 153 153 153 153 152 151 151 151 150 149 149 149 149 148 148 148 147 146 146 146 146 145 145 145 144 144 144 143 143 143 143 142 142 142 141 141 141 140 140 140 140 140 139 139 139 139 139 139 139 138 138 138 137 137 137 137 137 137 137 136 136 136 136 136 136 135 135 135 135 135 135 135 134 134 134 134 134 134 134 133 133 133 133 133 133 134 136 137 138 139 140 142 144 146 148 150 151 153 154 154 155 155 154 153 152 150 149 148 145 143 141 139 144 167 209 238 252 255 255 255 255 255 255 255 255 255 255 255 255 255 255 255 255 255 255 255 255 255 255 255 255 255 255 255 255 255 255 255 255 255 255 255 255 255 255 255 255 255 255 255 255 255 255 255 255 255 255 255 255 255 255
255 255 255 255 255 255 255 255 255 255 255 255 255 255 255 255 255 255 255 255 255 255 255 255 255 255 255 255 255 255 255 255 255 255 255 255 255 255 255 255 255 255 255 255 255 255 255 255 255 254 247 231 204 181 170 167 168 167 166 166 165 165 165 164 163 163 162 162 162 161 161 160 159 159 158 158 158 157 157 157 156 156 155 154 154 154 154 153 153 152 152 151 151 150 150 149 149 149 149 148 148 147 147 147 146 146 146 145 145 145 144 144 144 143 143 143 142 142 142 142 142 141 141 141 140 140 140 140 140 139 139 139 139 139 138 138 138 138 137 137 137 137 137 137 136 136 136 136 136 135 135 135 135 135 135 135 135 134 134 134 134 134 134 134 134 135 135 135 136 138 140 143 146 149 153 156 159 160 161 162 163 163 164 164 165 165 165 166 166 165 165 165 165 165 163 158 151 144 151 177 213 243 253 255 255 255 255 255 255 255 255 255 255 255 255 255 255 255 255 255 255 255 255 255 255 255 255 255 255 255 255 255 255 255 255 255 255 255 255 255 255 255 255 255 255 255 255 255 255 255 255 255 255 255 255 255
255 255 255 255 255 255 255 255 255 255 255 255 255 255 255 255 255 255 255 255 255 255 255 255 255 255 255 255 255 255 255 255 255 255 255 255 255 255 255 255 255 255 255 255 255 255 255 255 254 249 233 207 184 170 169 168 168 168 167 166 166 165 165 165 163 163 163 162 162 161 161 160 160 159 158 158 158 157 157 157 157 156 156 155 154 154 154 153 153 152 152 151 151 151 150 150 149 149 149 148 148 147 147 147 146 146 146 145 145 145 144 144 144 144 143 143 143 142 142 142 142 142 141 141 140 140 140 140 140 139 139 139 139 139 138 138 138 138 138 137 137 137 137 137 136 136 136 136 136 135 135 135 135 135 135 135 135 135 134 134 134 134 134 135 137 140 142 146 149 151 153 155 157 159 162 164 166 167 167 168 168 168 169 169 169 170 170 171 172 174 176 177 178 178 176 172 165 159 158 164 189 222 244 254 255 255 255 255 255 255 255 255 255 255 255 255 255 255 255 255 255 255 255 255 255 255 255 255 255 255 255 255 255 255 255 255 255 255 255 255 255 255 255 255 255 255 255 255 255 255 255 255 255 255 255 255
255 255 255 255 255 255 255 255 255 255 255 255 255 255 255 255 255 255 255 255 255 255 255 255 255 255 255 255 255 255 255 255 255 255 255 255 255 255 255 255 255 255 255 255 255 255 255 254 249 235 211 184 173 170 170 169 169 168 168 167 166 166 165 165 164 163 163 163 162 162 161 161 160 159 159 159 158 157 157 157 157 156 156 156 155 154 154 154 153 153 152 152 151 151 151 150 150 149 149 149 148 148 147 147 147 146 146 145 145 145 144 144 144 144 144 143 143 143 142 142 142 142 141 141 141 141 140 140 140 140 139 139 139 139 139 138 138 138 138 138 137 137 137 137 136 136 136 136 136 136 136 136 135 135 135 135 135 135 135 136 137 138 140 142 145 149 153 157 161 163 164 164 165 165 166 166 166 166 168 170 173 177 180 183 186 188 190 192 195 198 199 201 202 201 200 198 195 192 188 182 184 200 228 249 254 255 255 255 255 255 255 255 255 255 255 255 255 255 255 255 255 255 255 255 255 255 255 255 255 255 255 255 255 255 255 255 255 255 255 255 255 255 255 255 255 255 255 255 255 255 255 255 255 255 255 255
255 255 255 255 255 255 255 255 255 255 255 255 255 255 255 255 255 255 255 255 255 255 255 255 255 255 255 255 255 255 255 255 255 255 255 255 255 255 255 255 255 255 255 255 255 255 254 250 238 212 188 175 171 170 170 170 169 168 168 167 166 166 166 165 164 164 163 163 162 162 162 161 161 160 160 159 158 158 157 157 157 156 156 156 155 155 154 154 154 153 153 152 152 151 151 151 150 150 149 149 149 148 148 147 147 147 146 146 145 145 145 144 144 144 144 143 143 143 143 142 142 142 142 141 141 141 140 140 140 140 140 139 139 139 139 139 138 138 138 138 137 137 137 137 137 137 136 136 136 136 136 136 135 135 135 136 136 137 139 141 145 148 152 155 157 159 161 163 164 165 165 166 166 167 168 170 170 172 176 183 192 200 208 214 220 224 229 233 236 237 238 238 238 238 238 237 235 232 227 217 205 200 218 239 251 255 255 255 255 255 255 255 255 255 255 255 255 255 255 255 255 255 255 255 255 255 255 255 255 255 255 255 255 255 255 255 255 255 255 255 255 255 255 255 255 255 255 255 255 255 255 255 255 255 255 255
255 255 255 255 255 255 255 255 255 255 255 255 255 255 255 255 255 255 255 255 255 255 255 255 255 255 255 255 255 255 255 255 255 255 255 255 255 255 255 255 255 255 255 255 255 255 252 239 217 191 176 173 171 171 170 170 169 168 168 167 167 166 166 166 165 164 163 163 163 162 162 161 161 161 160 159 159 158 158 157 157 157 156 156 155 155 155 154 154 153 153 152 152 152 151 151 150 150 150 149 149 148 148 148 147 147 146 146 146 145 145 145 144 144 144 143 143 143 143 142 142 142 142 142 141 141 140 140 140 140 140 139 139 139 139 139 139 138 138 138 137 137 137 137 137 137 136 136 136 136 136 136 135 135 137 139 142 146 148 151 154 157 160 162 163 164 164 164 165 165 165 165 168 173 181 189 196 203 210 217 224 229 234 240 243 247 250 253 254 255 255 255 255 255 255 255 254 252 248 242 233 224 227 237 248 254 255 255 255 255 255 255 255 255 255 255 255 255 255 255 255 255 255 255 255 255 255 255 255 255 255 255 255 255 255 255 255 255 255 255 255 255 255 255 255 255 255 255 255 255 255 255 255 255 255 255
255 255 255 255 255 255 255 255 255 255 255 255 255 255 255 255 255 255 255 255 255 255 255 255 255 255 255 255 255 255 255 255 255 255 255 255 255 255 255 255 255 255 255 255 255 252 244 220 193 179 173 173 172 171 170 170 170 169 168 168 167 167 166 165 165 165 164 163 163 163 162 161 161 161 160 160 159 158 158 158 157 157 157 156 156 155 155 154 154 154 153 153 152 152 152 151 150 150 150 150 149 149 148 148 148 147 147 146 146 146 145 145 145 144 144 144 143 143 143 143 142 142 142 142 142 141 141 140 140 140 140 140 139 139 139 139 139 138 138 138 138 138 138 137 137 137 136 136 136 136 137 138 139 140 142 147 151 156 158 160 161 162 162 163 164 163 163 165 168 172 176 181 187 196 207 218 228 237 244 247 249 250 251 252 253 254 254 255 255 255 255 255 255 255 255 255 255 255 254 253 251 249 244 243 248 252 255 255 255 255 255 255 255 255 255 255 255 255 255 255 255 255 255 255 255 255 255 255 255 255 255 255 255 255 255 255 255 255 255 255 255 255 255 255 255 255 255 255 255 255 255 255 255 255 255 255
255 255 255 255 255 255 255 255 255 255 255 255 255 255 255 255 255 255 255 255 255 255 255 255 255 255 255 255 255 255 255 255 255 255 255 255 255 255 255 255 255 255 255 255 255 246 226 201 181 175 174 173 173 172 171 170 170 169 169 168 168 167 167 166 165 165 165 164 163 163 163 162 161 161 160 160 160 159 158 158 157 157 157 157 156 156 155 155 154 154 154 153 152 152 152 152 151 150 150 150 150 149 149 148 148 148 147 147 146 146 145 145 145 145 144 144 144 143 143 143 143 142 142 142 142 142 141 140 140 140 140 140 140 140 139 139 139 138 138 138 138 138 138 137 137 137 137 137 137 137 140 143 147 150 153 156 158 160 162 162 162 163 163 163 164 165 166 170 180 192 205 216 226 233 239 243 247 251 254 255 255 255 255 255 255 255 255 255 255 255 255 255 255 255 255 255 255 255 255 255 255 255 252 250 251 253 255 255 255 255 255 255 255 255 255 255 255 255 255 255 255 255 255 255 255 255 255 255 255 255 255 255 255 255 255 255 255 255 255 255 255 255 255 255 255 255 255 255 255 255 255 255 255 255 255 255
255 255 255 255 255 255 255 255 255 255 255 255 255 255 255 255 255 255 255 255 255 255 255 255 255 255 255 255 255 255 255 255 255 255 255 255 255 255 255 255 255 255 255 254 250 234 206 186 177 175 174 174 173 172 171 171 170 169 169 168 168 168 167 167 166 165 165 164 164 163 163 163 162 161 161 160 160 160 159 158 158 157 157 157 156 156 156 155 155 154 154 153 153 153 152 152 151 151 151 150 150 149 149 149 149 148 147 147 147 146 146 145 145 145 145 144 144 144 143 143 143 143 142 142 142 142 141 141 140 140 140 140 140 140 139 139 139 138 138 138 138 138 138 137 137 137 138 140 143 145 148 151 154 157 159 160 161 162 162 162 162 162 162 165 173 182 192 202 212 223 233 242 249 253 254 254 254 255 255 255 255 255 255 255 255 255 255 255 255 255 255 255 255 255 255 255 255 255 255 255 255 255 255 254 253 254 255 255 255 255 255 255 255 255 255 255 255 255 255 255 255 255 255 255 255 255 255 255 255 255 255 255 255 255 255 255 255 255 255 255 255 255 255 255 255 255 255 255 255 255 255 255 255 255 255 255
255 255 255 255 255 255 255 255 255 255 255 255 255 255 255 255 255 255 255 255 255 255 255 255 255 255 255 255 255 255 255 255 255 255 255 255 255 255 255 255 255 255 255 251 238 216 191 178 176 176 175 174 174 173 172 171 171 170 169 169 168 168 168 167 166 165 165 165 164 164 163 163 162 162 161 161 160 160 160 159 159 158 157 157 157 156 156 155 155 154 154 153 153 153 152 152 151 151 151 150 150 149 149 149 149 149 148 147 147 147 146 146 145 145 145 144 144 144 143 143 143 143 143 142 142 142 141 141 141 140 140 140 140 140 139 139 139 139 138 138 138 138 138 139 139 140 143 146 150 154 157 158 159 160 160 160 161 161 161 163 166 169 175 184 196 212 226 237 244 248 251 253 254 255 255 255 255 255 255 255 255 255 255 255 255 255 255 255 255 255 255 255 255 255 255 255 255 255 255 255 255 255 255 255 255 255 255 255 255 255 255 255 255 255 255 255 255 255 255 255 255 255 255 255 255 255 255 255 255 255 255 255 255 255 255 255 255 255 255 255 255 255 255 255 255 255 255 255 255 255 255 255 255 255 255 255
255 255 255 255 255 255 255 255 255 255 255 255 255 255 255 255 255 255 255 255 255 255 255 255 255 255 255 255 255 255 255 255 255 255 255 255 255 255 255 255 255 255 253 244 221 197 182 177 177 176 176 175 174 174 173 172 172 171 170 169 169 168 168 168 166 166 165 165 165 164 164 163 162 162 162 161 161 160 160 159 159 159 158 157 157 157 156 155 155 155 155 154 153 153 153 152 152 151 151 150 150 150 149 149 149 149 148 148 147 147 146 146 145 145 145 145 144 144 144 143 143 143 143 143 142 142 142 141 141 141 140 140 140 140 140 140 139 139 139 138 138 138 139 142 145 148 151 153 156 158 160 160 160 160 160 161 161 162 163 168 180 195 210 223 232 240 247 252 254 255 255 255 255 255 255 255 255 255 255 255 255 255 255 255 255 255 255 255 255 255 255 255 255 255 255 255 255 255 255 255 255 255 255 255 255 255 255 255 255 255 255 255 255 255 255 255 255 255 255 255 255 255 255 255 255 255 255 255 255 255 255 255 255 255 255 255 255 255 255 255 255 255 255 255 255 255 255 255 255 255 255 255 255 255 255 255
255 255 255 255 255 255 255 255 255 255 255 255 255 255 255 255 255 255 255 255 255 255 255 255 255 255 255 255 255 255 255 255 255 255 255 255 255 255 255 255 255 254 246 229 204 184 179 178 177 177 176 175 175 174 173 172 172 171 170 170 169 169 168 167 167 166 166 165 165 165 164 163 163 162 162 162 161 161 160 160 159 159 158 158 157 157 157 156 155 155 155 154 154 153 153 153 152 152 151 151 150 150 150 149 149 149 148 148 148 147 146 146 146 145 145 145 145 144 144 144 143 143 143 143 142 142 142 141 141 141 141 140 140 140 140 140 140 139 139 140 141 143 145 148 151 154 157 157 158 159 159 160 160 159 159 161 167 177 187 198 211 226 239 248 252 253 254 255 255 255 255 255 255 255 255 255 255 255 255 255 255 255 255 255 255 255 255 255 255 255 255 255 255 255 255 255 255 255 255 255 255 255 255 255 255 255 255 255 255 255 255 255 255 255 255 255 255 255 255 255 255 255 255 255 255 255 255 255 255 255 255 255 255 255 255 255 255 255 255 255 255 255 255 255 255 255 255 255 255 255 255 255 255 255 255 255
255 255 255 255 255 255 255 255 255 255 255 255 255 255 255 255 255 255 255 255 255 255 255 255 255 255 255 255 255 255 255 255 255 255 255 255 255 255 255 255 254 251 234 208 189 181 179 178 177 177 177 176 175 174 173 173 172 172 171 170 170 169 169 168 167 167 166 166 165 165 164 163 163 163 162 162 162 161 161 160 160 159 158 158 157 157 157 156 156 155 155 154 154 154 153 153 152 152 152 151 151 150 150 150 149 149 149 148 148 148 147 146 146 146 145 145 145 144 144 144 144 143 143 143 142 142 142 141 141 141 141 141 140 140 140 140 140 140 141 143 146 150 153 154 156 157 158 159 159 159 159 160 161 163 166 173 186 205 223 236 243 248 252 254 255 255 255 255 255 255 255 255 255 255 255 255 255 255 255 255 255 255 255 255 255 255 255 255 255 255 255 255 255 255 255 255 255 255 255 255 255 255 255 255 255 255 255 255 255 255 255 255 255 255 255 255 255 255 255 255 255 255 255 255 255 255 255 255 255 255 255 255 255 255 255 255 255 255 255 255 255 255 255 255 255 255 255 255 255 255 255 255 255 255 255 255
255 255 255 255 255 255 255 255 255 255 255 255 255 255 255 255 255 255 255 255 255 255 255 255 255 255 255 255 255 255 255 255 255 255 255 255 255 255 255 255 252 240 218 194 183 180 180 179 178 177 177 177 176 175 174 173 173 172 171 170 170 170 169 169 168 167 166 166 166 165 165 164 164 163 162 162 162 161 161 161 160 159 159 158 158 157 157 156 156 156 155 155 154 154 154 153 153 152 152 151 151 151 150 150 149 149 149 149 148 148 147 147 146 146 146 145 145 145 144 144 144 144 143 143 143 142 142 142 142 141 141 141 140 140 140 141 142 145 147 150 152 154 156 157 157 158 158 159 159 159 159 160 164 176 193 209 223 235 245 252 254 255 255 255 255 255 255 255 255 255 255 255 255 255 255 255 255 255 255 255 255 255 255 255 255 255 255 255 255 255 255 255 255 255 255 255 255 255 255 255 255 255 255 255 255 255 255 255 255 255 255 255 255 255 255 255 255 255 255 255 255 255 255 255 255 255 255 255 255 255 255 255 255 255 255 255 255 255 255 255 255 255 255 255 255 255 255 255 255 255 255 255 255 255 255 255
255 255 255 255 255 255 255 255 255 255 255 255 255 255 255 255 255 255 255 255 255 255 255 255 255 255 255 255 255 255 255 255 255 255 255 255 255 255 255 254 246 225 201 187 181 180 180 180 179 178 177 177 176 175 174 174 173 173 172 171 171 170 169 169 168 168 167 166 166 166 165 165 164 163 163 162 162 162 161 161 160 159 159 159 158 158 157 157 156 156 155 155 155 154 154 154 153 153 152 152 151 151 151 150 149 149 149 149 149 148 148 147 146 146 146 145 145 145 144 144 144 144 143 143 143 143 142 142 142 141 141 141 141 141 142 144 147 150 153 155 155 156 157 157 157 157 158 158 159 162 169 179 190 205 224 239 249 252 254 255 255 255 255 255 255 255 255 255 255 255 255 255 255 255 255 255 255 255 255 255 255 255 255 255 254 252 250 247 244 242 240 239 237 237 235 234 234 234 235 237 238 239 241 244 247 251 254 255 255 255 255 255 255 255 255 255 255 255 255 255 255 255 255 255 255 255 255 255 255 255 255 255 255 255 255 255 255 255 255 255 255 255 255 255 255 255 255 255 255 255 255 255 255 255 255 255
255 255 255 255 255 255 255 255 255 255 255 255 255 255 255 255 255 255 255 255 255 255 255 255 255 255 255 255 255 255 255 255 255 255 255 255 255 255 254 250 237 211 190 183 181 181 180 180 179 178 178 177 176 176 175 174 173 173 173 172 171 170 169 169 168 168 167 166 166 166 166 165 164 164 163 163 162 162 162 161 160 160 159 159 159 158 158 157 157 156 156 155 155 155 154 154 153 153 153 152 152 151 151 151 150 149 149 149 149 148 148 148 147 146 146 146 145 145 145 144 144 144 143 143 143 143 142 142 142 142 142 142 143 144 147 150 152 154 155 156 156 157 157 157 157 158 159 160 165 176 193 213 229 240 247 252 255 255 255 255 255 255 255 255 255 255 255 255 255 255 255 255 255 255 255 255 255 255 254 253 253 252 251 250 246 240 231 222 213 205 199 194 190 186 181 177 174 176 180 185 190 196 203 212 223 236 246 250 253 254 255 255 255 255 255 255 255 255 255 255 255 255 255 255 255 255 255 255 255 255 255 255 255 255 255 255 255 255 255 255 255 255 255 255 255 255 255 255 255 255 255 255 255 255 255 255
255 255 255 255 255 255 255 255 255 255 255 255 255 255 255 255 255 255 255 255 255 255 255 255 255 255 255 255 255 255 255 255 255 255 255 255 255 255 254 243 222 198 185 182 182 181 181 180 180 178 178 177 177 176 175 175 174 174 173 173 172 171 170 169 168 168 168 167 166 166 166 165 165 164 163 163 163 162 162 162 161 160 160 159 159 158 158 157 157 156 156 156 155 155 154 154 154 153 153 153 152 151 151 151 151 150 149 149 149 149 148 148 148 147 146 146 145 145 145 145 144 144 144 143 143 143 142 142 142 142 144 146 148 149 151 153 154 155 155 156 156 157 157 157 156 160 168 182 198 213 226 239 248 253 254 255 255 255 255 255 255 255 255 255 255 255 255 255 255 255 255 255 255 255 255 255 254 252 247 239 230 222 214 207 201 192 183 175 165 156 150 145 141 136 131 126 123 125 130 136 141 147 154 164 175 189 203 216 231 244 252 255 255 255 255 255 255 255 255 255 255 255 255 255 255 255 255 255 255 255 255 255 255 255 255 255 255 255 255 255 255 255 255 255 255 255 255 255 255 255 255 255 255 255 255 255
255 255 255 255 255 255 255 255 255 255 255 255 255 255 255 255 255 255 255 255 255 255 255 255 255 255 255 255 255 255 255 255 255 255 255 255 255 255 250 232 205 190 184 183 182 182 181 181 180 179 178 178 177 177 176 175 175 174 174 173 172 171 170 170 169 168 168 167 167 166 166 165 165 165 164 163 163 162 162 162 161 161 160 160 159 159 158 157 157 157 156 156 156 155 154 154 154 153 153 153 152 151 151 151 151 151 150 149 149 149 149 148 148 148 147 146 145 145 145 145 145 144 144 144 143 143 143 143 143 144 147 150 152 153 154 154 155 155 155 156 156 157 158 160 166 177 194 213 231 244 251 253 254 255 255 255 255 255 255 255 255 255 255 255 255 255 255 255 255 255 255 254 252 250 246 243 239 232 221 206 189 172 156 141 129 123 119 117 115 112 111 109 108 107 106 105 104 104 105 107 108 109 111 113 116 121 136 162 191 217 236 247 253 255 255 255 255 255 255 255 255 255 255 255 255 255 255 255 255 255 255 255 255 255 255 255 255 255 255 255 255 255 255 255 255 255 255 255 255 255 255 255 255 255 255 255
255 255 255 255 255 255 255 255 255 255 255 255 255 255 255 255 255 255 255 255 255 255 255 255 255 255 255 255 255 255 255 255 255 255 255 255 255 252 239 217 195 186 184 184 183 182 181 181 181 180 179 178 178 177 177 176 175 174 174 173 172 172 171 170 170 169 168 168 167 167 166 166 165 165 164 163 163 163 163 162 162 161 160 160 160 159 159 158 157 157 157 156 156 156 155 155 154 153 153 153 153 152 151 151 151 151 150 150 150 149 149 149 148 148 147 146 146 145 145 145 145 145 144 144 144 144 144 145 147 149 151 152 153 154 154 154 154 155 155 156 156 158 162 173 193 214 231 242 249 253 255 255 255 255 255 255 255 255 255 255 255 255 255 255 255 255 255 255 254 254 253 250 241 228 215 200 185 170 159 148 138 128 118 110 103 101 101 102 102 102 102 101 101 101 101 101 101 101 101 101 101 101 100 100 100 101 106 121 138 161 190 221 244 254 255 255 255 255 255 255 255 255 255 255 255 255 255 255 255 255 255 255 255 255 255 255 255 255 255 255 255 255 255 255 255 255 255 255 255 255 255 255 255 255 255 255
255 255 255 255 255 255 255 255 255 255 255 255 255 255 255 255 255 255 255 255 255 255 255 255 255 255 255 255 255 255 255 255 255 255 255 255 254 246 225 203 190 185 185 184 184 183 182 181 181 180 179 179 178 178 177 176 176 175 174 173 173 172 172 171 170 169 169 168 167 167 167 166 166 165 165 164 163 163 163 162 162 161 161 160 160 160 159 159 158 157 157 156 156 156 156 155 154 154 153 153 153 152 152 151 151 151 150 150 150 149 149 149 149 148 147 147 146 146 145 145 145 145 145 145 145 146 147 148 150 152 153 153 153 153 154 154 154 155 155 157 162 175 191 208 225 240 250 254 255 255 255 255 255 255 255 255 255 255 255 255 255 255 255 255 255 255 254 251 244 235 226 215 201 185 169 150 131 116 107 105 105 104 104 103 103 103 103 103 103 103 102 102 102 102 102 102 102 102 102 102 102 101 101 101 101 101 101 102 102 113 142 180 216 240 252 255 255 255 255 255 255 255 255 255 255 255 255 255 255 255 255 255 255 255 255 255 255 255 255 255 255 255 255 255 255 255 255 255 255 255 255 255 255 255 255 255
255 255 255 255 255 255 255 255 255 255 255 255 255 255 255 255 255 255 255 255 255 255 255 255 255 255 255 255 255 255 255 255 255 255 255 254 250 237 211 191 186 186 185 184 184 183 182 181 181 180 180 180 179 178 177 177 177 176 175 174 173 173 172 172 171 170 170 169 168 168 167 166 166 166 165 165 164 163 163 162 162 162 161 161 161 160 159 159 159 158 157 157 156 156 156 156 155 154 154 153 153 153 152 152 151 151 151 150 150 149 149 149 149 149 148 147 147 146 146 145 145 145 145 146 147 149 150 151 152 152 152 153 153 153 154 155 155 156 161 169 183 205 226 242 250 253 255 255 255 255 255 255 255 255 255 255 255 255 255 255 255 255 255 252 250 247 243 234 218 197 174 150 133 125 120 115 110 106 104 104 104 104 104 104 104 103 103 103 103 103 103 103 103 103 103 103 102 102 102 102 102 102 102 102 102 102 101 101 101 103 110 131 167 211 242 252 255 255 255 255 255 255 255 255 255 255 255 255 255 255 255 255 255 255 255 255 255 255 255 255 255 255 255 255 255 255 255 255 255 255 255 255 255 255 255 255
255 255 255 255 255 255 255 255 255 255 255 255 255 255 255 255 255 255 255 255 255 255 255 255 255 255 255 255 255 255 255 255 255 255 255 253 242 222 200 187 186 186 185 185 184 184 183 182 181 181 180 180 179 178 178 177 177 176 175 175 174 173 173 172 171 170 170 169 169 168 168 167 166 166 165 165 164 164 163 163 162 162 162 161 161 160 159 159 159 158 157 157 156 156 156 156 155 154 154 154 153 153 153 152 152 151 151 150 150 150 149 149 149 149 148 148 147 147 146 146 146 146 147 148 149 150 151 152 152 152 152 153 153 154 154 155 157 164 182 203 222 236 246 253 255 255 255 255 255 255 255 255 255 255 255 255 255 255 255 255 254 253 250 240 226 211 194 179 164 148 131 114 105 103 103 104 104 105 105 105 105 105 105 104 104 104 104 104 104 104 104 103 103 103 103 103 103 103 103 103 102 102 102 102 102 102 102 102 102 101 101 106 130 173 214 241 253 255 255 255 255 255 255 255 255 255 255 255 255 255 255 255 255 255 255 255 255 255 255 255 255 255 255 255 255 255 255 255 255 255 255 255 255 255 255 255
255 255 255 255 255 255 255 255 255 255 255 255 255 255 255 255 255 255 255 255 255 255 255 255 255 255 255 255 255 255 255 255 255 255 255 250 232 206 191 186 186 186 186 185 185 184 183 183 182 181 181 180 179 179 178 177 177 176 176 175 174 174 173 173 172 171 170 170 169 168 168 167 167 166 165 165 165 164 163 163 163 162 162 162 161 161 160 159 159 158 158 157 157 156 156 156 155 155 154 154 154 153 153 153 152 152 151 150 150 150 150 149 149 149 148 148 147 147 146 146 147 147 149 150 150 151 151 152 152 152 152 153 153 153 157 165 178 194 214 233 247 253 254 255 255 255 255 255 255 255 255 255 255 255 255 255 255 255 254 249 242 233 222 206 186 163 138 118 111 109 108 107 106 105 105 105 105 105 105 105 105 105 105 105 104 104 104 104 104 104 104 104 103 103 103 103 103 103 103 103 103 102 102 102 102 102 102 102 102 102 102 101 108 135 177 219 244 253 255 255 255 255 255 255 255 255 255 255 255 255 255 255 255 255 255 255 255 255 255 255 255 255 255 255 255 255 255 255 255 255 255 255 255 255 255 255
255 255 255 255 255 255 255 255 255 255 255 255 255 255 255 255 255 255 255 255 255 255 255 255 255 255 255 255 255 255 255 255 255 255 253 244 221 195 186 186 186 186 186 186 185 184 184 183 182 182 181 180 180 179 178 178 177 177 176 175 174 174 173 173 172 171 170 170 169 168 168 168 167 166 166 166 165 165 164 163 163 163 162 162 161 161 161 160 159 159 158 158 157 157 156 156 156 155 155 154 154 154 153 153 152 152 151 151 151 150 150 150 149 149 149 148 148 147 147 147 148 149 150 150 151 151 151 152 152 152 152 153 155 160 170 189 213 233 244 250 254 255 255 255 255 255 255 255 255 255 255 255 255 255 255 254 252 249 243 231 211 187 161 143 131 122 114 108 106 106 106 107 107 106 106 106 106 106 106 105 105 105 105 105 105 105 105 105 105 104 104 104 104 104 104 104 103 103 103 103 103 103 103 103 103 102 102 102 102 102 102 102 103 110 140 185 226 250 255 255 255 255 255 255 255 255 255 255 255 255 255 255 255 255 255 255 255 255 255 255 255 255 255 255 255 255 255 255 255 255 255 255 255 255 255 255
255 255 255 255 255 255 255 255 255 255 255 255 255 255 255 255 255 255 255 255 255 255 255 255 255 255 255 255 255 255 255 255 255 255 249 232 209 189 185 186 186 186 186 186 186 185 184 183 183 182 181 180 180 180 179 178 177 177 176 176 175 174 174 173 172 172 171 170 169 169 169 168 167 167 167 166 165 165 165 164 163 163 163 162 162 161 161 161 160 159 159 158 158 157 157 156 156 156 155 155 154 154 153 153 153 152 151 151 151 151 150 150 149 149 149 148 148 148 148 148 149 150 150 150 150 151 151 152 152 152 153 157 168 188 209 225 239 250 254 255 255 255 255 255 255 255 255 255 255 255 255 255 254 254 252 245 233 218 200 182 163 141 120 108 106 106 107 107 107 107 107 107 107 107 107 106 106 106 106 106 105 105 105 105 105 105 105 105 105 104 104 104 104 104 104 104 104 103 103 103 103 103 103 103 103 103 102 102 102 102 102 102 101 102 117 156 205 240 252 255 255 255 255 255 255 255 255 255 255 255 255 255 255 255 255 255 255 255 255 255 255 255 255 255 255 255 255 255 255 255 255 255 255 255 255 255
255 255 255 255 255 255 255 255 255 255 255 255 255 255 255 255 255 255 255 255 255 255 255 255 255 255 255 255 255 255 255 255 255 254 243 219 198 187 186 186 186 186 186 186 186 185 184 184 184 183 182 181 180 180 180 179 178 177 177 176 175 175 174 174 173 172 172 171 170 170 169 168 168 168 167 167 166 165 165 165 164 163 163 163 162 161 161 161 160 159 159 158 158 158 157 157 156 156 156 155 155 154 153 153 153 152 152 152 152 151 150 150 149 149 148 148 148 148 148 149 149 149 150 150 150 150 151 152 152 154 163 178 198 221 241 250 253 255 255 255 255 255 255 255 255 255 255 255 255 255 255 253 248 241 232 217 196 170 144 122 115 113 110 109 108 108 108 108 107 107 107 107 107 107 107 107 107 107 107 106 106 106 106 106 106 106 105 105 105 105 105 105 105 105 105 104 104 104 104 104 104 104 103 103 103 103 103 103 103 103 103 102 102 102 109 134 179 220 246 255 255 255 255 255 255 255 255 255 255 255 255 255 255 255 255 255 255 255 255 255 255 255 255 255 255 255 255 255 255 255 255 255 255 255 255 255
255 255 255 255 255 255 255 255 255 255 255 255 255 255 255 255 255 255 255 255 255 255 255 255 255 255 255 255 255 255 255 255 255 251 236 208 189 186 186 186 186 186 186 186 186 186 185 184 184 183 183 182 181 181 180 179 179 178 177 177 176 176 175 174 173 173 172 171 170 170 170 169 168 168 168 167 166 166 166 165 164 164 163 163 162 162 162 161 160 160 159 158 158 158 157 157 157 156 156 155 155 155 154 154 153 153 152 152 152 151 150 150 150 148 147 147 148 148 148 149 149 149 150 150 151 151 151 152 157 166 189 214 234 246 252 255 255 255 255 255 255 255 255 255 255 255 255 255 254 252 250 243 226 203 178 158 142 129 116 108 106 107 107 108 109 110 111 112 111 111 111 110 109 108 107 106 106 106 107 107 107 107 107 107 107 106 106 106 106 106 105 105 105 105 105 105 105 105 105 104 104 104 104 104 104 104 104 103 103 103 103 103 103 103 106 118 144 188 233 253 255 255 255 255 255 255 255 255 255 255 255 255 255 255 255 255 255 255 255 255 255 255 255 255 255 255 255 255 255 255 255 255 255 255 255 255
255 255 255 255 255 255 255 255 255 255 255 255 255 255 255 255 255 255 255 255 255 255 255 255 255 255 255 255 255 255 255 255 253 243 223 198 185 185 186 186 186 186 186 186 186 186 185 185 184 184 183 182 181 181 180 180 179 179 178 177 177 176 175 174 174 173 173 172 171 171 170 169 169 168 168 167 166 166 166 165 165 164 163 163 162 162 162 161 161 160 160 159 158 158 158 157 157 156 156 155 155 155 154 154 153 153 152 152 152 151 151 150 149 148 147 147 148 148 148 149 149 149 150 150 150 150 153 161 179 201 223 239 251 255 255 255 255 255 255 255 255 255 255 255 255 255 255 254 248 237 221 203 182 157 131 115 110 109 110 109 109 109 110 113 119 126 131 132 133 134 133 130 124 117 111 107 107 107 107 107 107 107 107 107 107 107 106 106 106 106 106 105 105 105 105 105 105 105 105 104 104 104 104 104 104 104 104 104 103 103 103 103 103 103 105 108 114 156 214 245 254 255 255 255 255 255 255 255 255 255 255 255 255 255 255 255 255 255 255 255 255 255 255 255 255 255 255 255 255 255 255 255 255 255 255 255
255 255 255 255 255 255 255 255 255 255 255 255 255 255 255 255 255 255 255 255 255 255 255 255 255 255 255 255 255 255 255 255 251 233 209 192 185 185 185 186 186 186 186 186 186 186 186 185 185 184 184 183 182 181 180 180 180 179 178 177 177 176 175 175 174 173 173 173 172 171 170 170 169 168 168 168 167 166 166 166 165 164 164 164 163 162 162 161 161 160 160 160 159 158 158 158 157 157 156 156 156 155 154 154 154 153 153 152 152 151 150 149 147 146 146 147 148 148 148 149 149 149 149 150 151 157 170 188 212 235 247 252 254 255 255 255 255 255 255 255 255 255 255 255 255 252 246 238 224 202 172 143 125 118 114 117 123 130 136 141 145 149 154 158 165 172 177 179 179 181 180 176 170 163 155 148 142 133 124 113 107 106 107 107 107 107 107 107 107 106 106 106 106 106 106 105 105 105 105 105 105 105 105 105 105 104 104 104 104 104 104 104 103 103 103 102 98 128 185 228 250 255 255 255 255 255 255 255 255 255 255 255 255 255 255 255 255 255 255 255 255 255 255 255 255 255 255 255 255 255 255 255 255 255 255 255
255 255 255 255 255 255 255 255 255 255 255 255 255 255 255 255 255 255 255 255 255 255 255 255 255 255 255 255 255 255 255 254 246 223 196 187 186 185 185 186 186 186 186 186 186 186 186 185 185 185 184 183 182 181 181 181 180 179 178 178 177 177 176 176 175 174 173 173 172 171 171 170 169 169 168 168 167 167 166 166 165 165 164 164 163 163 162 162 161 161 160 160 159 159 158 158 158 157 156 156 156 155 155 154 154 154 153 152 151 150 148 147 146 146 146 147 148 148 148 149 149 149 150 153 160 179 204 226 241 250 254 255 255 255 255 255 255 255 255 255 255 255 254 252 248 236 217 193 171 152 135 121 117 120 127 142 159 174 186 196 205 213 220 224 227 230 231 231 232 232 232 231 229 226 221 213 201 184 163 138 121 113 109 108 107 107 107 107 107 107 107 107 107 107 106 106 106 106 106 106 106 105 105 105 105 105 105 105 105 105 104 104 104 104 104 102 95 105 147 205 244 255 255 255 255 255 255 255 255 255 255 255 255 255 255 255 255 255 255 255 255 255 255 255 255 255 255 255 255 255 255 255 255 255 255 255
255 255 255 255 255 255 255 255 255 255 255 255 255 255 255 255 255 255 255 255 255 255 255 255 255 255 255 255 255 255 254 250 237 212 189 185 186 185 185 186 186 186 186 186 186 186 186 186 185 185 185 184 183 182 182 181 180 179 179 178 178 177 177 176 175 174 174 173 173 172 171 170 170 170 169 168 168 167 166 166 165 165 164 164 163 163 163 162 162 161 161 160 160 159 159 158 158 157 157 156 156 155 155 155 154 154 152 150 149 147 146 145 146 146 147 147 148 148 148 149 149 149 156 171 192 214 234 248 254 255 255 255 255 255 255 255 255 255 255 255 255 253 245 232 216 197 172 144 123 124 137 153 166 178 188 198 209 219 227 234 240 246 251 253 254 255 254 254 254 254 254 255 255 254 251 246 238 226 211 193 172 148 121 108 108 108 107 107 107 107 107 107 107 107 107 106 106 106 106 106 106 106 105 105 105 105 105 105 105 105 105 104 104 104 105 103 96 91 115 180 231 250 254 255 255 255 255 255 255 255 255 255 255 255 255 255 255 255 255 255 255 255 255 255 255 255 255 255 255 255 255 255 255 255 255 255
255 255 255 255 255 255 255 255 255 255 255 255 255 255 255 255 255 255 255 255 255 255 255 255 255 255 255 255 255 255 254 246 225 202 187 184 185 186 186 186 186 186 186 186 186 186 186 186 186 185 185 184 184 183 182 181 181 180 180 179 178 177 177 177 176 175 174 174 173 173 172 171 170 170 169 169 168 168 167 166 165 165 165 164 164 163 163 162 162 162 161 161 160 159 159 159 158 158 157 157 156 156 155 154 153 152 150 147 146 145 145 145 146 146 147 147 148 148 148 149 153 162 180 203 228 244 251 254 255 255 255 255 255 255 255 255 255 255 255 252 246 236 218 192 166 149 144 143 148 161 180 199 216 229 240 244 246 248 250 251 253 254 255 255 255 255 255 255 255 255 255 255 255 255 255 254 252 249 246 239 222 194 158 128 112 108 108 108 108 108 108 108 107 107 107 107 107 107 107 107 106 106 106 106 106 105 105 105 105 105 105 105 105 105 105 103 96 86 98 154 208 241 254 255 255 255 255 255 255 255 255 255 255 255 255 255 255 255 255 255 255 255 255 255 255 255 255 255 255 255 255 255 255 255 255 255
255 255 255 255 255 255 255 255 255 255 255 255 255 255 255 255 255 255 255 255 255 255 255 255 255 255 255 255 255 255 254 241 213 193 186 185 185 186 185 186 186 186 186 186 186 186 186 186 186 186 185 184 184 184 183 182 181 180 180 180 179 178 177 177 177 175 175 174 173 173 172 171 171 170 170 169 168 168 168 167 166 165 165 165 164 164 163 162 162 162 162 161 160 160 159 159 158 158 158 157 157 156 155 153 150 148 147 145 145 145 145 145 146 146 147 147 148 148 150 154 170 196 219 235 247 254 255 255 255 255 255 255 255 255 255 255 254 253 249 238 218 194 171 154 149 159 176 194 209 220 229 237 244 249 254 255 255 255 255 255 255 255 255 255 255 255 255 255 255 255 255 255 255 255 255 255 255 255 255 254 246 232 209 173 131 111 109 109 108 108 108 108 107 107 107 108 107 107 107 107 107 106 106 106 106 107 106 106 105 105 105 105 105 105 105 103 96 86 90 124 177 229 252 255 255 255 255 255 255 255 255 255 255 255 255 255 255 255 255 255 255 255 255 255 255 255 255 255 255 255 255 255 255 255 255 255
255 255 255 255 255 255 255 255 255 255 255 255 255 255 255 255 255 255 255 255 255 255 255 255 255 255 255 255 255 255 251 233 204 187 185 185 185 185 185 186 186 185 185 186 186 186 186 186 186 186 186 185 184 184 183 183 182 181 180 180 179 179 178 177 176 176 176 175 174 173 173 172 172 171 170 169 169 168 168 167 167 166 165 165 165 164 163 163 163 162 162 161 161 160 159 159 159 158 158 158 157 155 153 150 147 145 144 144 144 145 145 145 146 146 147 147 147 150 160 180 204 228 244 252 254 255 255 255 255 255 255 255 255 255 255 254 248 236 221 202 182 168 167 178 192 207 220 233 244 250 253 254 254 254 255 255 255 255 255 255 255 255 255 255 255 255 255 255 255 255 255 255 255 255 255 255 255 255 255 255 254 251 240 213 170 132 110 109 109 109 109 109 109 109 108 108 108 108 108 108 107 107 107 107 107 107 107 107 107 106 106 106 106 105 105 103 96 87 86 97 147 213 246 254 255 255 255 255 255 255 255 255 255 255 255 255 255 255 255 255 255 255 255 255 255 255 255 255 255 255 255 255 255 255 255 255
255 255 255 255 255 255 255 255 255 255 255 255 255 255 255 255 255 255 255 255 255 255 255 255 255 255 255 255 255 253 244 224 197 185 185 185 185 185 186 186 186 185 185 186 186 186 186 186 186 186 186 186 185 184 184 183 182 181 180 180 180 179 179 177 177 177 176 175 174 173 173 173 172 171 170 170 169 169 169 168 167 167 166 165 165 164 163 163 163 162 162 161 161 161 160 159 159 159 158 157 155 152 149 146 144 144 144 144 144 145 145 145 146 146 147 147 152 165 187 215 237 248 253 255 255 255 255 255 255 255 255 255 255 253 249 242 228 207 183 170 175 191 211 228 239 244 248 251 254 255 255 255 255 255 255 255 255 255 255 255 255 255 255 255 255 255 255 255 255 255 255 255 255 255 255 255 255 255 255 255 255 255 252 239 210 162 118 110 109 109 109 109 109 109 108 108 108 108 108 108 108 107 107 107 107 107 107 107 107 107 107 106 106 106 105 103 95 87 85 85 125 190 231 251 255 255 255 255 255 255 255 255 255 255 255 255 255 255 255 255 255 255 255 255 255 255 255 255 255 255 255 255 255 255 255 255
255 255 255 255 255 255 255 255 255 255 255 255 255 255 255 255 255 255 255 255 255 255 255 255 255 255 255 255 255 252 236 214 192 184 185 185 185 185 185 185 185 186 186 186 186 186 186 186 186 186 186 186 185 185 184 184 183 182 181 180 180 180 179 178 177 177 176 175 175 174 174 173 172 172 171 170 170 169 169 168 168 167 166 166 165 165 164 163 163 162 162 162 161 161 161 160 159 159 158 155 151 147 145 143 144 144 144 144 144 145 145 145 146 146 147 153 173 199 223 241 251 254 255 255 255 255 255 255 255 255 255 255 252 242 224 206 194 192 195 204 218 230 241 250 254 255 255 255 255 255 255 255 255 255 255 255 255 255 255 255 255 255 255 255 255 255 255 255 255 255 255 255 255 255 255 255 255 255 255 255 255 255 255 251 234 191 142 117 109 110 110 110 109 109 109 109 109 109 109 108 108 108 108 108 108 107 107 107 107 107 107 107 107 106 105 101 94 87 85 83 108 160 212 246 255 255 255 255 255 255 255 255 255 255 255 255 255 255 255 255 255 255 255 255 255 255 255 255 255 255 255 255 255 255 255 255
255 255 255 255 255 255 255 255 255 255 255 255 255 255 255 255 255 255 255 255 255 255 255 255 255 255 255 255 255 250 227 202 189 185 185 185 185 185 185 185 185 185 186 186 186 186 186 186 186 186 186 186 186 185 185 184 184 183 182 181 180 180 179 179 178 177 177 176 175 175 174 173 173 172 172 171 170 170 169 169 168 167 166 166 166 165 165 164 163 163 162 162 162 161 161 160 159 157 154 150 146 143 142 143 143 144 144 144 144 145 145 145 146 150 161 182 207 230 247 253 254 255 255 255 255 255 255 255 255 255 251 243 234 221 207 195 196 211 227 241 249 252 253 254 255 255 255 255 255 255 255 255 255 255 255 255 255 255 255 255 255 255 255 255 255 255 255 255 255 255 255 255 255 255 255 255 255 255 255 255 255 255 255 254 246 215 171 127 109 110 110 110 110 109 109 109 109 109 109 109 108 108 108 108 108 108 107 107 107 107 107 107 107 107 105 99 92 86 85 84 94 127 189 239 253 255 255 255 255 255 255 255 255 255 255 255 255 255 255 255 255 255 255 255 255 255 255 255 255 255 255 255 255 255 255 255
255 255 255 255 255 255 255 255 255 255 255 255 255 255 255 255 255 255 255 255 255 255 255 255 255 255 255 255 254 246 218 192 186 185 185 185 185 185 185 185 185 185 185 185 185 185 186 186 186 186 186 186 186 186 185 185 184 183 182 182 181 180 180 179 178 178 177 177 176 175 174 173 173 173 172 171 170 170 170 169 168 168 167 166 166 165 165 165 164 163 163 162 162 162 161 160 157 152 147 145 143 142 143 143 143 144 144 144 144 145 145 146 152 165 192 220 238 249 254 255 255 255 255 255 255 255 255 254 254 250 240 224 208 206 217 228 237 243 249 253 255 255 255 255 255 255 255 255 255 255 255 255 255 255 255 255 255 255 255 255 255 255 255 255 255 255 255 255 255 255 255 255 255 255 255 255 255 255 255 255 255 255 255 255 251 234 196 137 108 111 111 110 110 110 110 110 110 110 109 109 109 109 109 109 109 109 108 108 108 108 108 108 108 107 104 97 90 86 85 85 85 101 168 226 248 254 255 255 255 255 255 255 255 255 255 255 255 255 255 255 255 255 255 255 255 255 255 255 255 255 255 255 255 255 255 255
255 255 255 255 255 255 255 255 255 255 255 255 255 255 255 255 255 255 255 255 255 255 255 255 255 255 255 255 250 237 210 187 184 185 185 185 185 185 185 185 185 185 185 186 186 186 186 186 186 186 186 186 186 186 186 185 184 184 183 182 181 181 180 180 179 178 177 177 176 175 175 174 174 173 173 172 171 170 170 169 169 168 168 167 166 166 165 165 164 163 163 163 163 162 160 156 151 146 143 142 142 143 143 143 144 144 144 144 144 145 145 154 174 201 227 244 252 255 255 255 255 255 255 255 255 255 254 251 243 231 223 220 222 228 238 248 254 254 255 255 255 255 255 255 255 255 255 255 255 255 255 255 255 255 255 255 255 255 255 255 255 255 255 255 255 255 255 255 255 255 255 255 255 255 255 255 255 255 255 255 255 255 255 255 254 246 212 146 111 111 111 111 111 111 111 111 111 110 110 110 110 110 110 110 109 109 109 109 109 109 108 108 108 107 103 94 88 86 85 85 82 90 148 205 239 253 255 255 255 255 255 255 255 255 255 255 255 255 255 255 255 255 255 255 255 255 255 255 255 255 255 255 255 255 255 255
255 255 255 255 255 255 255 255 255 255 255 255 255 255 255 255 255 255 255 255 255 255 255 255 255 255 255 254 246 227 203 185 184 185 185 185 185 185 185 185 185 185 185 186 186 186 186 186 186 186 186 186 186 186 186 185 184 184 184 183 182 181 181 180 179 179 178 177 177 176 176 175 174 173 173 173 172 171 170 169 169 168 168 168 167 166 166 165 165 164 163 163 162 159 155 150 145 142 141 142 142 143 143 143 144 144 144 144 144 148 160 181 207 233 249 254 255 255 255 255 255 255 255 255 254 252 249 243 234 223 223 232 245 251 253 254 255 255 255 255 255 255 255 255 255 255 255 255 255 255 255 255 255 255 255 255 255 255 255 255 255 255 255 255 255 255 255 255 255 255 255 255 255 255 255 255 255 255 255 255 255 255 255 255 255 251 221 157 118 112 111 111 111 111 111 111 111 111 110 110 110 110 110 110 109 109 109 109 109 109 109 108 108 106 101 91 86 85 85 85 83 87 127 179 229 252 255 255 255 255 255 255 255 255 255 255 255 255 255 255 255 255 255 255 255 255 255 255 255 255 255 255 255 255 255 255
255 255 255 255 255 255 255 255 255 255 255 255 255 255 255 255 255 255 255 255 255 255 255 255 255 255 255 254 241 217 196 185 184 184 185 185 185 185 185 185 185 185 185 185 185 185 185 186 186 186 186 186 186 186 186 185 185 184 184 183 183 182 181 181 179 179 179 178 177 177 176 176 175 174 173 173 172 171 171 170 169 169 168 168 167 167 166 166 165 165 163 162 158 152 147 144 142 141 141 142 142 142 143 143 143 144 144 144 148 162 191 218 239 250 254 255 255 255 255 255 255 255 255 254 252 246 238 235 237 241 245 248 253 255 255 255 255 255 255 255 255 255 255 255 255 255 255 255 255 255 255 255 255 255 255 255 255 255 255 255 255 255 255 255 255 255 255 255 255 255 255 255 255 255 255 255 255 255 255 255 255 255 255 255 255 252 226 170 128 113 111 112 111 111 111 111 111 111 111 111 111 111 111 111 110 110 110 110 110 109 109 109 108 105 98 89 85 85 85 85 84 86 102 150 216 250 255 255 255 255 255 255 255 255 255 255 255 255 255 255 255 255 255 255 255 255 255 255 255 255 255 255 255 255 255 255
255 255 255 255 255 255 255 255 255 255 255 255 255 255 255 255 255 255 255 255 255 255 255 255 255 255 255 253 237 207 190 184 184 184 184 185 185 185 185 185 185 185 185 185 185 186 186 186 186 186 186 186 186 186 186 186 185 185 185 184 184 183 181 181 180 179 179 178 177 177 177 176 175 174 173 173 172 172 171 170 170 169 169 168 168 167 167 166 166 164 162 157 151 145 142 141 141 141 141 142 142 142 143 143 143 143 145 151 171 199 224 242 252 255 255 255 255 255 255 255 255 255 254 253 249 245 242 242 246 252 254 254 255 255 255 255 255 255 255 255 255 255 255 255 255 255 255 255 255 255 255 255 255 255 255 255 255 255 255 255 255 255 255 255 255 255 255 255 255 255 255 255 255 255 255 255 255 255 255 255 255 255 255 255 255 252 228 176 133 115 111 112 112 112 112 112 112 112 111 111 111 111 111 111 111 111 111 111 110 110 109 110 109 103 95 88 85 85 85 85 85 86 87 127 201 241 253 255 255 255 255 255 255 255 255 255 255 255 255 255 255 255 255 255 255 255 255 255 255 255 255 255 255 255 255 255
255 255 255 255 255 255 255 255 255 255 255 255 255 255 255 255 255 255 255 255 255 255 255 255 255 255 255 252 232 199 185 183 184 184 184 184 185 185 185 185 185 185 185 185 186 186 186 186 186 186 186 186 186 186 186 186 186 186 185 184 184 183 182 181 180 180 179 179 178 177 177 176 176 175 174 173 173 172 172 170 170 170 169 169 168 168 167 166 164 162 157 149 143 141 140 140 141 141 141 142 142 142 143 143 144 146 155 174 204 232 247 253 255 255 255 255 255 255 255 255 255 255 254 252 249 249 252 253 254 255 255 255 255 255 255 255 255 255 255 255 255 255 255 255 255 255 255 255 255 255 255 255 255 255 255 255 255 255 255 255 255 255 255 255 255 255 255 255 255 255 255 255 255 255 255 255 255 255 255 255 255 255 255 255 255 252 229 177 135 115 112 113 112 112 112 112 112 112 112 111 111 111 111 111 111 111 111 111 111 110 110 110 108 100 91 86 85 85 85 85 85 85 82 113 182 227 249 255 255 255 255 255 255 255 255 255 255 255 255 255 255 255 255 255 255 255 255 255 255 255 255 255 255 255 255 255
255 255 255 255 255 255 255 255 255 255 255 255 255 255 255 255 255 255 255 255 255 255 255 255 255 255 254 247 226 194 183 183 184 184 184 184 184 185 185 185 185 185 185 186 185 185 185 185 185 186 186 186 186 186 186 186 186 186 186 185 184 184 183 182 181 180 180 179 179 178 177 177 176 175 174 173 173 173 172 171 170 170 170 169 168 168 167 165 161 155 148 142 140 140 140 140 140 141 141 142 142 142 143 143 146 157 181 214 236 248 254 255 255 255 255 255 255 255 255 255 255 255 254 254 253 253 255 255 255 255 255 255 255 255 255 255 255 255 255 255 255 255 255 255 255 255 255 255 255 255 255 255 255 255 255 255 255 255 255 255 255 255 255 255 255 255 255 255 255 255 255 255 255 255 255 255 255 255 255 255 255 255 255 255 255 252 228 176 134 116 113 113 113 113 113 113 113 112 112 112 112 112 112 112 111 111 111 111 111 111 111 110 106 97 88 85 85 85 85 85 85 85 82 105 161 211 245 254 255 255 255 255 255 255 255 255 255 255 255 255 255 255 255 255 255 255 255 255 255 255 255 255 255 255 255 255
255 255 255 255 255 255 255 255 255 255 255 255 255 255 255 255 255 255 255 255 255 255 255 255 255 255 252 241 219 191 182 183 184 184 184 184 184 185 185 185 185 185 185 186 185 185 185 185 186 186 186 186 186 186 186 186 186 186 186 185 185 184 183 182 181 181 180 180 179 178 177 177 177 176 175 174 173 173 173 172 171 170 170 169 169 167 164 159 153 147 141 139 139 140 140 140 140 141 141 142 142 142 142 148 163 188 216 240 252 254 255 255 255 255 255 255 255 255 255 255 255 255 255 255 255 255 255 255 255 255 255 255 255 255 255 255 255 255 255 255 255 255 255 255 255 255 255 255 255 255 255 255 255 255 255 255 255 255 255 255 255 255 255 255 255 255 255 255 255 255 255 255 255 255 255 255 255 255 255 255 255 255 255 255 255 252 226 170 130 116 113 114 113 113 113 113 113 113 113 112 112 112 112 112 111 111 111 111 111 111 111 109 103 93 86 85 85 85 85 85 85 85 83 97 135 193 241 254 255 255 255 255 255 255 255 255 255 255 255 255 255 255 255 255 255 255 255 255 255 255 255 255 255 255 255 255
255 255 255 255 255 255 255 255 255 255 255 255 255 255 255 255 255 255 255 255 255 255 255 255 255 255 250 234 211 189 182 183 184 184 184 184 184 184 185 185 185 185 185 185 185 185 186 186 186 186 186 186 186 186 186 186 186 186 186 185 185 185 184 183 182 181 180 180 180 179 178 177 177 177 175 175 174 173 173 173 172 171 170 170 168 165 158 150 143 140 139 139 139 139 140 140 141 141 141 142 142 143 148 165 192 223 244 252 255 255 255 255 255 255 255 255 255 255 255 255 255 255 255 255 255 255 255 255 255 255 255 255 255 255 255 255 255 255 255 255 255 255 255 255 255 255 255 255 255 255 255 255 255 255 255 255 255 255 255 255 255 255 255 255 255 255 255 255 255 255 255 255 255 255 255 255 255 255 255 255 255 255 255 255 255 251 223 162 122 115 114 114 114 114 114 114 114 114 114 113 113 113 112 112 112 112 112 112 112 112 111 106 97 89 86 85 85 85 85 85 85 85 84 89 108 174 235 253 255 255 255 255 255 255 255 255 255 255 255 255 255 255 255 255 255 255 255 255 255 255 255 255 255 255 255 255
255 255 255 255 255 255 255 255 255 255 255 255 255 255 255 255 255 255 255 255 255 255 255 255 255 255 249 226 202 187 182 183 183 183 183 184 184 184 184 185 185 185 185 185 185 185 185 185 185 185 186 186 186 186 186 186 186 186 186 186 185 185 184 183 182 182 181 180 180 179 178 178 177 177 176 175 175 174 173 173 172 171 170 169 165 156 148 142 139 138 139 139 139 139 140 140 141 141 141 142 142 149 170 199 227 245 254 255 255 255 255 255 255 255 255 255 255 255 255 255 255 255 255 255 255 255 255 255 255 255 255 255 255 255 255 255 255 255 255 255 255 255 255 255 255 255 255 255 255 255 255 255 255 255 255 255 255 255 255 255 255 255 255 255 255 255 255 255 255 255 255 255 255 255 255 255 255 255 255 255 255 255 255 255 255 249 217 152 115 115 114 115 115 114 114 114 114 114 114 114 114 114 113 113 113 113 113 113 112 112 110 104 93 86 85 85 85 85 85 85 85 85 85 85 92 158 224 249 255 255 255 255 255 255 255 255 255 255 255 255 255 255 255 255 255 255 255 255 255 255 255 255 255 255 255 255
255 255 255 255 255 255 255 255 255 255 255 255 255 255 255 255 255 255 255 255 255 255 255 255 255 255 247 219 194 185 183 183 183 183 183 184 184 184 184 184 185 185 185 185 185 185 185 185 185 185 186 186 186 185 186 186 186 186 186 186 186 185 184 184 183 182 182 181 180 179 179 178 178 177 176 176 175 174 173 173 172 171 168 164 157 147 140 139 138 138 139 139 139 139 140 140 141 141 141 143 153 174 203 229 248 254 255 255 255 255 255 255 255 255 255 255 255 255 255 255 255 255 255 255 255 255 255 255 255 255 255 255 255 255 255 255 255 255 255 255 255 255 255 255 255 255 255 255 255 255 255 255 255 255 255 255 255 255 255 255 255 255 255 255 255 255 255 255 255 255 255 255 255 255 255 255 255 255 255 255 255 255 255 255 253 244 209 144 112 115 115 115 115 115 114 114 114 114 114 114 114 114 114 114 113 113 113 113 113 111 107 99 89 85 85 85 85 85 85 85 85 85 85 84 86 145 209 241 254 255 255 255 255 255 255 255 255 255 255 255 255 255 255 255 255 255 255 255 255 255 255 255 255 255 255 255
255 255 255 255 255 255 255 255 255 255 255 255 255 255 255 255 255 255 255 255 255 255 255 255 255 254 244 212 187 183 182 183 183 183 183 184 184 184 184 184 184 185 185 185 185 185 185 185 185 186 186 186 186 186 186 186 186 186 186 186 186 186 185 184 184 183 182 181 180 180 179 178 178 178 177 176 176 175 174 173 172 169 163 154 145 140 138 137 138 139 139 139 139 139 140 140 140 141 143 152 179 212 235 249 254 255 255 255 255 255 255 255 255 255 255 255 255 255 255 255 255 255 255 255 255 255 255 255 255 255 255 255 255 255 255 255 255 255 255 255 255 255 255 255 255 255 255 255 255 255 255 255 255 255 255 255 255 255 255 255 255 255 255 255 255 255 255 255 255 255 255 255 255 255 255 255 255 255 255 255 255 255 255 255 251 235 197 139 113 116 116 116 115 115 115 115 115 114 114 114 114 114 114 114 114 114 114 114 114 110 102 93 87 85 85 85 85 85 85 85 85 85 85 84 85 133 191 232 253 255 255 255 255 255 255 255 255 255 255 255 255 255 255 255 255 255 255 255 255 255 255 255 255 255 255 255
255 255 255 255 255 255 255 255 255 255 255 255 255 255 255 255 255 255 255 255 255 255 255 255 255 253 240 207 183 182 182 183 183 183 183 183 184 184 184 184 185 185 185 185 185 185 185 185 185 185 186 186 186 186 186 186 186 186 186 186 186 186 186 185 184 183 182 181 181 180 180 179 179 178 177 177 176 175 175 173 169 162 152 144 138 137 137 138 138 139 139 139 139 140 140 140 140 142 155 183 213 238 250 255 255 255 255 255 255 255 255 255 255 255 255 255 255 255 255 255 255 255 255 255 255 255 255 255 255 255 255 255 255 255 255 255 255 255 255 255 255 255 255 255 255 255 255 255 255 255 255 255 255 255 255 255 255 255 255 255 255 255 255 255 255 255 255 255 255 255 255 255 255 255 255 255 255 255 255 255 255 255 255 255 248 222 181 134 115 116 116 116 116 115 115 115 115 115 114 114 114 114 114 114 114 114 114 114 112 107 97 89 86 85 85 85 85 85 85 85 85 85 85 84 85 119 171 223 252 255 255 255 255 255 255 255 255 255 255 255 255 255 255 255 255 255 255 255 255 255 255 255 255 255 255 255
255 255 255 255 255 255 255 255 255 255 255 255 255 255 255 255 255 255 255 255 255 255 255 255 255 250 235 203 182 182 182 182 183 183 183 183 183 184 184 184 185 185 185 185 185 185 185 185 185 185 185 186 185 185 186 186 186 186 186 186 186 186 186 186 184 184 183 182 182 181 180 180 179 179 178 177 177 176 174 169 161 151 141 137 136 137 137 138 138 139 139 139 139 140 140 140 144 157 183 218 240 252 255 255 255 255 255 255 255 255 255 255 255 255 255 255 255 255 255 255 255 255 255 255 255 255 255 255 255 255 255 255 255 255 255 255 255 255 255 255 255 255 255 255 255 255 255 255 255 255 255 255 255 255 255 255 255 255 255 255 255 255 255 255 255 255 255 255 255 255 255 255 255 255 255 255 255 255 255 255 255 255 255 255 245 207 160 128 116 117 117 117 116 116 116 116 116 115 115 115 115 115 115 115 114 114 114 114 110 102 93 86 85 85 86 85 85 85 85 85 85 85 85 85 85 105 150 214 251 255 255 255 255 255 255 255 255 255 255 255 255 255 255 255 255 255 255 255 255 255 255 255 255 255 255 255
255 255 255 255 255 255 255 255 255 255 255 255 255 255 255 255 255 255 255 255 255 255 255 255 254 247 229 200 182 182 182 182 182 183 183 183 183 184 184 184 184 184 185 185 185 185 185 185 186 185 185 186 185 185 186 186 186 186 186 186 186 186 186 186 185 184 184 183 182 181 180 180 179 179 178 177 177 174 169 158 148 140 137 136 136 137 137 138 138 139 139 139 139 140 140 144 158 190 221 242 252 255 255 255 255 255 255 255 255 255 255 255 255 255 255 255 255 255 255 255 255 255 255 255 255 255 255 255 255 255 255 255 255 255 255 255 255 255 255 255 255 255 255 255 255 255 255 255 255 255 255 255 255 255 255 255 255 255 255 255 255 255 255 255 255 255 255 255 255 255 255 255 255 255 255 255 255 255 255 255 255 255 255 253 239 190 138 121 117 118 118 117 117 117 117 117 117 116 116 116 116 116 115 115 115 115 115 113 106 95 89 86 86 86 85 86 86 85 85 85 85 85 85 85 85 91 128 205 248 255 255 255 255 255 255 255 255 255 255 255 255 255 255 255 255 255 255 255 255 255 255 255 255 255 255 255
255 255 255 255 255 255 255 255 255 255 255 255 255 255 255 255 255 255 255 255 255 255 255 255 254 244 224 197 182 181 182 182 182 182 183 183 183 184 184 184 184 184 185 185 185 185 185 185 186 185 185 186 186 185 186 186 186 186 186 186 186 186 186 186 185 185 184 183 182 182 181 180 180 179 178 178 175 168 157 146 139 135 135 136 137 137 137 138 138 139 139 139 139 140 144 161 192 222 244 253 255 255 255 255 255 255 255 255 255 255 255 255 255 255 255 255 255 255 255 255 255 255 255 255 255 255 255 255 255 255 255 255 255 255 255 255 255 255 255 255 255 255 255 255 255 255 255 255 255 255 255 255 255 255 255 255 255 255 255 255 255 255 255 255 255 255 255 255 255 255 255 255 255 255 255 255 255 255 255 255 255 255 254 248 226 175 124 118 118 118 118 118 117 117 117 117 117 117 116 116 116 116 116 116 115 115 114 110 101 91 86 86 86 86 85 85 85 85 85 85 85 85 85 85 85 83 113 195 243 253 255 255 255 255 255 255 255 255 255 255 255 255 255 255 255 255 255 255 255 255 255 255 255 255 255 255
255 255 255 255 255 255 255 255 255 255 255 255 255 255 255 255 255 255 255 255 255 255 255 255 254 241 218 194 181 181 181 181 182 182 183 183 183 183 183 184 184 184 185 185 185 185 185 185 185 185 185 186 186 186 186 186 186 186 186 186 186 186 186 186 186 185 185 184 183 183 182 181 180 179 178 175 169 156 144 138 136 135 136 136 137 137 137 138 138 139 139 139 139 144 162 192 227 246 253 255 255 255 255 255 255 255 255 255 255 255 255 255 255 255 255 255 255 255 255 255 255 255 255 255 255 255 255 255 255 255 255 255 255 255 255 255 255 255 255 255 255 255 255 255 255 255 255 255 255 255 255 255 255 255 255 255 255 255 255 255 255 255 255 255 255 255 255 255 255 255 255 255 255 255 255 255 255 255 255 255 255 255 253 239 206 159 121 118 118 118 118 118 118 118 118 118 118 117 117 117 117 117 117 117 116 116 113 104 95 88 85 85 86 86 85 85 85 85 85 85 85 85 85 85 85 81 107 184 234 250 255 255 255 255 255 255 255 255 255 255 255 255 255 255 255 255 255 255 255 255 255 255 255 255 255 255
255 255 255 255 255 255 255 255 255 255 255 255 255 255 255 255 255 255 255 255 255 255 255 255 253 238 212 191 181 181 181 181 182 182 182 183 183 183 183 184 184 184 184 184 185 185 185 185 185 185 185 185 185 186 186 186 185 185 186 186 186 186 186 186 186 186 185 185 184 183 183 181 181 179 176 168 155 143 137 135 135 135 136 136 137 137 137 138 138 139 139 140 144 160 195 227 245 253 255 255 255 255 255 255 255 255 255 255 255 255 255 255 255 255 255 255 255 255 255 255 255 255 255 255 255 255 255 255 255 255 255 255 255 255 255 255 255 255 255 255 255 255 255 255 255 255 255 255 255 255 255 255 255 255 255 255 255 255 255 255 255 255 255 255 255 255 255 255 255 255 255 255 255 255 255 255 255 255 255 255 255 255 252 227 181 141 120 119 119 119 119 119 119 118 118 118 118 118 118 118 117 117 117 117 117 115 109 97 89 86 85 85 86 86 85 85 85 85 85 85 85 85 85 85 85 81 103 173 223 247 254 255 255 255 255 255 255 255 255 255 255 255 255 255 255 255 255 255 255 255 255 255 255 255 255 255
255 255 255 255 255 255 255 255 255 255 255 255 255 255 255 255 255 255 255 255 255 255 255 255 253 235 204 187 181 181 181 181 182 182 182 183 183 183 183 183 184 184 184 184 184 185 185 185 185 185 185 185 185 185 186 186 185 185 186 186 186 186 186 186 186 186 186 185 184 184 183 182 180 175 167 154 142 136 135 135 135 135 136 136 137 137 137 138 138 138 139 144 162 193 226 247 253 255 255 255 255 255 255 255 255 255 255 255 255 255 255 255 255 255 255 255 255 255 255 255 255 255 255 255 255 255 255 255 255 255 255 255 255 255 255 255 255 255 255 255 255 255 255 255 255 255 255 255 255 255 255 255 255 255 255 255 255 255 255 255 255 255 255 255 255 255 255 255 255 255 255 255 255 255 255 255 255 255 255 255 255 254 245 211 156 127 121 120 120 119 119 119 119 119 118 118 118 118 118 118 118 118 117 117 117 111 102 92 87 86 86 86 86 86 85 86 86 85 85 85 85 85 85 85 85 82 100 161 212 244 254 255 255 255 255 255 255 255 255 255 255 255 255 255 255 255 255 255 255 255 255 255 255 255 255 255
255 255 255 255 255 255 255 255 255 255 255 255 255 255 255 255 255 255 255 255 255 255 255 255 253 231 198 184 180 181 181 181 181 182 182 183 183 183 183 183 183 184 184 184 184 184 185 185 185 185 185 185 185 185 185 185 186 186 186 186 186 186 186 186 186 186 186 185 184 184 183 181 176 166 151 141 136 134 134 135 135 135 136 136 136 137 137 138 138 139 145 162 194 227 246 253 255 255 255 255 255 255 255 255 255 255 255 255 255 255 255 255 255 255 255 255 255 255 255 255 255 255 255 255 255 255 255 255 255 255 255 255 255 255 255 255 255 255 255 255 255 255 255 255 255 255 255 255 255 255 255 255 255 255 255 255 255 255 255 255 255 255 255 255 255 255 255 255 255 255 255 255 255 255 255 255 255 255 255 255 255 250 230 190 139 120 121 120 120 120 120 120 120 120 119 119 119 119 119 119 118 118 118 118 115 105 93 88 86 86 86 86 86 86 85 86 86 86 85 85 85 85 85 85 85 82 97 150 202 241 254 255 255 255 255 255 255 255 255 255 255 255 255 255 255 255 255 255 255 255 255 255 255 255 255 255
255 255 255 255 255 255 255 255 255 255 255 255 255 255 255 255 255 255 255 255 255 255 255 255 252 228 192 181 180 181 181 181 181 181 182 182 183 183 183 183 183 184 184 184 184 184 185 185 185 185 185 185 185 185 185 185 186 186 186 186 186 186 186 186 186 186 186 186 185 184 182 177 165 151 140 134 134 134 134 135 135 135 136 136 137 137 137 138 139 144 163 197 227 247 254 255 255 255 255 255 255 255 255 255 255 255 255 255 255 255 255 255 255 255 255 255 255 255 255 255 255 255 255 255 255 255 255 255 255 255 255 255 255 255 255 255 255 255 255 255 255 255 255 255 255 255 255 255 255 255 255 255 255 255 255 255 255 255 255 255 255 255 255 255 255 255 255 255 255 255 255 255 255 255 255 255 255 255 255 255 254 244 208 165 129 119 121 121 120 120 120 120 120 120 120 120 119 119 119 119 119 118 118 116 108 98 89 87 86 86 86 86 86 86 85 86 86 85 85 85 86 85 85 85 85 83 94 139 193 238 254 255 255 255 255 255 255 255 255 255 255 255 255 255 255 255 255 255 255 255 255 255 255 255 255 255
255 255 255 255 255 255 255 255 255 255 255 255 255 255 255 255 255 255 255 255 255 255 255 255 252 226 188 179 180 180 181 181 181 181 182 182 182 182 183 183 183 183 183 183 184 184 184 185 185 185 185 185 185 185 185 186 186 186 185 186 186 186 186 186 186 186 186 186 185 183 177 165 151 138 134 133 133 134 134 135 135 136 136 136 137 137 137 138 142 163 195 228 247 254 255 255 255 255 255 255 255 255 255 255 255 255 255 255 255 255 255 255 255 255 255 255 255 255 255 255 255 255 255 255 255 255 255 255 255 255 255 255 255 255 255 255 255 255 255 255 255 255 255 255 255 255 255 255 255 255 255 255 255 255 255 255 255 255 255 255 255 255 255 255 255 255 255 255 255 255 255 255 255 255 255 255 255 255 255 255 250 231 183 141 125 121 122 122 122 121 121 121 121 121 121 120 120 120 120 120 120 119 118 112 101 92 87 86 86 86 86 86 86 86 86 86 86 85 85 85 86 85 85 85 85 84 92 125 181 236 254 255 255 255 255 255 255 255 255 255 255 255 255 255 255 255 255 255 255 255 255 255 255 255 255 255
255 255 255 255 255 255 255 255 255 255 255 255 255 255 255 255 255 255 255 255 255 255 255 255 250 224 186 178 179 180 181 181 181 181 181 182 182 182 183 183 183 183 183 183 184 184 184 184 185 185 185 185 185 185 185 186 186 185 185 185 186 186 186 186 186 186 186 186 184 178 166 149 138 134 133 133 134 134 134 135 135 136 136 136 137 137 138 143 159 193 228 247 254 255 255 255 255 255 255 255 255 255 255 255 255 255 255 255 255 255 255 255 255 255 255 255 255 255 255 255 255 255 255 255 255 255 255 255 255 255 255 255 255 255 255 255 255 255 255 255 255 255 255 255 255 255 255 255 255 255 255 255 255 255 255 255 255 255 255 255 255 255 255 255 255 255 255 255 255 255 255 255 255 255 255 255 255 255 255 253 238 208 160 127 123 122 122 122 122 122 121 121 121 121 121 121 120 120 120 120 120 119 115 106 94 88 86 86 86 86 86 86 86 86 86 86 86 86 85 85 85 85 85 85 85 84 90 111 170 233 253 255 255 255 255 255 255 255 255 255 255 255 255 255 255 255 255 255 255 255 255 255 255 255 255 255
255 255 255 255 255 255 255 255 255 255 255 255 255 255 255 255 255 255 255 255 255 255 255 255 248 222 186 177 179 180 180 181 181 181 181 181 182 182 182 183 183 183 183 183 184 184 184 184 184 185 185 185 185 185 185 185 185 186 186 186 186 186 186 186 186 186 186 184 178 165 150 139 133 133 133 133 133 134 134 135 135 136 136 136 137 137 141 158 192 225 246 254 255 255 255 255 255 255 255 255 255 255 255 255 255 255 255 255 255 255 255 255 255 255 255 255 255 255 255 255 255 255 255 255 255 255 255 255 255 255 255 255 255 255 255 255 255 255 255 255 255 255 255 255 255 255 255 255 255 255 255 255 255 255 255 255 255 255 255 255 255 255 255 255 255 255 255 255 255 255 255 255 255 255 255 255 255 255 255 250 222 177 140 122 123 123 123 123 123 122 122 122 122 122 121 121 121 121 121 121 120 117 108 97 89 86 86 86 86 86 86 86 86 86 86 86 86 85 86 85 85 85 85 85 85 85 87 97 160 231 253 255 255 255 255 255 255 255 255 255 255 255 255 255 255 255 255 255 255 255 255 255 255 255 255 255
255 255 255 255 255 255 255 255 255 255 255 255 255 255 255 255 255 255 255 255 255 255 255 255 246 220 185 177 178 179 180 180 181 181 181 181 181 182 182 183 183 183 183 184 184 184 184 184 184 184 185 185 185 185 185 185 185 186 186 186 186 186 186 186 186 186 184 177 165 150 138 134 133 133 133 133 133 134 134 135 135 136 136 136 137 140 157 189 224 246 253 255 255 255 255 255 255 255 255 255 255 255 255 255 255 255 255 255 255 255 255 255 255 255 255 255 255 255 255 255 255 255 255 255 255 255 255 255 255 255 255 255 255 255 255 255 255 255 255 255 255 255 255 255 255 255 255 255 255 255 255 255 255 255 255 255 255 255 255 255 255 255 255 255 255 255 255 255 255 255 255 255 255 255 255 255 255 255 252 238 199 149 128 123 123 123 123 123 123 123 122 122 122 122 122 122 121 121 121 121 118 111 99 90 87 86 86 86 86 86 86 86 86 86 86 86 86 85 86 85 85 85 85 85 85 85 85 87 153 228 253 255 255 255 255 255 255 255 255 255 255 255 255 255 255 255 255 255 255 255 255 255 255 255 255 255
255 255 255 255 255 255 255 255 255 255 255 255 255 255 255 255 255 255 255 255 255 255 255 254 244 218 185 177 178 179 179 180 181 181 181 181 181 181 182 183 183 183 183 183 184 184 184 184 184 184 184 185 185 185 185 185 185 186 186 185 185 186 186 186 186 184 177 164 148 138 134 133 133 133 133 133 134 134 134 135 135 136 136 136 139 152 187 223 244 253 255 255 255 255 255 255 255 255 255 255 255 255 255 255 255 255 255 255 255 255 255 255 255 255 255 255 255 255 255 255 255 255 255 255 255 255 255 255 255 255 255 255 255 255 255 255 255 255 255 255 255 255 255 255 255 255 255 255 255 255 255 255 255 255 255 255 255 255 255 255 255 255 255 255 255 255 255 255 255 255 255 255 255 255 255 255 255 254 243 214 174 134 124 124 124 124 124 124 123 123 123 123 123 123 123 123 122 122 122 120 113 101 91 87 86 86 86 86 86 86 86 86 86 86 86 86 86 86 85 86 86 86 86 85 85 85 85 84 147 223 251 255 255 255 255 255 255 255 255 255 255 255 255 255 255 255 255 255 255 255 255 255 255 255 255 255
255 255 255 255 255 255 255 255 255 255 255 255 255 255 255 255 255 255 255 255 255 255 255 254 242 216 184 177 178 178 179 179 180 181 181 181 181 181 182 182 183 183 183 183 183 184 184 184 184 184 184 185 185 185 185 185 185 185 185 185 185 186 186 186 183 176 163 148 137 134 133 133 133 133 133 133 134 134 134 135 135 135 136 137 151 185 219 243 253 255 255 255 255 255 255 255 255 255 255 255 255 255 255 255 255 255 255 255 255 255 255 255 255 255 255 255 255 255 255 255 255 255 255 255 255 255 255 255 255 255 255 255 255 255 255 255 255 255 255 255 255 255 255 255 255 255 255 255 255 255 255 255 255 255 255 255 255 255 255 255 255 255 255 255 255 255 255 255 255 255 255 255 255 255 255 255 254 249 228 184 147 128 124 125 125 125 125 124 124 124 124 124 123 123 123 123 123 123 121 115 104 93 87 86 86 86 86 86 86 86 86 86 86 86 86 86 86 86 86 85 86 86 86 86 85 85 85 83 144 218 247 255 255 255 255 255 255 255 255 255 255 255 255 255 255 255 255 255 255 255 255 255 255 255 255 255
255 255 255 255 255 255 255 255 255 255 255 255 255 255 255 255 255 255 255 255 255 255 255 254 240 214 183 177 178 178 178 179 179 180 181 181 181 181 182 182 182 183 183 183 183 183 184 184 184 184 184 185 185 185 185 185 185 185 185 185 185 186 185 183 176 163 148 137 134 133 133 133 133 133 133 133 134 134 134 135 135 135 137 148 177 217 242 252 255 255 255 255 255 255 255 255 255 255 255 255 255 255 255 255 255 255 255 255 255 255 255 255 255 255 255 255 255 255 255 255 255 255 255 255 255 255 255 255 255 255 255 255 255 255 255 255 255 255 255 255 255 255 255 255 255 255 255 255 255 255 255 255 255 255 255 255 255 255 255 255 255 255 255 255 255 255 255 255 255 255 255 255 255 255 255 255 252 236 204 157 129 125 125 125 125 125 125 125 124 124 124 124 124 124 123 123 123 122 117 107 95 88 86 86 86 86 86 86 86 86 86 86 86 86 86 86 86 86 86 86 85 86 86 86 85 85 85 83 141 212 244 254 255 255 255 255 255 255 255 255 255 255 255 255 255 255 255 255 255 255 255 255 255 255 255 255
255 255 255 255 255 255 255 255 255 255 255 255 255 255 255 255 255 255 255 255 255 255 255 254 238 212 183 176 178 178 178 178 179 180 181 181 181 181 181 182 182 182 183 183 183 183 183 184 184 184 184 184 185 185 185 185 185 185 185 185 185 185 183 176 163 147 137 133 133 133 133 133 133 133 133 133 133 134 134 135 135 136 144 173 210 238 252 255 255 255 255 255 255 255 255 255 255 255 255 255 255 255 255 255 255 255 255 255 255 255 255 255 255 255 255 255 255 255 255 255 255 255 255 255 255 255 255 255 255 255 255 255 255 255 255 255 255 255 255 255 255 255 255 255 255 255 255 255 255 255 255 255 255 255 255 255 255 255 255 255 255 255 255 255 255 255 255 255 255 255 255 255 255 255 255 254 246 213 171 139 126 126 126 126 126 126 126 125 125 125 125 125 125 125 124 124 123 118 109 97 89 86 86 86 86 86 86 86 86 86 86 86 86 86 86 86 86 86 86 86 86 85 85 85 85 85 85 83 139 210 243 254 255 255 255 255 255 255 255 255 255 255 255 255 255 255 255 255 255 255 255 255 255 255 255 255
255 255 255 255 255 255 255 255 255 255 255 255 255 255 255 255 255 255 255 255 255 255 255 254 237 210 182 176 178 178 178 178 178 179 180 181 181 181 181 181 182 182 183 183 183 183 183 184 184 184 184 184 184 185 185 185 185 185 185 185 185 183 178 164 148 136 133 133 133 133 133 133 133 133 133 133 134 134 134 135 135 144 169 204 235 250 255 255 255 255 255 255 255 255 255 255 255 255 255 255 255 255 255 255 255 255 255 255 255 255 255 255 255 255 255 255 255 255 255 255 255 255 255 255 255 255 255 255 255 255 255 255 255 255 255 255 255 255 255 255 255 255 255 255 255 255 255 255 255 255 255 255 255 255 255 255 255 255 255 255 255 255 255 255 255 255 255 255 255 255 255 255 255 255 255 248 228 187 145 131 127 127 127 127 127 127 126 126 125 126 125 125 125 125 125 124 120 110 99 90 87 86 86 86 86 86 86 86 86 86 86 86 86 86 86 86 86 86 86 86 86 85 86 85 85 85 85 83 138 207 241 254 255 255 255 255 255 255 255 255 255 255 255 255 255 255 255 255 255 255 255 255 255 255 255 255
255 255 255 255 255 255 255 255 255 255 255 255 255 255 255 255 255 255 255 255 255 255 255 254 236 210 181 176 177 178 178 178 178 178 179 180 181 181 181 181 181 182 182 183 183 183 183 183 184 184 184 184 184 184 185 185 185 185 185 185 183 178 167 149 137 133 133 133 133 133 133 133 133 133 133 133 134 134 134 135 141 164 200 231 250 254 255 255 255 255 255 255 255 255 255 255 255 255 255 255 255 255 255 255 255 255 255 255 255 255 255 255 255 255 255 255 255 255 255 255 255 255 255 255 255 255 255 255 255 255 255 255 255 255 255 255 255 255 255 255 255 255 255 255 255 255 255 255 255 255 255 255 255 255 255 255 255 255 255 255 255 255 255 255 255 255 255 255 255 255 255 255 255 254 252 234 198 160 133 128 128 128 127 127 127 127 127 127 126 126 126 125 125 125 125 121 113 101 91 87 86 86 86 86 86 86 86 86 86 86 86 86 86 86 86 86 86 86 86 86 85 86 86 86 85 85 85 83 137 205 240 254 255 255 255 255 255 255 255 255 255 255 255 255 255 255 255 255 255 255 255 255 255 255 255 255
255 255 255 255 255 255 255 255 255 255 255 255 255 255 255 255 255 255 255 255 255 255 255 254 236 210 181 175 177 177 178 178 178 178 179 179 180 181 181 181 181 182 182 182 183 183 183 183 183 184 184 184 184 184 185 185 185 185 185 183 178 166 150 139 134 133 133 133 133 133 133 133 133 133 133 133 134 134 134 139 158 192 229 248 254 255 255 255 255 255 255 255 255 255 255 255 255 255 255 255 255 255 255 255 255 255 255 255 255 255 255 255 255 255 255 255 255 255 255 255 255 255 255 255 255 255 255 255 255 255 255 255 255 255 255 255 255 255 255 255 255 255 255 255 255 255 255 255 255 255 255 255 255 255 255 255 255 255 255 255 255 255 255 255 255 255 255 255 255 255 255 255 255 252 240 211 167 139 130 129 129 129 128 128 128 128 128 128 127 127 127 126 126 125 123 116 103 92 87 86 86 86 86 86 86 86 86 86 86 86 86 86 86 86 86 86 86 86 86 86 86 86 86 86 86 85 85 83 136 204 239 254 255 255 255 255 255 255 255 255 255 255 255 255 255 255 255 255 255 255 255 255 255 255 255 255
255 255 255 255 255 255 255 255 255 255 255 255 255 255 255 255 255 255 255 255 255 255 255 254 236 210 180 175 176 177 177 178 178 178 179 179 180 181 181 181 181 182 182 182 183 183 183 183 183 183 184 184 184 184 185 185 185 185 183 178 166 151 138 133 133 133 133 133 133 133 133 133 133 133 133 133 134 134 136 150 186 221 245 254 255 255 255 255 255 255 255 255 255 255 255 255 255 255 255 255 255 255 255 255 255 255 255 255 255 255 255 255 255 255 255 255 255 255 255 255 255 255 255 255 255 255 255 255 255 255 255 255 255 255 255 255 255 255 255 255 255 255 255 255 255 255 255 255 255 255 255 255 255 255 255 255 255 255 255 255 255 255 255 255 255 255 255 255 255 255 255 255 253 244 218 180 143 129 129 129 129 129 129 128 128 128 128 128 128 127 127 127 126 124 117 106 94 88 86 86 86 86 86 86 86 86 86 86 86 86 86 86 86 86 86 86 86 86 86 86 86 86 86 86 86 86 85 84 135 202 238 254 255 255 255 255 255 255 255 255 255 255 255 255 255 255 255 255 255 255 255 255 255 255 255 255
255 255 255 255 255 255 255 255 255 255 255 255 255 255 255 255 255 255 255 255 255 255 255 254 237 210 181 174 175 176 177 178 178 178 178 179 179 180 181 181 181 181 181 182 183 183 182 183 183 183 183 184 184 184 185 185 185 184 179 168 150 138 134 133 133 133 133 133 133 133 133 133 133 133 133 133 134 135 145 172 214 244 253 255 255 255 255 255 255 255 255 255 255 255 255 255 255 255 255 255 255 255 255 255 255 255 255 255 255 255 255 255 255 255 255 255 255 255 255 255 255 255 255 255 255 255 255 255 255 255 255 255 255 255 255 255 255 255 255 255 255 255 255 255 255 255 255 255 255 255 255 255 255 255 255 255 255 255 255 255 255 255 255 255 255 255 255 255 255 255 255 254 248 228 187 148 133 129 129 129 129 129 129 129 129 129 129 129 129 128 128 127 125 119 107 95 89 87 87 86 86 86 86 86 86 86 86 86 86 86 86 86 86 86 86 86 86 86 86 86 86 86 86 85 86 86 85 84 134 200 237 254 255 255 255 255 255 255 255 255 255 255 255 255 255 255 255 255 255 255 255 255 255 255 255 255
255 255 255 255 255 255 255 255 255 255 255 255 255 255 255 255 255 255 255 255 255 255 255 254 238 211 180 174 175 176 176 177 178 178 178 179 179 179 180 181 181 181 181 182 182 182 183 183 183 183 183 184 184 184 184 185 184 180 169 152 140 134 133 133 133 133 133 133 133 133 133 133 133 133 133 133 133 138 166 206 237 253 255 255 255 255 255 255 255 255 255 255 255 255 255 255 255 255 255 255 255 255 255 255 255 255 255 255 255 255 255 255 255 255 255 255 255 255 255 255 255 255 255 255 255 255 255 255 255 255 255 255 255 255 255 255 255 255 255 255 255 255 255 255 255 255 255 255 255 255 255 255 255 255 255 255 255 255 255 255 255 255 255 255 255 255 255 255 255 255 255 251 231 196 158 134 131 130 130 130 130 130 130 129 129 129 129 129 129 129 128 126 120 108 96 89 87 87 87 86 86 86 86 86 86 86 86 86 86 86 86 86 86 86 86 86 86 86 86 86 86 86 86 86 86 86 86 84 133 198 236 254 255 255 255 255 255 255 255 255 255 255 255 255 255 255 255 255 255 255 255 255 255 255 255 255
255 255 255 255 255 255 255 255 255 255 255 255 255 255 255 255 255 255 255 255 255 255 255 254 239 212 181 174 175 176 176 176 177 178 178 178 179 179 179 180 181 181 181 181 182 182 183 183 183 183 183 184 184 184 184 184 181 171 155 139 134 133 133 133 133 132 133 133 133 133 133 133 133 133 133 132 138 157 193 233 249 254 255 255 255 255 255 255 255 255 255 255 255 255 255 255 255 255 255 255 255 255 255 255 255 255 255 255 255 255 255 255 255 255 255 255 255 255 255 255 255 255 255 255 255 255 255 255 255 255 255 255 255 255 255 255 255 255 255 255 255 255 255 255 255 255 255 255 255 255 255 255 255 255 255 255 255 255 255 255 255 255 255 255 255 255 255 255 255 255 251 237 205 163 139 132 131 131 131 130 130 130 130 130 129 129 129 129 129 129 127 121 110 97 89 87 87 87 87 86 86 86 86 86 86 86 86 86 86 86 86 86 86 86 86 86 86 86 86 86 86 86 86 86 86 86 86 84 132 196 234 254 255 255 255 255 255 255 255 255 255 255 255 255 255 255 255 255 255 255 255 255 255 255 255 255
255 255 255 255 255 255 255 255 255 255 255 255 255 255 255 255 255 255 255 255 255 255 255 254 241 213 181 173 174 175 175 176 177 177 178 178 178 179 179 180 180 181 181 181 182 182 182 183 183 183 183 183 184 184 184 181 172 155 142 135 133 133 133 133 133 133 133 133 133 133 133 133 133 133 133 134 149 188 223 246 254 255 255 255 255 255 255 255 255 255 255 255 255 255 255 255 255 255 255 255 255 255 255 255 255 255 255 255 255 255 255 255 255 255 255 255 255 255 255 255 255 255 255 255 255 255 255 255 255 255 255 255 255 255 255 255 255 255 255 255 255 255 255 255 255 255 255 255 255 255 255 255 255 255 255 255 255 255 255 255 255 255 255 255 255 255 255 255 255 253 240 209 172 143 133 132 132 132 132 131 131 131 130 130 130 130 130 130 130 127 122 110 97 90 87 87 87 87 87 87 87 87 87 87 86 86 86 86 86 86 86 86 86 86 86 86 86 86 86 86 86 86 86 86 86 86 86 84 132 196 234 254 255 255 255 255 255 255 255 255 255 255 255 255 255 255 255 255 255 255 255 255 255 255 255 255
255 255 255 255 255 255 255 255 255 255 255 255 255 255 255 255 255 255 255 255 255 255 255 254 242 214 181 173 174 174 175 175 176 177 178 178 178 178 179 180 180 181 181 181 181 182 182 182 183 183 183 183 183 184 181 173 158 143 135 133 133 133 133 133 133 133 133 133 133 133 133 133 133 133 134 143 170 215 243 253 255 255 255 255 255 255 255 255 255 255 255 255 255 255 255 255 255 255 255 255 255 255 255 255 255 255 255 255 255 255 255 255 255 255 255 255 255 255 255 255 255 255 255 255 255 255 255 255 255 255 255 255 255 255 255 255 255 255 255 255 255 255 255 255 255 255 255 255 255 255 255 255 255 255 255 255 255 255 255 255 255 255 255 255 255 255 255 255 253 242 217 178 148 135 132 132 132 132 132 132 131 131 131 131 131 131 130 130 129 122 111 99 90 87 87 87 87 87 87 87 87 87 87 86 86 86 86 86 86 86 86 86 86 86 86 86 86 86 86 86 86 86 86 86 86 86 86 84 133 199 235 254 255 255 255 255 255 255 255 255 255 255 255 255 255 255 255 255 255 255 255 255 255 255 255 255
255 255 255 255 255 255 255 255 255 255 255 255 255 255 255 255 255 255 255 255 255 255 255 254 242 215 181 173 174 174 175 175 176 177 178 178 178 178 179 179 180 181 181 181 181 181 182 182 182 182 182 183 183 181 175 160 144 135 133 132 133 133 133 133 133 133 133 133 133 133 133 133 133 133 137 161 199 235 253 255 255 255 255 255 255 255 255 255 255 255 255 255 255 255 255 255 255 255 255 255 255 255 255 255 255 255 255 255 255 255 255 255 255 255 255 255 255 255 255 255 255 255 255 255 255 255 255 255 255 255 255 255 255 255 255 255 255 255 255 255 255 255 255 255 255 255 255 255 255 255 255 255 255 255 255 255 255 255 255 255 255 255 255 255 255 255 255 254 246 221 186 152 136 133 133 133 132 132 132 132 132 132 132 132 132 131 131 129 124 113 98 90 87 87 87 87 87 87 87 87 87 86 86 86 86 86 86 86 86 86 86 86 86 86 86 86 86 86 86 86 86 86 86 86 86 86 86 84 135 202 238 254 255 255 255 255 255 255 255 255 255 255 255 255 255 255 255 255 255 255 255 255 255 255 255 255
255 255 255 255 255 255 255 255 255 255 255 255 255 255 255 255 255 255 255 255 255 255 255 254 244 217 182 173 174 174 174 175 175 176 177 177 178 178 179 179 179 180 181 181 181 181 181 182 182 182 182 183 182 175 161 147 136 133 132 133 133 133 133 133 133 133 133 133 133 133 133 133 133 135 147 187 228 248 255 255 255 255 255 255 255 255 255 255 255 255 255 255 255 255 255 255 255 255 255 255 255 255 255 255 255 255 255 255 255 255 255 255 255 255 255 255 255 255 255 255 255 255 255 255 255 255 255 255 255 255 255 255 255 255 255 255 255 255 255 255 255 255 255 255 255 255 255 255 255 255 255 255 255 255 255 255 255 255 255 255 255 255 255 255 255 255 254 247 226 192 156 139 134 134 134 133 133 133 133 133 133 133 132 132 132 132 130 124 113 99 90 87 87 87 87 87 87 87 87 87 87 87 87 86 86 86 86 86 86 86 86 86 86 86 86 86 86 86 86 86 86 86 86 86 86 86 86 84 137 206 240 254 255 255 255 255 255 255 255 255 255 255 255 255 255 255 255 255 255 255 255 255 255 255 255 255
255 255 255 255 255 255 255 255 255 255 255 255 255 255 255 255 255 255 255 255 255 255 255 255 247 220 182 173 174 174 174 175 175 175 176 177 178 178 178 179 179 179 180 181 181 181 181 181 182 182 182 181 177 166 148 137 133 132 132 133 133 133 133 133 133 133 133 133 133 132 133 133 132 143 173 213 245 254 255 255 255 255 255 255 255 255 255 255 255 255 255 255 255 255 255 255 255 255 255 255 255 255 255 255 255 255 255 255 255 255 255 255 255 255 255 255 255 255 255 255 255 255 255 255 255 255 255 255 255 255 255 255 255 255 255 255 255 255 255 255 255 255 255 255 255 255 255 255 255 255 255 255 255 255 255 255 255 255 255 255 255 255 255 255 255 254 248 229 196 162 140 135 135 134 134 134 134 133 133 133 133 133 133 132 132 131 125 114 100 90 88 87 87 87 87 87 87 87 87 87 87 87 87 87 86 86 86 86 86 86 86 86 86 86 86 86 86 86 86 86 86 86 86 86 86 86 86 84 140 210 243 254 255 255 255 255 255 255 255 255 255 255 255 255 255 255 255 255 255 255 255 255 255 255 255 255
255 255 255 255 255 255 255 255 255 255 255 255 255 255 255 255 255 255 255 255 255 255 255 255 250 223 184 174 174 174 174 174 175 175 176 177 177 178 178 178 179 179 179 180 181 181 181 181 181 182 182 178 168 153 139 133 133 133 132 132 133 133 133 133 133 132 133 133 133 133 133 133 135 158 203 235 251 255 255 255 255 255 255 255 255 255 255 255 255 255 255 255 255 255 255 255 255 255 255 255 255 255 255 255 255 255 255 255 255 255 255 255 255 255 255 255 255 255 255 255 255 255 255 255 255 255 255 255 255 255 255 255 255 255 255 255 255 255 255 255 255 255 255 255 255 255 255 255 255 255 255 255 255 255 255 255 255 255 255 255 255 255 255 255 254 249 231 201 164 141 137 136 136 135 135 135 135 134 134 134 134 134 133 133 131 125 114 99 91 88 88 88 87 87 87 87 87 87 87 87 87 87 87 87 87 87 87 86 86 86 86 86 86 86 86 86 86 86 86 86 86 86 86 86 86 86 86 84 142 215 246 254 255 255 255 255 255 255 255 255 255 255 255 255 255 255 255 255 255 255 255 255 255 255 255 255
255 255 255 255 255 255 255 255 255 255 255 255 255 255 255 255 255 255 255 255 255 255 255 255 252 227 188 175 174 174 174 174 174 175 175 176 177 177 178 178 178 179 179 179 180 181 181 181 181 182 179 172 156 141 134 132 132 132 132 132 132 133 133 133 133 133 133 133 133 133 133 135 147 180 226 248 254 255 255 255 255 255 255 255 255 255 255 255 255 255 255 255 255 255 255 255 255 255 255 255 255 255 255 255 255 255 255 255 255 255 255 255 255 255 255 255 255 255 255 255 255 255 255 255 255 255 255 255 255 255 255 255 255 255 255 255 255 255 255 255 255 255 255 255 255 255 255 255 255 255 255 255 255 255 255 255 255 255 255 255 255 255 255 254 249 233 203 167 143 136 136 137 137 136 136 136 135 135 135 135 135 134 134 131 126 114 100 91 88 88 88 88 87 87 87 87 87 87 87 87 87 87 87 87 87 87 86 86 86 86 86 86 86 86 86 86 86 86 86 86 86 86 86 86 86 86 86 84 144 219 248 255 255 255 255 255 255 255 255 255 255 255 255 255 255 255 255 255 255 255 255 255 255 255 255 255
255 255 255 255 255 255 255 255 255 255 255 255 255 255 255 255 255 255 255 255 255 255 255 255 253 230 194 178 174 174 174 174 174 174 175 176 176 177 178 178 178 178 179 179 180 181 181 181 181 180 173 160 144 134 133 133 132 132 133 133 133 133 133 133 133 133 133 133 133 133 132 137 168 207 241 254 255 255 255 255 255 255 255 255 255 255 255 255 255 255 255 255 255 255 255 255 255 255 255 255 255 255 255 255 255 255 255 255 255 255 255 255 255 255 255 255 255 255 255 255 255 255 255 255 255 255 255 255 255 255 255 255 255 255 255 255 255 255 255 255 255 255 255 255 255 255 255 255 255 255 255 255 255 255 255 255 255 255 255 255 255 255 254 249 234 206 171 144 137 137 137 137 137 137 137 136 136 136 135 135 135 135 132 125 114 100 90 88 88 88 88 88 87 87 87 87 87 87 87 87 87 87 87 87 87 87 86 86 86 86 86 86 86 86 86 86 86 86 86 86 86 86 86 86 86 86 86 83 146 223 251 255 255 255 255 255 255 255 255 255 255 255 255 255 255 255 255 255 255 255 255 255 255 255 255 255
255 255 255 255 255 255 255 255 255 255 255 255 255 255 255 255 255 255 255 255 255 255 255 255 253 232 199 181 174 174 174 174 174 174 175 175 175 176 178 178 178 178 178 179 179 180 181 181 180 176 163 146 136 133 133 133 133 133 133 133 133 133 133 132 132 133 133 133 133 133 134 147 192 231 249 255 255 255 255 255 255 255 255 255 255 255 255 255 255 255 255 255 255 255 255 255 255 255 255 255 255 255 255 255 255 255 255 255 255 255 255 255 255 255 255 255 255 255 255 255 255 255 255 255 255 255 255 255 255 255 255 255 255 255 255 255 255 255 255 255 255 255 255 255 255 255 255 255 255 255 255 255 255 255 255 255 255 255 255 255 255 254 249 234 207 171 147 139 138 138 138 138 137 137 137 137 137 136 136 136 135 133 126 114 98 91 88 88 88 88 88 88 88 88 88 87 87 87 87 87 87 87 87 87 87 87 87 86 87 87 86 86 86 86 86 86 86 86 86 86 86 86 86 86 86 86 86 84 149 226 253 255 255 255 255 255 255 255 255 255 255 255 255 255 255 255 255 255 255 255 255 255 255 255 255 255
255 255 255 255 255 255 255 255 255 255 255 255 255 255 255 255 255 255 255 255 255 255 255 255 253 235 204 183 174 174 174 174 174 174 175 175 175 176 177 178 178 178 178 178 179 179 180 181 177 166 151 138 133 132 133 133 133 133 133 133 133 133 133 133 133 133 133 133 133 133 143 170 213 245 253 255 255 255 255 255 255 255 255 255 255 255 255 255 255 255 255 255 255 255 255 255 255 255 255 255 255 255 255 255 255 255 255 255 255 255 255 255 255 255 255 255 255 255 255 255 255 255 255 255 255 255 255 255 255 255 255 255 255 255 255 255 255 255 255 255 255 255 255 255 255 255 255 255 255 255 255 255 255 255 255 255 255 255 255 255 254 250 236 207 173 148 139 139 139 138 138 138 138 138 137 137 137 137 136 136 133 125 112 100 90 88 88 88 88 88 88 88 88 88 88 88 87 87 87 87 87 87 87 87 87 87 87 87 87 87 86 86 86 86 86 86 86 86 86 86 86 86 86 86 86 86 87 89 154 229 253 255 255 255 255 255 255 255 255 255 255 255 255 255 255 255 255 255 255 255 255 255 255 255 255 255
255 255 255 255 255 255 255 255 255 255 255 255 255 255 255 255 255 255 255 255 255 255 255 255 253 237 210 186 174 174 174 174 174 174 174 175 175 176 176 177 178 178 178 178 179 179 179 178 171 154 141 134 132 132 133 132 132 133 133 132 132 133 133 133 133 133 133 133 133 132 155 196 231 252 255 255 255 255 255 255 255 255 255 255 255 255 255 255 255 255 255 255 255 255 255 255 255 255 255 255 255 255 255 255 255 255 255 255 255 255 255 255 255 255 255 255 255 255 255 255 255 255 255 255 255 255 255 255 255 255 255 255 255 255 255 255 255 255 255 255 255 255 255 255 255 255 255 255 255 255 255 255 255 255 255 255 255 255 255 254 249 235 208 174 147 141 140 139 139 140 140 140 139 138 139 139 138 138 137 133 125 112 98 90 88 88 88 88 88 88 88 88 88 88 88 88 88 87 87 87 87 87 87 87 87 87 87 87 87 87 86 86 86 86 86 86 86 86 86 86 86 86 86 86 86 86 89 101 162 231 253 255 255 255 255 255 255 255 255 255 255 255 255 255 255 255 255 255 255 255 255 255 255 255 255 255
255 255 255 255 255 255 255 255 255 255 255 255 255 255 255 255 255 255 255 255 255 255 255 255 254 241 216 189 175 174 174 174 174 174 174 174 175 175 176 177 177 178 178 178 179 179 178 172 161 144 134 132 132 132 133 132 132 133 133 133 132 132 132 133 133 133 133 133 133 136 171 219 245 254 255 255 255 255 255 255 255 255 255 255 255 255 255 255 255 255 255 255 255 255 255 255 255 255 255 255 255 255 255 255 255 255 255 255 255 255 255 255 255 255 255 255 255 255 255 255 255 255 255 255 255 255 255 255 255 255 255 255 255 255 255 255 255 255 255 255 255 255 255 255 255 255 255 255 255 255 255 255 255 255 255 255 255 255 254 250 235 208 172 149 140 140 140 140 140 140 140 140 140 139 139 139 139 138 133 124 111 97 90 88 88 88 88 88 88 88 88 88 88 88 88 88 88 87 87 87 87 87 87 87 87 87 87 87 87 87 86 86 86 86 86 86 86 86 86 86 86 86 86 86 86 85 91 117 175 234 254 255 255 255 255 255 255 255 255 255 255 255 255 255 255 255 255 255 255 255 255 255 255 255 255 255
255 255 255 255 255 255 255 255 255 255 255 255 255 255 255 255 255 255 255 255 255 255 255 255 254 243 222 193 175 174 174 174 174 174 174 174 174 175 175 176 177 177 178 178 178 178 175 163 148 137 133 133 133 133 133 133 133 132 133 133 133 133 133 133 133 133 133 132 135 151 190 234 252 255 255 255 255 255 255 255 255 255 255 255 255 255 255 255 255 255 255 255 255 255 255 255 255 255 255 255 255 255 255 255 255 255 255 255 255 255 255 255 255 255 255 255 255 255 255 255 255 255 255 255 255 255 255 255 255 255 255 255 255 255 255 255 255 255 255 255 255 255 255 255 255 255 255 255 255 255 255 255 255 255 255 255 255 255 250 235 206 173 148 139 140 140 140 140 140 140 140 140 140 140 140 140 139 133 123 109 97 90 89 88 88 88 88 88 88 88 88 88 88 88 88 88 88 87 87 87 87 87 87 87 87 87 87 87 87 86 87 87 86 86 86 86 86 86 86 86 86 86 86 86 86 85 95 132 187 237 254 255 255 255 255 255 255 255 255 255 255 255 255 255 255 255 255 255 255 255 255 255 255 255 255 255
255 255 255 255 255 255 255 255 255 255 255 255 255 255 255 255 255 255 255 255 255 255 255 255 254 246 228 196 175 174 174 174 174 174 174 174 174 175 175 176 176 177 177 178 178 175 168 153 138 133 133 133 133 133 133 133 133 132 133 133 133 133 133 133 133 133 133 132 140 172 211 243 254 255 255 255 255 255 255 255 255 255 255 255 255 255 255 255 255 255 255 255 255 255 255 255 255 255 255 255 255 255 255 255 255 255 255 255 255 255 255 255 255 255 255 255 255 255 255 255 255 255 255 255 255 255 255 255 255 255 255 255 255 255 255 255 255 255 255 255 255 255 255 255 255 255 255 255 255 255 255 255 255 255 255 255 254 248 233 207 172 146 140 139 140 140 140 140 140 140 140 140 140 140 140 138 132 122 108 95 90 89 89 88 88 88 88 88 88 88 88 88 88 88 88 88 88 87 87 87 87 87 87 87 87 87 87 87 87 87 87 87 87 86 86 86 86 86 86 86 86 86 86 86 86 84 97 145 198 240 254 255 255 255 255 255 255 255 255 255 255 255 255 255 255 255 255 255 255 255 255 255 255 255 255 255
255 255 255 255 255 255 255 255 255 255 255 255 255 255 255 255 255 255 255 255 255 255 255 255 255 250 235 200 175 174 174 174 174 174 174 174 174 174 175 175 176 177 177 177 177 171 156 142 133 132 132 132 132 132 133 133 132 133 133 133 133 133 133 133 133 132 133 131 146 192 230 249 255 255 255 255 255 255 255 255 255 255 255 255 255 255 255 255 255 255 255 255 255 255 255 255 255 255 255 255 255 255 255 255 255 255 255 255 255 255 255 255 255 255 255 255 255 255 255 255 255 255 255 255 255 255 255 255 255 255 255 255 255 255 255 255 255 255 255 255 255 255 255 255 255 255 255 255 255 255 255 255 255 255 255 254 248 232 204 169 147 139 139 139 139 139 139 139 140 140 140 140 140 140 138 132 119 105 95 90 89 89 88 88 88 88 88 88 88 88 88 88 88 88 88 88 88 88 87 87 87 87 87 87 87 87 87 87 87 87 87 87 86 86 86 86 86 86 86 86 86 86 86 86 86 83 99 157 208 242 254 255 255 255 255 255 255 255 255 255 255 255 255 255 255 255 255 255 255 255 255 255 255 255 255 255
255 255 255 255 255 255 255 255 255 255 255 255 255 255 255 255 255 255 255 255 255 255 255 255 255 253 241 205 177 175 174 174 174 174 174 174 174 174 174 175 175 176 177 177 174 164 146 135 133 132 132 133 133 133 132 132 133 133 133 133 133 133 133 133 133 133 133 134 155 208 243 253 255 255 255 255 255 255 255 255 255 255 255 255 255 255 255 255 255 255 255 255 255 255 255 255 255 255 255 255 255 255 255 255 255 255 255 255 255 255 255 255 255 255 255 255 255 255 255 255 255 255 255 255 255 255 255 255 255 255 255 255 255 255 255 255 255 255 255 255 255 255 255 255 255 255 255 255 255 255 255 255 255 255 254 246 229 200 169 144 137 138 138 138 139 139 139 139 139 139 139 139 139 137 129 117 103 94 90 89 89 89 89 89 89 88 88 88 88 88 88 88 88 88 88 88 88 88 88 88 87 87 87 87 87 87 87 87 87 87 87 87 86 86 86 86 86 86 86 86 86 86 86 86 86 83 102 167 217 245 254 255 255 255 255 255 255 255 255 255 255 255 255 255 255 255 255 255 255 255 255 255 255 255 255 255
255 255 255 255 255 255 255 255 255 255 255 255 255 255 255 255 255 255 255 255 255 255 255 255 255 254 245 211 182 176 174 174 174 174 174 174 174 174 174 174 175 175 176 175 167 154 139 133 133 132 132 133 133 133 132 132 133 133 133 132 133 133 133 133 133 133 133 142 171 220 250 255 255 255 255 255 255 255 255 255 255 255 255 255 255 255 255 255 255 255 255 255 255 255 255 255 255 255 255 255 255 255 255 255 255 255 255 255 255 255 255 255 255 255 255 255 255 255 255 255 255 255 255 255 255 255 255 255 255 255 255 255 255 255 255 255 255 255 255 255 255 255 255 255 255 255 255 255 255 255 255 255 255 253 246 226 197 164 142 138 137 138 138 138 138 139 139 139 139 139 139 138 136 129 114 101 93 90 89 89 89 89 89 89 89 89 88 88 88 88 88 88 88 88 88 88 88 88 88 88 88 87 87 87 87 87 87 87 87 87 87 87 86 86 86 86 86 86 86 86 86 86 86 86 86 82 104 177 227 248 254 255 255 255 255 255 255 255 255 255 255 255 255 255 255 255 255 255 255 255 255 255 255 255 255 255
255 255 255 255 255 255 255 255 255 255 255 255 255 255 255 255 255 255 255 255 255 255 255 255 255 255 247 218 190 177 173 174 174 174 174 174 174 174 174 174 174 175 175 172 158 143 135 132 132 132 132 133 133 133 132 132 133 133 133 133 132 133 133 133 133 132 134 154 190 230 252 255 255 255 255 255 255 255 255 255 255 255 255 255 255 255 255 255 255 255 255 255 255 255 255 255 255 255 255 255 255 255 255 255 255 255 255 255 255 255 255 255 255 255 255 255 255 255 255 255 255 255 255 255 255 255 255 255 255 255 255 255 255 255 255 255 255 255 255 255 255 255 255 255 255 255 255 255 255 255 255 255 254 245 224 193 161 142 136 137 137 137 137 137 138 138 138 138 138 138 137 134 126 112 100 92 89 89 89 89 89 89 89 89 89 89 89 88 88 88 88 88 88 88 88 88 88 88 88 88 88 87 87 87 87 87 87 87 87 87 87 87 87 87 87 87 86 86 86 86 86 86 86 86 86 82 107 186 235 250 255 255 255 255 255 255 255 255 255 255 255 255 255 255 255 255 255 255 255 255 255 255 255 255 255 255
255 255 255 255 255 255 255 255 255 255 255 255 255 255 255 255 255 255 255 255 255 255 255 255 255 255 249 226 200 179 173 174 174 174 174 174 174 174 174 174 174 175 172 165 149 136 133 133 132 132 132 133 133 132 133 132 133 133 133 133 132 133 133 133 133 132 134 165 209 239 253 255 255 255 255 255 255 255 255 255 255 255 255 255 255 255 255 255 255 255 255 255 255 255 255 255 255 255 255 255 255 255 255 255 255 255 255 255 255 255 255 255 255 255 255 255 255 255 255 255 255 255 255 255 255 255 255 255 255 255 255 255 255 255 255 255 255 255 255 255 255 255 255 255 255 255 255 255 255 255 255 253 241 220 191 160 140 135 136 136 136 136 136 136 137 137 138 138 138 136 131 123 110 98 92 90 89 89 89 89 89 89 89 89 89 89 89 89 88 88 88 88 88 88 88 88 88 88 88 88 88 88 88 87 87 87 87 87 87 87 87 87 87 87 87 87 87 86 86 86 86 86 86 86 86 84 114 195 243 253 255 255 255 255 255 255 255 255 255 255 255 255 255 255 255 255 255 255 255 255 255 255 255 255 255 255
255 255 255 255 255 255 255 255 255 255 255 255 255 255 255 255 255 255 255 255 255 255 255 255 255 255 250 234 209 181 173 174 174 174 174 174 174 174 174 174 174 174 168 155 141 133 133 133 133 132 132 133 132 132 133 133 132 133 133 132 133 133 133 133 133 132 134 174 223 247 254 255 255 255 255 255 255 255 255 255 255 255 255 255 255 255 255 255 255 255 255 255 255 255 255 255 255 255 255 255 255 255 255 255 255 255 255 255 255 255 255 255 255 255 255 255 255 255 255 255 255 255 255 255 255 255 255 255 255 255 255 255 255 255 255 255 255 255 255 255 255 255 255 255 255 255 255 255 255 254 251 241 215 183 155 139 135 135 135 135 136 136 136 136 136 137 137 137 135 129 119 106 96 91 90 90 89 89 89 89 89 89 89 89 89 89 89 89 89 88 88 88 88 88 88 88 88 88 88 88 88 88 88 88 87 87 87 87 87 87 87 87 87 87 87 87 87 87 86 86 86 86 86 86 86 92 128 204 248 255 255 255 255 255 255 255 255 255 255 255 255 255 255 255 255 255 255 255 255 255 255 255 255 255 255 255
255 255 255 255 255 255 255 255 255 255 255 255 255 255 255 255 255 255 255 255 255 255 255 255 255 255 252 242 218 184 173 174 174 174 174 174 174 174 174 174 174 172 163 146 136 132 132 132 132 133 133 132 132 132 133 133 132 133 133 133 132 133 133 133 133 132 135 181 232 252 255 255 255 255 255 255 255 255 255 255 255 255 255 255 255 255 255 255 255 255 255 255 255 255 255 255 255 255 255 255 255 255 255 255 255 255 255 255 255 255 255 255 255 255 255 255 255 255 255 255 255 255 255 255 255 255 255 255 255 255 255 255 255 255 255 255 255 255 255 255 255 255 255 255 255 255 255 255 254 251 235 208 177 152 138 134 134 135 135 135 135 135 135 135 135 136 136 134 127 116 104 95 91 90 90 90 90 89 89 89 89 89 89 89 89 89 89 89 89 88 88 88 88 88 88 88 88 88 88 88 88 88 88 87 87 87 87 87 87 87 87 87 87 87 87 87 87 86 86 86 86 86 86 86 86 107 152 214 251 255 255 255 255 255 255 255 255 255 255 255 255 255 255 255 255 255 255 255 255 255 255 255 255 255 255 255
255 255 255 255 255 255 255 255 255 255 255 255 255 255 255 255 255 255 255 255 255 255 255 255 255 255 254 248 226 189 175 174 174 174 174 174 174 174 174 174 173 168 156 140 133 132 132 132 132 133 133 132 132 133 133 132 132 133 133 133 133 132 133 133 133 134 143 189 238 254 255 255 255 255 255 255 255 255 255 255 255 255 255 255 255 255 255 255 255 255 255 255 255 255 255 255 255 255 255 255 255 255 255 255 255 255 255 255 255 255 255 255 255 255 255 255 255 255 255 255 255 255 255 255 255 255 255 255 255 255 255 255 255 255 255 255 255 255 255 255 255 255 255 255 255 255 255 253 247 232 205 170 147 136 134 134 134 134 135 135 135 135 135 135 135 134 131 124 114 103 94 91 90 90 90 90 90 90 89 89 89 89 89 89 89 89 89 89 89 88 88 88 88 88 88 88 88 88 88 88 88 88 88 87 87 87 87 87 87 87 87 87 87 87 87 87 87 86 86 86 86 86 86 85 86 122 175 224 252 255 255 255 255 255 255 255 255 255 255 255 255 255 255 255 255 255 255 255 255 255 255 255 255 255 255 255
255 255 255 255 255 255 255 255 255 255 255 255 255 255 255 255 255 255 255 255 255 255 255 255 255 255 255 252 233 197 179 175 174 174 174 174 174 174 174 174 171 160 147 136 132 132 133 133 133 132 132 133 133 133 133 132 132 133 133 133 133 133 133 133 132 136 152 197 241 255 255 255 255 255 255 255 255 255 255 255 255 255 255 255 255 255 255 255 255 255 255 255 255 255 255 255 255 255 255 255 255 255 255 255 255 255 255 255 255 255 255 255 255 255 255 255 255 255 255 255 255 255 255 255 255 255 255 255 255 255 255 255 255 255 255 255 255 255 255 255 255 255 255 255 255 255 253 246 229 195 163 143 135 133 133 133 133 134 134 134 134 134 135 135 133 130 121 109 99 94 91 91 90 90 90 90 90 90 90 89 89 89 89 89 89 89 89 89 89 89 88 88 88 88 88 88 88 88 88 88 88 88 88 88 88 87 87 87 87 87 87 87 87 87 87 87 87 87 87 86 86 86 86 85 86 136 195 234 253 255 255 255 255 255 255 255 255 255 255 255 255 255 255 255 255 255 255 255 255 255 255 255 255 255 255 255
255 255 255 255 255 255 255 255 255 255 255 255 255 255 255 255 255 255 255 255 255 255 255 255 255 255 255 253 239 209 186 175 174 174 174 174 174 174 174 174 169 153 139 134 132 133 132 132 132 132 132 132 132 132 132 132 133 133 133 132 133 133 133 133 132 138 158 202 243 255 255 255 255 255 255 255 255 255 255 255 255 255 255 255 255 255 255 255 255 255 255 255 255 255 255 255 255 255 255 255 255 255 255 255 255 255 255 255 255 255 255 255 255 255 255 255 255 255 255 255 255 255 255 255 255 255 255 255 255 255 255 255 255 255 255 255 255 255 255 255 255 255 255 255 255 252 243 222 191 160 139 133 132 133 133 133 133 133 133 133 133 134 133 132 127 117 107 98 93 91 91 91 91 90 90 90 90 90 90 90 89 89 89 89 89 89 89 89 89 89 88 88 88 88 88 88 88 88 88 88 88 88 88 88 88 88 87 87 87 87 87 87 87 87 87 87 87 87 87 87 86 86 86 85 87 147 212 243 254 255 255 255 255 255 255 255 255 255 255 255 255 255 255 255 255 255 255 255 255 255 255 255 255 255 255 255
255 255 255 255 255 255 255 255 255 255 255 255 255 255 255 255 255 255 255 255 255 255 255 255 255 255 255 254 244 221 194 175 173 174 174 174 174 174 174 172 164 147 135 133 133 132 132 132 132 132 132 132 132 132 132 132 133 133 133 132 133 133 133 133 132 138 161 205 244 255 255 255 255 255 255 255 255 255 255 255 255 255 255 255 255 255 255 255 255 255 255 255 255 255 255 255 255 255 255 255 255 255 255 255 255 255 255 255 255 255 255 255 255 255 255 255 255 255 255 255 255 255 255 255 255 255 255 255 254 252 253 254 255 255 255 255 255 255 255 255 255 255 255 254 250 239 218 186 151 136 132 132 132 132 132 132 132 133 133 133 133 132 129 124 115 103 95 93 92 91 91 91 91 91 90 90 90 90 90 90 90 89 89 89 89 89 89 89 89 89 89 88 88 88 88 88 88 88 88 88 88 88 88 88 88 88 87 87 87 87 87 87 87 87 87 87 87 87 87 87 87 86 86 86 93 160 226 250 255 255 255 255 255 255 255 255 255 255 255 255 255 255 255 255 255 255 255 255 255 255 255 255 255 255 255 255
255 255 255 255 255 255 255 255 255 255 255 255 255 255 255 255 255 255 255 255 255 255 255 255 255 255 255 254 248 233 202 176 173 174 174 174 174 174 173 168 157 142 133 132 132 132 132 132 133 133 133 133 133 133 133 132 132 133 133 133 133 133 133 133 132 139 162 205 244 255 255 255 255 255 255 255 255 255 255 255 255 255 255 255 255 255 255 255 255 255 255 255 255 255 255 255 255 255 255 255 255 255 255 255 255 255 255 255 255 255 255 255 255 255 255 255 255 255 255 255 255 255 255 255 255 254 253 252 249 247 249 253 254 255 255 255 255 255 255 255 255 255 254 250 235 208 175 148 134 131 131 131 131 131 131 132 132 132 132 132 131 128 121 110 101 95 92 92 92 91 91 91 91 91 90 90 90 90 90 90 90 89 89 89 89 89 89 89 89 89 89 89 88 88 88 88 88 88 88 88 88 88 88 88 88 88 88 87 87 87 87 87 87 87 87 87 87 87 87 87 86 87 86 90 109 174 236 253 255 255 255 255 255 255 255 255 255 255 255 255 255 255 255 255 255 255 255 255 255 255 255 255 255 255 255 255
255 255 255 255 255 255 255 255 255 255 255 255 255 255 255 255 255 255 255 255 255 255 255 255 255 255 255 255 252 242 211 181 175 174 174 174 174 174 173 164 149 138 133 132 132 132 132 133 133 133 133 133 133 133 133 133 133 133 133 133 133 133 133 133 132 138 160 203 243 255 255 255 255 255 255 255 255 255 255 255 255 255 255 255 255 255 255 255 255 255 255 255 255 255 255 255 255 255 255 255 255 255 255 255 255 255 255 255 255 255 255 255 255 255 255 255 255 255 255 255 255 255 255 254 253 248 242 242 245 248 251 254 255 255 255 255 255 255 255 255 255 253 245 226 200 170 143 130 130 130 131 131 131 131 131 131 132 132 132 130 124 117 108 99 94 93 92 92 92 92 91 91 91 91 91 90 90 90 90 90 90 89 89 89 89 89 89 89 89 89 89 89 89 88 88 88 88 88 88 88 88 88 88 88 88 88 88 87 87 87 87 87 87 87 87 87 87 87 87 87 87 87 85 96 132 190 241 254 255 255 255 255 255 255 255 255 255 255 255 255 255 255 255 255 255 255 255 255 255 255 255 255 255 255 255 255
255 255 255 255 255 255 255 255 255 255 255 255 255 255 255 255 255 255 255 255 255 255 255 255 255 255 255 255 255 248 221 191 177 174 174 174 174 174 172 160 142 134 132 133 132 132 133 132 132 132 132 132 132 132 133 133 133 133 133 132 133 133 133 133 132 136 154 198 241 255 255 255 255 255 255 255 255 255 255 255 255 255 255 255 255 255 255 255 255 255 255 255 255 255 255 255 255 255 255 255 255 255 255 255 255 255 255 255 255 255 255 255 255 255 255 255 255 255 255 255 255 254 250 247 244 239 234 237 244 252 255 255 255 255 255 255 255 255 255 254 251 242 221 189 157 137 131 129 130 130 130 130 130 130 131 131 131 130 128 123 113 103 96 94 93 93 92 92 92 92 92 91 91 91 91 91 90 90 90 90 90 90 89 89 89 89 89 89 89 89 89 89 89 89 88 88 88 88 88 88 88 88 88 88 88 88 88 87 87 88 87 87 87 87 87 87 87 87 87 87 87 87 84 104 156 207 244 254 255 255 255 255 255 255 255 255 255 255 255 255 255 255 255 255 255 255 255 255 255 255 255 255 255 255 255 255
255 255 255 255 255 255 255 255 255 255 255 255 255 255 255 255 255 255 255 255 255 255 255 255 255 255 255 255 255 251 231 204 182 173 174 174 174 173 169 156 138 132 132 132 132 132 132 133 133 133 132 132 132 133 132 133 133 133 133 132 133 133 132 133 133 134 143 189 238 254 255 255 255 255 255 255 255 255 255 255 255 255 255 255 255 255 255 255 255 255 255 255 255 255 255 255 255 255 255 255 255 255 255 255 255 255 255 255 255 255 255 255 255 255 255 255 255 255 254 253 251 248 238 227 226 232 242 248 251 254 255 255 255 255 255 255 255 255 254 249 237 210 178 152 135 129 129 129 129 129 129 129 130 130 130 130 129 125 118 109 102 96 94 93 93 93 93 92 92 92 92 92 91 91 91 91 91 90 90 90 90 90 90 89 89 89 89 89 89 89 89 89 89 89 89 88 88 88 88 88 88 88 88 88 88 88 88 88 88 88 87 87 87 87 87 87 87 87 87 87 87 87 83 112 177 224 248 254 255 255 255 255 255 255 255 255 255 255 255 255 255 255 255 255 255 255 255 255 255 255 255 255 255 255 255 255
255 255 255 255 255 255 255 255 255 255 255 255 255 255 255 255 255 255 255 255 255 255 255 255 255 255 255 255 255 253 242 218 187 173 174 174 174 172 164 150 136 132 132 132 132 132 132 132 133 133 133 132 133 133 132 132 133 133 133 132 133 133 133 133 133 132 136 179 229 250 255 255 255 255 255 255 255 255 255 255 255 255 255 255 255 255 255 255 255 255 255 255 255 255 255 255 255 255 255 255 255 255 255 255 255 255 255 255 255 255 255 255 255 255 255 255 255 253 248 240 233 229 226 226 230 240 251 255 255 255 255 255 255 255 255 255 255 253 245 228 204 171 143 131 128 129 129 129 129 129 129 129 129 130 129 127 122 116 107 99 95 94 94 94 93 93 93 92 92 92 92 92 92 91 91 91 91 91 90 90 90 90 90 90 89 89 89 89 89 89 89 89 89 89 89 89 88 88 88 88 88 88 88 88 88 88 88 88 88 88 87 87 87 87 87 87 87 87 87 87 87 87 86 124 196 238 252 255 255 255 255 255 255 255 255 255 255 255 255 255 255 255 255 255 255 255 255 255 255 255 255 255 255 255 255 255
255 255 255 255 255 255 255 255 255 255 255 255 255 255 255 255 255 255 255 255 255 255 255 255 255 255 255 255 255 255 249 230 195 176 174 174 174 170 158 145 135 132 132 132 133 133 132 132 132 132 132 133 132 132 133 133 132 132 132 133 133 133 133 133 133 132 134 168 213 242 253 255 255 255 255 255 255 255 255 255 255 255 255 255 255 255 255 255 255 255 255 255 255 255 255 255 255 255 255 255 255 255 255 255 255 255 255 255 255 255 255 255 255 255 253 250 246 240 231 219 212 214 227 241 249 253 254 255 255 255 255 255 255 255 255 254 251 241 221 191 158 137 130 128 128 128 128 129 129 129 129 129 129 128 125 119 111 103 97 95 94 94 94 94 93 93 93 93 92 92 92 92 92 92 91 91 91 91 91 90 90 90 90 90 90 89 89 89 89 89 89 89 89 89 89 89 89 88 88 88 88 88 88 88 88 88 88 88 88 88 87 87 87 87 87 87 87 87 87 87 87 88 99 144 213 248 254 255 255 255 255 255 255 255 255 255 255 255 255 255 255 255 255 255 255 255 255 255 255 255 255 255 255 255 255 255
255 255 255 255 255 255 255 255 255 255 255 255 255 255 255 255 255 255 255 255 255 255 255 255 255 255 255 255 255 255 253 238 208 184 175 174 174 169 155 141 134 132 132 132 133 133 132 132 132 132 132 133 132 132 133 133 133 132 132 133 133 133 133 133 133 133 134 153 189 229 251 255 255 255 255 255 255 255 255 255 255 255 255 255 255 255 255 255 255 255 255 255 255 255 255 255 255 255 255 255 255 255 255 255 255 255 255 255 255 255 254 254 253 250 244 233 218 207 205 213 224 234 243 251 255 255 255 255 255 255 255 255 255 255 253 248 234 208 179 153 133 127 127 127 128 128 128 128 128 129 128 128 127 123 115 107 101 97 95 94 94 94 94 94 94 93 93 93 93 92 92 92 92 92 91 91 91 91 91 91 90 90 90 90 90 90 89 89 89 89 89 89 89 89 89 89 89 88 88 88 88 88 88 88 88 88 88 88 88 88 88 87 87 87 87 87 87 87 87 87 86 90 121 172 226 251 255 255 255 255 255 255 255 255 255 255 255 255 255 255 255 255 255 255 255 255 255 255 255 255 255 255 255 255 255 255
255 255 255 255 255 255 255 255 255 255 255 255 255 255 255 255 255 255 255 255 255 255 255 255 255 255 255 255 255 255 254 245 222 195 176 173 174 168 152 138 133 132 132 132 132 133 132 133 133 132 132 133 132 132 133 133 133 133 133 133 133 133 133 133 133 133 133 140 164 210 242 252 255 255 255 255 255 255 255 255 255 255 255 255 255 255 255 255 255 255 255 255 255 255 255 255 255 255 255 255 255 255 255 255 255 255 255 255 255 254 249 243 234 225 215 205 199 200 210 228 243 252 254 255 255 255 255 255 255 255 255 255 255 252 243 225 199 167 141 128 126 127 127 127 127 128 128 128 128 128 127 124 120 114 104 99 96 95 95 95 94 94 94 94 94 93 93 93 93 93 92 92 92 92 91 91 91 91 91 91 91 90 90 90 90 90 90 89 89 89 89 89 89 89 89 89 89 88 88 88 88 88 88 88 88 88 88 88 88 88 88 88 87 87 87 87 87 87 87 87 85 91 144 199 237 253 255 255 255 255 255 255 255 255 255 255 255 255 255 255 255 255 255 255 255 255 255 255 255 255 255 255 255 255 255 255
255 255 255 255 255 255 255 255 255 255 255 255 255 255 255 255 255 255 255 255 255 255 255 255 255 255 255 255 255 255 255 250 236 208 180 174 174 167 149 135 132 133 133 132 132 132 133 132 132 132 132 133 132 132 133 132 132 133 133 133 133 133 132 133 133 133 133 133 146 184 220 243 253 255 255 255 255 255 255 255 255 255 255 255 255 255 255 255 255 255 255 255 255 255 255 255 255 255 255 255 255 255 255 255 255 253 251 249 246 241 230 216 200 187 183 192 210 228 241 249 253 255 255 255 255 255 255 255 255 255 255 254 249 238 216 183 153 136 127 125 125 126 126 126 126 127 127 127 126 125 122 117 109 102 98 97 96 95 95 95 94 94 94 94 94 94 94 93 93 93 93 92 92 92 92 91 91 91 91 91 91 91 90 90 90 90 90 90 89 89 89 89 89 89 89 89 89 89 89 88 88 88 88 88 88 88 88 88 88 88 88 88 88 87 87 87 87 87 87 87 85 97 163 221 246 254 255 255 255 255 255 255 255 255 255 255 255 255 255 255 255 255 255 255 255 255 255 255 255 255 255 255 255 255 255 255
255 255 255 255 255 255 255 255 255 255 255 255 255 255 255 255 255 255 255 255 255 255 255 255 255 255 255 255 255 255 255 254 245 219 189 177 173 165 146 133 132 133 133 132 132 132 133 133 133 132 132 133 132 132 133 132 132 133 133 133 133 133 132 132 133 133 133 132 136 155 187 221 242 253 254 255 255 255 255 255 255 255 255 255 255 255 255 255 255 255 255 255 255 255 255 255 255 255 255 255 254 254 254 253 250 243 233 222 212 200 190 183 181 190 206 222 236 247 254 255 255 255 255 255 255 255 255 255 255 255 253 246 228 203 174 145 128 125 125 125 125 126 126 126 126 126 126 126 123 119 113 106 101 97 96 96 96 96 95 95 95 94 94 94 94 94 93 93 93 93 93 93 92 92 92 92 92 91 91 91 91 91 90 90 90 90 90 90 90 89 89 89 89 89 89 89 89 89 89 88 88 88 88 88 88 88 88 88 88 88 88 88 88 88 87 87 87 87 87 87 91 115 181 236 253 255 255 255 255 255 255 255 255 255 255 255 255 255 255 255 255 255 255 255 255 255 255 255 255 255 255 255 255 255 255 255
255 255 255 255 255 255 255 255 255 255 255 255 255 255 255 255 255 255 255 255 255 255 255 255 255 255 255 255 255 255 255 255 251 232 204 182 172 164 145 132 131 132 132 132 132 132 133 133 133 132 132 133 132 132 133 133 133 132 132 133 133 133 133 133 133 133 133 133 134 135 154 186 215 235 246 253 255 255 255 255 255 255 255 255 255 255 255 255 255 255 255 255 255 255 255 255 255 255 255 252 248 244 239 233 225 213 200 185 171 164 171 184 201 221 238 249 253 254 255 255 255 255 255 255 255 255 255 255 254 249 239 220 191 160 134 125 124 125 125 125 125 125 125 125 126 126 124 121 116 109 103 99 97 97 97 96 96 96 96 95 95 95 94 94 94 94 94 93 93 93 93 93 92 92 92 92 92 92 91 91 91 91 90 90 90 90 90 90 90 89 89 89 89 89 89 89 89 89 89 89 88 88 88 88 88 88 88 88 88 88 88 88 88 88 88 87 87 87 87 86 101 142 200 244 255 255 255 255 255 255 255 255 255 255 255 255 255 255 255 255 255 255 255 255 255 255 255 255 255 255 255 255 255 255 255 255
255 255 255 255 255 255 255 255 255 255 255 255 255 255 255 255 255 255 255 255 255 255 255 255 255 255 255 255 255 255 255 255 253 243 220 191 172 162 144 133 132 132 132 132 132 133 132 132 132 133 133 132 133 133 133 133 133 133 133 132 132 133 133 133 133 133 133 133 133 132 137 150 173 198 223 240 247 250 251 252 253 254 255 255 255 255 255 255 255 254 254 253 253 252 251 250 249 248 244 237 228 217 203 189 175 167 164 163 166 179 201 222 238 246 252 255 255 255 255 255 255 255 255 255 255 255 255 252 245 231 205 173 149 132 123 122 123 124 124 124 124 125 125 125 124 123 120 113 106 102 99 98 97 97 97 97 96 96 96 96 95 95 95 94 94 94 94 94 94 93 93 93 93 92 92 92 92 92 92 91 91 91 91 90 90 90 90 90 90 90 89 89 89 89 89 89 89 89 89 89 89 88 88 88 88 88 88 88 88 88 88 88 88 88 88 87 87 87 87 85 115 171 219 248 255 255 255 255 255 255 255 255 255 255 255 255 255 255 255 255 255 255 255 255 255 255 255 255 255 255 255 255 255 255 255 255
255 255 255 255 255 255 255 255 255 255 255 255 255 255 255 255 255 255 255 255 255 255 255 255 255 255 255 255 255 255 255 255 255 251 234 203 178 163 144 133 132 132 132 132 132 132 132 132 132 132 132 133 132 133 133 133 133 133 133 133 133 133 133 133 133 133 133 133 133 133 133 134 143 160 182 199 213 224 233 240 245 249 252 254 255 255 255 255 253 250 247 245 241 236 231 226 220 212 204 196 188 179 167 155 147 150 164 184 203 220 235 246 253 255 255 255 255 255 255 255 255 255 255 255 255 255 251 237 216 191 162 137 126 122 123 123 123 123 123 123 123 123 124 123 120 115 110 105 101 99 98 98 98 98 97 97 96 96 96 96 96 95 95 95 94 94 94 94 94 93 93 93 93 93 92 92 92 92 92 92 91 91 91 91 90 90 90 90 90 90 90 89 89 89 89 89 89 89 89 89 89 88 88 88 88 88 88 88 88 88 88 88 88 88 88 88 88 87 87 88 132 198 237 252 255 255 255 255 255 255 255 255 255 255 255 255 255 255 255 255 255 255 255 255 255 255 255 255 255 255 255 255 255 255 255 255
255 255 255 255 255 255 255 255 255 255 255 255 255 255 255 255 255 255 255 255 255 255 255 255 255 255 255 255 255 255 255 255 255 254 244 218 190 165 144 133 132 132 132 133 132 132 132 132 133 132 132 133 132 132 133 132 132 133 133 133 133 133 133 133 133 133 133 133 133 133 133 133 134 136 141 152 167 185 199 209 217 224 228 231 232 233 233 232 229 225 221 217 212 205 196 187 178 166 155 151 148 147 149 156 167 182 200 220 238 248 252 254 255 255 255 255 255 255 255 255 255 255 255 255 251 244 229 205 174 144 128 124 123 123 123 123 123 123 123 123 123 122 120 118 112 106 102 100 99 99 98 98 98 98 97 97 97 96 96 96 96 96 95 95 95 94 94 94 94 94 93 93 93 93 93 92 92 92 92 92 92 91 91 91 90 90 90 90 90 90 90 90 89 89 89 89 89 89 89 89 89 88 88 88 88 88 88 88 88 88 88 88 88 88 88 88 88 87 90 107 158 219 249 255 255 255 255 255 255 255 255 255 255 255 255 255 255 255 255 255 255 255 255 255 255 255 255 255 255 255 255 255 255 255 255 255
255 255 255 255 255 255 255 255 255 255 255 255 255 255 255 255 255 255 255 255 255 255 255 255 255 255 255 255 255 255 255 255 255 255 250 234 206 172 146 134 132 132 133 133 132 132 132 132 132 133 133 132 133 133 132 132 132 133 133 133 133 132 133 133 133 133 133 133 133 133 133 133 133 132 132 135 141 150 157 163 167 171 173 175 176 176 176 176 174 173 171 169 166 163 159 155 150 145 142 143 145 150 163 183 205 225 238 246 252 255 255 255 255 255 255 255 255 255 255 255 255 255 253 249 237 215 184 158 138 124 120 122 122 122 122 122 122 122 122 123 121 118 114 109 105 102 100 100 99 99 99 98 98 98 97 97 97 97 96 96 96 96 95 95 95 95 94 94 94 94 94 93 93 93 93 93 92 92 92 92 92 91 91 91 91 91 90 90 90 90 90 90 90 89 89 89 89 89 89 89 89 89 88 88 88 88 88 88 88 88 88 88 88 88 88 88 88 86 95 137 189 234 253 255 255 255 255 255 255 255 255 255 255 255 255 255 255 255 255 255 255 255 255 255 255 255 255 255 255 255 255 255 255 255 255 255
255 255 255 255 255 255 255 255 255 255 255 255 255 255 255 255 255 255 255 255 255 255 255 255 255 255 255 255 255 255 255 255 255 255 254 246 222 187 156 138 133 132 133 133 132 132 133 132 132 133 133 132 133 133 133 133 133 133 133 133 133 133 133 133 133 133 133 133 133 133 133 133 133 133 133 133 134 134 135 135 136 136 136 137 137 137 137 138 138 139 139 140 139 140 140 140 140 140 145 159 175 192 208 223 236 248 253 254 255 255 255 255 255 255 255 255 255 255 255 255 255 252 241 224 200 172 143 127 122 121 121 121 121 121 122 122 122 122 121 119 116 112 107 104 102 101 101 100 100 99 99 98 98 98 98 97 97 97 97 97 96 96 95 95 95 95 95 94 94 94 94 94 93 93 93 93 93 92 92 92 92 92 91 91 91 91 91 90 90 90 90 90 90 90 89 89 89 89 89 89 89 89 89 89 89 88 88 88 88 88 88 88 88 88 88 88 88 86 102 164 217 245 254 255 255 255 255 255 255 255 255 255 255 255 255 255 255 255 255 255 255 255 255 255 255 255 255 255 255 255 255 255 255 255 255 255
255 255 255 255 255 255 255 255 255 255 255 255 255 255 255 255 255 255 255 255 255 255 255 255 255 255 255 255 255 255 255 255 255 255 255 251 236 206 171 144 134 133 133 132 132 133 133 132 132 133 133 132 133 133 133 133 133 132 133 133 133 133 133 133 133 132 133 133 133 133 133 133 133 133 133 133 133 134 134 134 134 134 135 135 136 136 136 136 137 137 138 138 138 138 139 144 152 162 174 192 212 230 243 249 252 254 255 255 255 255 255 255 255 255 255 255 255 255 255 252 245 234 212 182 152 131 123 121 121 121 121 121 121 121 121 121 121 120 117 113 109 105 103 102 101 101 101 101 100 99 99 98 98 98 98 98 97 97 97 97 96 96 96 95 95 95 94 94 94 94 94 94 94 93 93 93 93 93 92 92 92 92 92 91 91 91 91 90 90 90 90 90 90 90 89 89 89 89 89 89 89 89 89 89 89 89 88 88 88 88 88 88 88 88 88 88 88 93 123 188 237 252 255 255 255 255 255 255 255 255 255 255 255 255 255 255 255 255 255 255 255 255 255 255 255 255 255 255 255 255 255 255 255 255 255 255
255 255 255 255 255 255 255 255 255 255 255 255 255 255 255 255 255 255 255 255 255 255 255 255 255 255 255 255 255 255 255 255 255 255 255 254 247 226 188 152 135 132 133 132 133 133 133 132 132 132 132 133 132 132 133 133 132 133 133 133 133 133 133 133 133 133 133 133 133 133 133 133 133 133 133 133 133 134 134 135 135 136 136 136 137 137 137 138 138 139 139 140 141 143 148 163 185 206 222 233 242 249 253 255 255 255 255 255 255 255 255 255 255 255 255 255 255 254 250 238 217 189 162 142 126 119 120 120 120 120 120 120 121 121 121 120 119 115 111 107 105 104 102 102 102 102 101 101 101 100 99 99 99 99 98 98 98 97 97 97 96 96 96 96 95 95 95 94 94 94 94 94 94 94 93 93 93 93 93 92 92 92 92 92 91 91 91 91 90 90 90 90 90 90 89 89 89 89 89 89 89 89 89 89 89 89 88 88 88 88 88 88 88 88 88 88 88 111 158 211 246 255 255 255 255 255 255 255 255 255 255 255 255 255 255 255 255 255 255 255 255 255 255 255 255 255 255 255 255 255 255 255 255 255 255 255
255 255 255 255 255 255 255 255 255 255 255 255 255 255 255 255 255 255 255 255 255 255 255 255 255 255 255 255 255 255 255 255 255 255 255 255 253 240 208 169 140 132 132 132 132 132 132 132 132 132 133 133 132 132 133 133 133 132 132 133 133 133 133 133 133 133 133 133 133 133 133 133 133 133 133 133 134 134 134 135 135 136 136 136 136 137 137 137 137 137 140 149 163 177 192 207 223 237 247 252 254 254 255 255 255 255 255 255 255 255 255 255 255 255 255 254 249 239 223 202 176 145 126 121 120 120 119 119 120 120 120 120 121 120 118 116 113 109 107 104 104 103 103 102 102 102 101 101 101 101 100 100 99 99 98 98 98 98 97 97 97 97 97 96 96 95 95 95 94 94 94 94 94 94 93 93 93 93 93 92 92 92 92 92 92 91 91 91 91 90 90 90 90 90 90 89 89 89 89 89 89 89 89 89 89 89 88 88 88 88 88 88 88 88 88 87 88 129 190 231 251 255 255 255 255 255 255 255 255 255 255 255 255 255 255 255 255 255 255 255 255 255 255 255 255 255 255 255 255 255 255 255 255 255 255 255
255 255 255 255 255 255 255 255 255 255 255 255 255 255 255 255 255 255 255 255 255 255 255 255 255 255 255 255 255 255 255 255 255 255 255 255 255 248 228 193 155 136 132 132 132 132 132 132 132 133 133 133 132 132 133 133 133 132 132 133 133 133 132 133 133 133 133 133 133 133 133 133 133 133 133 133 134 134 134 135 135 135 136 136 136 136 138 142 147 153 163 179 199 218 234 244 249 252 254 255 255 255 255 255 255 255 255 255 255 255 255 255 255 253 251 244 230 206 175 150 134 123 119 119 119 119 119 119 119 120 120 119 119 117 113 110 108 106 105 104 104 103 103 103 102 102 101 101 101 101 101 100 99 99 98 98 98 98 98 97 97 97 97 97 96 95 95 95 95 94 94 94 94 94 93 93 93 93 93 92 92 92 92 92 92 91 91 91 91 91 90 90 90 90 90 90 89 89 89 89 89 89 89 89 89 89 89 88 88 88 88 88 88 88 88 89 100 153 215 246 254 255 255 255 255 255 255 255 255 255 255 255 255 255 255 255 255 255 255 255 255 255 255 255 255 255 255 255 255 255 255 255 255 255 255 255
255 255 255 255 255 255 255 255 255 255 255 255 255 255 255 255 255 255 255 255 255 255 255 255 255 255 255 255 255 255 255 255 255 255 255 255 255 253 244 221 185 152 134 132 133 133 133 133 133 132 132 132 133 133 133 133 132 133 133 133 133 133 133 132 133 133 133 133 133 133 133 133 133 133 133 133 134 134 134 135 135 135 136 137 137 139 146 162 181 200 215 227 235 244 250 254 255 255 255 255 255 255 255 255 255 255 255 255 255 255 255 255 253 246 231 208 183 159 137 124 119 118 118 118 118 119 119 119 119 119 119 117 114 112 109 108 107 106 105 105 104 104 103 103 103 102 102 102 102 101 101 100 99 99 99 98 98 98 98 98 97 97 97 97 96 96 95 95 95 95 94 94 94 94 94 93 93 93 93 93 92 92 92 92 92 91 91 91 91 91 90 90 90 90 90 90 89 89 89 89 89 89 89 89 89 89 89 88 88 88 88 88 88 88 87 96 132 184 232 253 255 255 255 255 255 255 255 255 255 255 255 255 255 255 255 255 255 255 255 255 255 255 255 255 255 255 255 255 255 255 255 255 255 255 255 255
255 255 255 255 255 255 255 255 255 255 255 255 255 255 255 255 255 255 255 255 255 255 255 255 255 255 255 255 255 255 255 255 255 255 255 255 255 255 253 241 216 181 150 134 131 133 133 133 133 132 132 132 133 133 133 132 132 133 133 133 133 133 133 133 133 133 133 133 133 133 133 133 133 133 133 133 134 133 133 134 133 137 145 156 166 177 189 203 219 234 245 251 253 254 255 255 255 255 255 255 255 255 255 255 255 255 255 255 255 255 252 246 234 217 193 163 138 123 119 118 118 118 118 118 118 118 119 119 118 117 116 114 111 109 108 107 107 106 106 105 105 104 104 103 103 103 102 102 102 101 101 100 100 100 99 99 98 98 98 98 97 97 97 97 96 96 96 95 95 95 95 94 94 94 94 94 93 93 93 93 93 92 92 92 92 92 91 91 91 91 91 90 90 90 90 90 89 89 89 89 89 89 89 89 89 89 89 89 88 88 88 88 88 88 89 110 166 215 244 254 255 255 255 255 255 255 255 255 255 255 255 255 255 255 255 255 255 255 255 255 255 255 255 255 255 255 255 255 255 255 255 255 255 255 255 255
255 255 255 255 255 255 255 255 255 255 255 255 255 255 255 255 255 255 255 255 255 255 255 255 255 255 255 255 255 255 255 255 255 255 255 255 255 255 254 252 241 213 179 151 137 133 132 132 132 132 132 133 132 132 133 133 132 133 133 132 132 133 133 133 133 133 133 133 133 133 133 133 133 133 133 134 135 138 141 144 147 156 172 190 209 224 236 243 248 250 253 255 255 255 255 255 255 255 255 255 255 255 255 255 255 255 255 255 253 249 241 222 193 164 142 129 121 118 118 118 118 118 118 118 118 118 118 117 116 113 112 111 110 109 109 108 107 107 106 105 105 105 104 104 103 103 102 102 102 101 101 101 101 100 99 99 99 98 98 98 97 97 97 97 97 96 96 96 95 95 95 94 94 94 94 94 94 93 93 93 93 93 92 92 92 92 92 92 92 91 91 91 90 90 90 90 90 90 90 89 89 89 89 89 89 89 89 89 89 89 88 88 88 88 98 135 196 239 253 255 255 255 255 255 255 255 255 255 255 255 255 255 255 255 255 255 255 255 255 255 255 255 255 255 255 255 255 255 255 255 255 255 255 255 255 255
255 255 255 255 255 255 255 255 255 255 255 255 255 255 255 255 255 255 255 255 255 255 255 255 255 255 255 255 255 255 255 255 255 255 255 255 255 255 255 255 252 239 219 192 162 140 133 132 132 132 132 133 132 132 132 132 133 133 133 133 133 133 133 133 133 133 133 133 133 133 133 133 133 133 133 136 144 158 172 186 198 210 221 230 239 247 252 254 255 255 255 255 255 255 255 255 255 255 255 255 255 255 255 255 255 255 254 251 240 222 200 175 151 130 119 117 118 118 118 118 118 118 118 118 118 118 117 115 113 112 111 110 110 109 109 108 107 107 107 106 105 105 104 104 104 103 103 102 102 102 101 101 101 101 100 99 99 98 98 98 98 97 97 97 97 96 96 96 96 95 95 95 95 94 94 94 94 93 93 93 93 93 92 92 92 92 92 92 92 91 91 91 91 90 90 90 90 90 90 89 89 89 89 89 89 89 89 89 89 88 88 88 87 89 122 175 222 249 255 255 255 255 255 255 255 255 255 255 255 255 255 255 255 255 255 255 255 255 255 255 255 255 255 255 255 255 255 255 255 255 255 255 255 255 255 255
255 255 255 255 255 255 255 255 255 255 255 255 255 255 255 255 255 255 255 255 255 255 255 255 255 255 255 255 255 255 255 255 255 255 255 255 255 255 255 255 255 254 246 228 201 176 161 150 140 134 132 132 132 132 132 132 132 132 132 132 132 132 132 132 132 131 132 132 133 138 143 148 154 160 166 174 184 198 211 224 236 246 251 253 254 254 255 255 255 255 255 255 255 255 255 255 255 255 255 255 255 255 255 255 253 248 240 229 209 181 149 128 122 119 118 118 118 118 118 118 118 118 118 118 117 117 116 114 112 111 111 111 110 110 109 109 108 107 107 107 106 105 105 104 104 104 103 103 102 102 102 101 101 101 100 100 99 99 98 98 98 98 97 97 97 97 96 96 96 95 95 95 95 95 94 94 94 94 93 93 93 93 92 92 92 92 92 92 92 91 91 91 91 91 90 90 90 90 90 89 89 89 89 89 89 89 89 89 89 88 88 88 89 102 152 209 241 253 255 255 255 255 255 255 255 255 255 255 255 255 255 255 255 255 255 255 255 255 255 255 255 255 255 255 255 255 255 255 255 255 255 255 255 255 255 255
255 255 255 255 255 255 255 255 255 255 255 255 255 255 255 255 255 255 255 255 255 255 255 255 255 255 255 255 255 255 255 255 255 255 255 255 255 255 255 255 255 255 253 248 239 226 207 186 165 149 142 141 140 138 138 137 137 137 137 136 137 138 138 139 140 141 142 143 147 158 171 183 195 206 217 228 236 240 244 248 251 254 255 255 255 255 255 255 255 255 255 255 255 255 255 255 255 255 255 255 255 254 253 250 243 226 203 177 154 138 125 118 118 118 118 118 118 118 118 118 118 118 118 118 116 115 115 114 113 112 111 111 111 110 109 109 109 108 107 107 107 106 105 105 104 104 104 103 103 102 102 102 101 101 101 100 100 99 99 99 98 98 98 97 97 97 97 96 96 96 96 95 95 95 95 94 94 94 94 93 93 93 93 93 92 92 92 92 92 92 91 91 91 91 90 90 90 90 90 90 89 89 89 89 89 89 89 89 89 89 88 88 97 130 183 232 252 255 255 255 255 255 255 255 255 255 255 255 255 255 255 255 255 255 255 255 255 255 255 255 255 255 255 255 255 255 255 255 255 255 255 255 255 255 255 255
255 255 255 255 255 255 255 255 255 255 255 255 255 255 255 255 255 255 255 255 255 255 255 255 255 255 255 255 255 255 255 255 255 255 255 255 255 255 255 255 255 255 255 255 254 248 237 225 214 203 195 187 180 175 170 167 164 162 163 165 167 169 172 177 182 187 192 197 203 210 217 224 230 237 244 250 254 254 255 255 255 255 255 255 255 255 255 255 255 255 255 255 255 255 255 255 255 255 255 254 253 248 236 220 202 183 160 135 121 118 118 118 118 118 118 118 118 118 118 118 118 118 118 117 116 115 115 114 113 113 112 111 111 110 110 109 109 109 108 107 107 106 105 105 104 104 104 103 103 103 102 102 101 101 101 101 100 100 99 99 98 98 98 98 97 97 97 97 96 96 96 95 95 95 95 95 94 94 94 94 93 93 93 93 92 92 92 92 92 92 91 91 91 91 91 90 90 90 90 90 90 89 89 89 89 89 89 89 89 89 89 89 110 166 215 245 255 255 255 255 255 255 255 255 255 255 255 255 255 255 255 255 255 255 255 255 255 255 255 255 255 255 255 255 255 255 255 255 255 255 255 255 255 255 255 255
255 255 255 255 255 255 255 255 255 255 255 255 255 255 255 255 255 255 255 255 255 255 255 255 255 255 255 255 255 255 255 255 255 255 255 255 255 255 255 255 255 255 255 255 255 254 253 252 249 245 238 229 221 215 210 207 203 201 202 205 206 208 212 217 223 229 235 241 247 249 250 251 252 253 254 254 255 255 255 255 255 255 255 255 255 255 255 255 255 255 255 255 255 255 255 255 255 254 251 245 237 225 202 173 145 130 124 121 119 118 118 118 118 118 118 118 118 119 119 119 119 118 118 117 116 116 115 114 114 113 113 112 111 111 110 110 109 109 109 108 107 107 106 105 104 104 104 104 103 103 103 102 101 101 101 101 101 100 100 99 99 98 98 98 97 97 97 97 97 96 96 96 95 95 95 95 94 94 94 94 94 93 93 93 93 92 92 92 92 92 91 91 91 91 91 91 90 90 90 90 90 90 89 89 89 89 89 89 89 89 89 101 138 199 239 252 255 255 255 255 255 255 255 255 255 255 255 255 255 255 255 255 255 255 255 255 255 255 255 255 255 255 255 255 255 255 255 255 255 255 255 255 255 255 255 255
255 255 255 255 255 255 255 255 255 255 255 255 255 255 255 255 255 255 255 255 255 255 255 255 255 255 255 255 255 255 255 255 255 255 255 255 255 255 255 255 255 255 255 255 255 255 255 255 255 254 251 248 246 243 242 241 240 239 239 240 240 241 242 244 246 248 251 253 254 255 255 255 255 255 255 255 255 255 255 255 255 255 255 255 255 255 255 255 255 255 255 255 255 255 254 253 252 247 235 216 193 170 152 136 122 117 117 117 118 118 118 118 118 118 119 119 120 120 120 120 119 119 118 117 117 116 116 115 114 114 113 112 111 111 111 110 110 109 109 108 107 107 106 105 105 104 104 104 104 103 103 103 102 102 102 101 101 100 100 100 99 99 98 98 98 97 97 97 97 97 96 96 95 95 95 95 94 94 94 94 94 94 93 93 93 93 93 92 92 92 92 92 92 91 91 91 91 90 90 90 90 90 90 89 89 89 89 89 89 89 94 128 178 223 250 255 255 255 255 255 255 255 255 255 255 255 255 255 255 255 255 255 255 255 255 255 255 255 255 255 255 255 255 255 255 255 255 255 255 255 255 255 255 255 255 255
255 255 255 255 255 255 255 255 255 255 255 255 255 255 255 255 255 255 255 255 255 255 255 255 255 255 255 255 255 255 255 255 255 255 255 255 255 255 255 255 255 255 255 255 255 255 255 255 255 255 255 255 255 255 255 255 255 255 255 255 255 255 255 255 255 255 255 255 255 255 255 255 255 255 255 255 255 255 255 255 255 255 255 255 255 255 255 255 255 255 255 255 255 254 249 241 230 216 197 173 148 126 118 118 118 118 118 118 118 118 118 119 119 120 121 122 122 122 122 121 121 119 118 118 117 117 116 115 115 114 113 112 112 111 111 111 110 109 109 108 108 107 106 106 105 105 104 104 104 103 103 103 102 102 102 102 101 100 100 100 99 99 98 98 98 98 97 97 97 97 96 96 96 95 95 95 94 94 94 94 94 94 94 93 93 93 93 92 92 92 92 92 92 91 91 91 91 90 90 90 90 90 90 90 89 89 89 89 89 93 113 162 214 242 254 255 255 255 255 255 255 255 255 255 255 255 255 255 255 255 255 255 255 255 255 255 255 255 255 255 255 255 255 255 255 255 255 255 255 255 255 255 255 255 255 255
255 255 255 255 255 255 255 255 255 255 255 255 255 255 255 255 255 255 255 255 255 255 255 255 255 255 255 255 255 255 255 255 255 255 255 255 255 255 255 255 255 255 255 255 255 255 255 255 255 255 255 255 255 255 255 255 255 255 255 255 255 255 255 255 255 255 255 255 255 255 255 255 255 255 255 255 255 255 255 255 255 255 255 255 255 255 255 255 255 255 254 250 247 241 229 210 186 161 141 130 124 119 118 118 118 118 118 118 118 119 119 121 122 123 124 124 124 124 123 122 121 121 119 119 118 117 117 116 115 115 114 114 112 112 111 111 110 109 109 109 108 108 107 106 106 105 105 104 104 104 104 103 102 102 102 102 101 101 101 100 99 99 99 99 98 98 98 97 97 97 97 96 96 96 95 95 95 94 94 94 94 94 94 94 93 93 93 93 93 92 92 92 92 91 91 91 91 90 90 90 90 90 90 90 90 89 89 89 89 105 148 198 239 253 255 255 255 255 255 255 255 255 255 255 255 255 255 255 255 255 255 255 255 255 255 255 255 255 255 255 255 255 255 255 255 255 255 255 255 255 255 255 255 255 255 255
255 255 255 255 255 255 255 255 255 255 255 255 255 255 255 255 255 255 255 255 255 255 255 255 255 255 255 255 255 255 255 255 255 255 255 255 255 255 255 255 255 255 255 255 255 255 255 255 255 255 255 255 255 255 255 255 255 255 255 255 255 255 255 255 255 255 255 255 255 255 255 255 255 255 255 255 255 255 255 255 255 255 255 255 255 255 255 254 253 251 245 233 215 196 179 162 145 128 118 116 117 118 118 118 118 118 119 119 120 122 124 126 127 127 126 126 125 124 123 122 122 121 120 119 119 118 117 116 116 115 115 114 113 113 112 111 111 110 110 109 109 108 108 107 107 106 105 105 104 104 104 103 103 102 102 101 101 101 101 101 100 99 99 99 98 98 98 98 97 97 97 97 96 96 96 95 95 95 94 94 94 94 94 94 94 93 93 93 93 92 92 92 92 92 91 91 91 91 90 90 90 90 90 90 90 90 89 89 97 130 188 230 250 255 255 255 255 255 255 255 255 255 255 255 255 255 255 255 255 255 255 255 255 255 255 255 255 255 255 255 255 255 255 255 255 255 255 255 255 255 255 255 255 255 255 255
255 255 255 255 255 255 255 255 255 255 255 255 255 255 255 255 255 255 255 255 255 255 255 255 255 255 255 255 255 255 255 255 255 255 255 255 255 255 255 255 255 255 255 255 255 255 255 255 255 255 255 255 255 255 255 255 255 255 255 255 255 255 255 255 255 255 255 255 255 255 255 255 255 255 255 255 255 255 255 255 255 255 255 255 255 254 250 242 234 224 212 195 171 146 129 121 119 119 118 118 118 118 118 118 119 120 122 124 125 127 128 129 129 129 128 126 126 125 124 123 122 121 121 120 119 118 117 117 116 115 115 114 114 113 112 112 111 111 110 109 109 109 108 107 107 107 106 105 105 104 104 103 103 103 102 102 101 101 101 101 101 100 99 99 98 98 98 98 98 97 97 97 96 96 96 96 95 95 95 94 94 94 94 94 94 93 93 93 93 92 92 92 92 92 92 91 91 91 91 90 90 90 90 90 90 90 89 92 123 171 221 248 254 255 255 255 255 255 255 255 255 255 255 255 255 255 255 255 255 255 255 255 255 255 255 255 255 255 255 255 255 255 255 255 255 255 255 255 255 255 255 255 255 255 255 255
255 255 255 255 255 255 255 255 255 255 255 255 255 255 255 255 255 255 255 255 255 255 255 255 255 255 255 255 255 255 255 255 255 255 255 255 255 255 255 255 255 255 255 255 255 255 255 255 255 254 255 255 255 255 255 255 255 255 255 255 255 255 255 255 255 255 255 255 255 255 255 255 255 255 255 255 255 255 255 255 255 254 252 249 246 241 230 213 192 171 153 141 132 123 119 117 117 118 118 118 118 119 120 121 123 126 129 131 132 131 131 131 130 129 128 127 126 126 125 124 123 122 121 120 119 119 118 118 117 116 115 115 115 114 113 112 112 111 111 110 110 109 108 108 107 107 107 106 105 105 104 104 103 103 103 102 102 101 101 101 101 101 100 99 99 98 98 98 98 97 97 97 97 96 96 96 96 95 95 95 94 94 94 94 94 93 93 93 93 93 92 92 92 92 92 92 91 91 91 91 90 90 90 90 90 89 92 109 161 213 241 254 255 255 255 255 255 255 255 255 255 255 255 255 255 255 255 255 255 255 255 255 255 255 255 255 255 255 255 255 255 255 255 255 255 255 255 255 255 255 255 255 255 255 255 255
255 255 255 255 255 255 255 255 255 255 255 255 255 255 255 255 255 255 255 255 255 255 255 255 255 255 255 255 255 255 255 255 255 255 255 255 255 255 255 255 255 255 255 255 255 255 255 255 254 252 253 254 255 255 255 255 255 255 255 255 255 255 255 255 255 255 255 255 255 255 255 255 255 255 255 255 254 254 254 254 251 245 235 222 209 196 181 166 149 132 120 116 117 118 118 118 118 118 118 119 120 123 126 129 131 133 134 135 134 134 133 132 131 130 129 128 127 126 125 125 124 123 122 121 120 119 119 118 117 116 116 115 115 114 113 113 112 111 111 111 110 109 109 108 108 107 107 106 106 105 105 104 104 103 103 103 102 102 101 101 101 101 101 100 99 99 98 98 98 97 97 97 97 97 96 96 96 96 95 95 95 94 94 94 94 94 93 93 93 93 93 92 92 92 92 92 91 91 91 91 91 91 90 90 90 90 107 147 197 238 252 255 255 255 255 255 255 255 255 255 255 255 255 255 255 255 255 255 255 255 255 255 255 255 255 255 255 255 255 255 255 255 255 255 255 255 255 255 255 255 255 255 255 255 255 255
255 255 255 255 255 255 255 255 255 255 255 255 255 255 255 255 255 255 255 255 255 255 255 255 255 255 255 255 255 255 255 255 255 255 255 255 255 255 255 255 255 255 255 255 255 255 255 255 254 251 248 248 252 255 255 255 255 255 255 255 255 255 255 255 255 255 255 255 255 255 255 255 255 255 255 251 247 243 238 232 225 213 198 180 160 140 127 123 121 120 118 118 118 118 118 118 119 121 122 125 127 131 134 137 138 138 138 136 135 135 134 132 131 131 130 129 128 127 126 125 125 124 123 122 121 120 120 118 118 117 116 116 115 115 114 113 113 112 111 111 110 110 109 109 108 107 107 107 106 106 105 104 104 104 103 103 103 102 102 101 101 101 101 100 99 99 99 98 98 98 97 97 97 97 97 96 96 96 96 95 95 95 94 94 94 94 94 93 93 93 93 93 92 92 92 92 92 91 91 91 91 91 91 90 90 99 134 189 227 250 255 255 255 255 255 255 255 255 255 255 255 255 255 255 255 255 255 255 255 255 255 255 255 255 255 255 255 255 255 255 255 255 255 255 255 255 255 255 255 255 255 255 255 255 255 255
255 255 255 255 255 255 255 255 255 255 255 255 255 255 255 255 255 255 255 255 255 255 255 255 255 255 255 255 255 255 255 255 255 255 255 255 255 255 255 255 255 255 255 255 255 255 255 255 254 251 243 237 242 248 249 251 252 253 254 254 254 255 255 254 254 254 254 253 252 251 251 249 249 247 243 236 224 212 198 182 167 154 146 137 128 120 116 116 117 118 118 118 119 119 120 121 123 127 130 134 136 138 139 140 140 140 139 137 136 136 134 133 132 132 131 130 129 128 127 126 125 124 124 123 122 121 120 119 118 118 117 116 115 115 115 114 113 112 112 111 111 110 110 109 108 108 107 107 107 106 106 105 105 104 104 103 103 102 102 102 101 101 101 101 100 99 99 99 98 98 98 97 97 97 97 97 96 96 96 95 95 95 94 94 94 94 94 94 93 93 93 93 93 92 92 92 92 92 91 91 91 91 91 91 97 126 172 222 247 254 255 255 255 255 255 255 255 255 255 255 255 255 255 255 255 255 255 255 255 255 255 255 255 255 255 255 255 255 255 255 255 255 255 255 255 255 255 255 255 255 255 255 255 255 255 255
255 255 255 255 255 255 255 255 255 255 255 255 255 255 255 255 255 255 255 255 255 255 255 255 255 255 255 255 255 255 255 255 255 255 255 255 255 255 255 255 255 255 255 255 255 255 255 255 255 253 244 229 217 214 222 230 238 243 247 249 251 252 252 250 249 247 245 241 237 233 227 221 214 206 199 189 178 166 153 138 126 118 117 117 118 118 118 118 118 118 119 120 123 125 128 130 132 134 137 139 140 140 140 140 140 140 140 138 137 136 135 134 133 132 132 130 129 128 128 127 126 125 124 123 123 122 121 120 119 119 118 117 116 115 115 114 114 113 112 111 112 111 110 109 109 108 108 107 107 107 106 106 105 105 104 104 103 103 103 102 102 101 101 101 101 100 99 99 99 98 98 98 97 97 97 97 97 96 96 96 95 95 95 94 94 94 94 94 94 93 93 93 93 93 92 92 92 92 92 91 91 91 91 96 117 168 214 243 254 255 255 255 255 255 255 255 255 255 255 255 255 255 255 255 255 255 255 255 255 255 255 255 255 255 255 255 255 255 255 255 255 255 255 255 255 255 255 255 255 255 255 255 255 255 255 255
255 255 255 255 255 255 255 255 255 255 255 255 255 255 255 255 255 255 255 255 255 255 255 255 255 255 255 255 255 255 255 255 255 255 255 255 255 255 255 255 255 255 255 255 255 255 255 255 255 254 248 232 201 179 180 193 205 213 218 222 225 227 226 224 222 219 215 209 203 195 187 176 162 149 138 131 129 126 123 121 118 117 117 118 118 119 119 120 121 122 124 126 129 132 135 137 138 139 140 140 140 140 140 140 140 140 140 139 138 137 136 135 134 133 132 131 130 129 128 127 126 126 125 124 123 122 121 121 120 119 118 118 117 116 115 114 114 114 113 112 112 112 110 109 109 109 108 108 107 107 107 106 105 105 105 104 104 103 103 103 102 102 101 101 101 100 100 99 99 98 98 98 98 97 97 97 97 96 96 96 96 95 95 95 94 94 94 94 94 94 93 93 93 93 93 92 92 92 92 92 91 91 92 115 159 208 242 253 255 255 255 255 255 255 255 255 255 255 255 255 255 255 255 255 255 255 255 255 255 255 255 255 255 255 255 255 255 255 255 255 255 255 255 255 255 255 255 255 255 255 255 255 255 255 255 255
255 255 255 255 255 255 255 255 255 255 255 255 255 255 255 255 255 255 255 255 255 255 255 255 255 255 255 255 255 255 255 255 255 255 255 255 255 255 255 255 255 255 255 255 255 255 255 255 255 255 253 244 219 185 156 152 158 159 161 163 165 166 165 164 162 161 159 156 152 147 143 137 129 122 117 116 116 116 117 118 118 119 119 119 120 122 124 126 128 131 132 134 135 137 138 139 139 140 140 140 140 140 140 140 140 140 140 140 139 138 137 136 135 134 133 132 131 130 129 128 127 126 125 125 124 123 122 121 120 119 119 118 117 117 116 115 115 114 114 113 112 111 111 110 109 109 109 108 108 107 107 106 105 105 105 105 104 103 103 103 102 102 102 101 101 101 100 100 99 98 98 98 98 98 97 97 97 96 96 96 96 95 95 95 94 94 94 94 94 94 94 93 93 93 93 93 92 92 92 92 91 95 108 151 205 237 252 255 255 255 255 255 255 255 255 255 255 255 255 255 255 255 255 255 255 255 255 255 255 255 255 255 255 255 255 255 255 255 255 255 255 255 255 255 255 255 255 255 255 255 255 255 255 255 255 255
255 255 255 255 255 255 255 255 255 255 255 255 255 255 255 255 255 255 255 255 255 255 255 255 255 255 255 255 255 255 255 255 255 255 255 255 255 255 255 255 255 255 255 255 255 255 255 255 255 255 255 252 240 212 170 142 129 124 122 121 121 120 119 119 118 119 119 119 118 119 118 118 118 118 118 118 119 119 120 121 122 123 125 126 128 129 131 133 135 136 137 138 138 139 139 139 139 139 139 140 140 140 140 140 140 140 140 140 140 139 137 136 135 134 133 132 132 131 130 129 128 127 126 125 125 124 123 122 121 120 120 118 118 117 117 116 115 115 114 113 112 112 111 111 110 109 109 109 108 107 107 107 106 105 105 105 105 104 103 103 102 102 102 102 101 101 101 100 100 99 98 98 98 98 98 97 97 97 96 96 96 96 96 95 95 95 94 94 94 94 94 94 93 93 93 93 93 92 92 92 92 107 152 198 235 251 255 255 255 255 255 255 255 255 255 255 255 255 255 255 255 255 255 255 255 255 255 255 255 255 255 255 255 255 255 255 255 255 255 255 255 255 255 255 255 255 255 255 255 255 255 255 255 255 255 255
255 255 255 255 255 255 255 255 255 255 255 255 255 255 255 255 255 255 255 255 255 255 255 255 255 255 255 255 255 255 255 255 255 255 255 255 255 255 255 255 255 255 255 255 255 255 255 255 255 255 255 255 251 235 202 165 136 127 123 122 122 121 120 119 118 119 119 119 119 119 119 120 120 120 121 122 123 123 124 126 128 130 131 133 135 136 136 137 138 138 138 138 138 139 139 139 139 139 139 140 140 140 140 140 140 140 140 140 140 140 138 137 136 135 134 133 132 131 130 130 129 127 127 126 125 124 123 123 122 121 121 120 119 118 117 116 116 115 114 114 113 112 111 111 110 110 109 109 109 108 107 107 107 106 105 105 105 105 104 103 102 102 102 102 101 101 101 101 100 99 99 98 98 98 98 98 97 97 97 96 96 96 96 96 95 95 95 94 94 94 94 94 93 93 93 93 93 92 92 92 108 144 197 233 249 254 255 255 255 255 255 255 255 255 255 255 255 255 255 255 255 255 255 255 255 255 255 255 255 255 255 255 255 255 255 255 255 255 255 255 255 255 255 255 255 255 255 255 255 255 255 255 255 255 255 255
255 255 255 255 255 255 255 255 255 255 255 255 255 255 255 255 255 255 255 255 255 255 255 255 255 255 255 255 255 255 255 255 255 255 255 255 255 255 255 255 255 255 255 255 255 255 255 255 255 255 255 255 255 249 233 198 158 137 128 128 128 128 127 127 126 125 125 125 126 126 126 126 127 128 129 130 131 131 131 132 134 134 135 136 136 137 137 137 137 138 138 138 138 138 139 139 139 139 139 139 139 139 140 140 140 140 140 140 140 140 139 138 137 136 135 134 132 132 131 130 129 128 127 127 125 125 124 123 122 121 121 120 119 118 118 117 116 115 115 114 114 112 112 111 111 111 110 109 109 109 108 107 107 107 106 105 105 105 105 104 103 102 102 102 101 101 101 101 100 99 99 99 98 98 98 98 97 97 97 97 96 96 96 96 95 95 95 95 94 94 94 94 93 93 93 93 93 92 93 102 145 195 230 249 254 255 255 255 255 255 255 255 255 255 255 255 255 255 255 255 255 255 255 255 255 255 255 255 255 255 255 255 255 255 255 255 255 255 255 255 255 255 255 255 255 255 255 255 255 255 255 255 255 255 255 255
255 255 255 255 255 255 255 255 255 255 255 255 255 255 255 255 255 255 255 255 255 255 255 255 255 255 255 255 255 255 255 255 255 255 255 255 255 255 255 255 255 255 255 255 255 255 255 255 255 255 255 255 255 254 249 227 193 156 135 130 130 131 131 130 129 129 129 130 130 130 130 131 132 133 134 135 135 135 135 136 136 136 136 136 136 137 137 137 137 138 138 138 138 138 139 139 139 139 139 139 139 139 140 140 140 140 140 140 140 140 140 139 137 136 136 135 134 133 132 131 130 129 128 127 126 125 125 124 123 122 121 121 120 119 118 118 117 116 115 115 114 113 113 112 111 111 111 110 109 109 108 108 107 107 106 105 105 105 105 104 104 103 103 102 102 101 101 101 100 100 100 99 99 98 98 98 98 97 97 97 97 96 96 96 96 95 95 95 95 94 94 94 94 93 93 93 93 92 106 144 191 230 248 254 255 255 255 255 255 255 255 255 255 255 255 255 255 255 255 255 255 255 255 255 255 255 255 255 255 255 255 255 255 255 255 255 255 255 255 255 255 255 255 255 255 255 255 255 255 255 255 255 255 255 255 255
255 255 255 255 255 255 255 255 255 255 255 255 255 255 255 255 255 255 255 255 255 255 255 255 255 255 255 255 255 255 255 255 255 255 255 255 255 255 255 255 255 255 255 255 255 255 255 255 255 255 255 255 255 255 254 247 226 187 153 135 130 131 131 131 131 131 131 132 132 133 133 133 133 134 134 134 135 135 135 135 135 136 136 136 136 137 137 137 137 138 138 138 138 138 139 139 139 139 139 139 139 139 140 140 140 140 140 140 140 140 140 140 138 137 137 136 135 134 133 131 131 130 129 128 127 126 125 124 124 123 122 122 121 120 119 118 117 117 116 115 115 114 114 113 112 111 111 110 110 109 109 108 108 107 106 106 105 105 105 104 104 104 103 103 102 102 101 101 101 101 100 99 99 99 98 98 98 97 97 97 97 96 96 96 96 96 95 95 95 95 94 94 94 94 93 93 95 108 142 192 228 247 254 255 255 255 255 255 255 255 255 255 255 255 255 255 255 255 255 255 255 255 255 255 255 255 255 255 255 255 255 255 255 255 255 255 255 255 255 255 255 255 255 255 255 255 255 255 255 255 255 255 255 255 255 255
255 255 255 255 255 255 255 255 255 255 255 255 255 255 255 255 255 255 255 255 255 255 255 255 255 255 255 255 255 255 255 255 255 255 255 255 255 255 255 255 255 255 255 255 255 255 255 255 255 255 255 255 255 255 255 254 245 223 188 150 134 130 131 131 131 131 132 132 132 133 133 133 133 133 134 134 134 135 135 135 135 135 136 136 136 137 137 137 137 137 137 138 138 138 138 138 138 139 139 139 139 139 139 139 140 140 140 140 140 140 140 140 139 138 137 137 135 134 133 132 131 131 130 128 127 126 126 125 124 124 123 123 121 120 120 119 118 117 116 116 115 115 114 113 112 111 111 110 110 110 109 109 108 107 107 107 106 105 105 105 104 104 104 103 103 102 102 101 101 101 101 100 99 99 99 98 98 98 98 97 97 97 97 97 96 96 96 95 95 95 94 94 94 94 93 94 106 148 195 229 247 254 255 255 255 255 255 255 255 255 255 255 255 255 255 255 255 255 255 255 255 255 255 255 255 255 255 255 255 255 255 255 255 255 255 255 255 255 255 255 255 255 255 255 255 255 255 255 255 255 255 255 255 255 255 255
255 255 255 255 255 255 255 255 255 255 255 255 255 255 255 255 255 255 255 255 255 255 255 255 255 255 255 255 255 255 255 255 255 255 255 255 255 255 255 255 255 255 255 255 255 255 255 255 255 255 255 255 255 255 255 255 253 245 221 184 152 134 131 131 131 131 132 132 132 132 133 133 133 133 134 134 134 135 135 135 135 135 135 136 136 136 137 137 137 137 137 138 138 138 138 138 138 139 139 139 139 139 139 139 140 140 140 140 140 140 140 140 140 139 138 137 136 135 134 133 132 131 130 129 128 127 126 126 125 125 124 123 122 121 120 120 119 118 117 116 116 115 114 113 113 112 111 111 110 110 110 109 109 108 107 107 107 106 105 105 105 104 104 104 103 102 102 102 101 101 101 100 100 99 99 99 98 98 98 97 97 97 97 97 96 96 96 96 95 95 94 94 94 94 96 114 150 195 231 248 254 255 255 255 255 255 255 255 255 255 255 255 255 255 255 255 255 255 255 255 255 255 255 255 255 255 255 255 255 255 255 255 255 255 255 255 255 255 255 255 255 255 255 255 255 255 255 255 255 255 255 255 255 255 255 255
255 255 255 255 255 255 255 255 255 255 255 255 255 255 255 255 255 255 255 255 255 255 255 255 255 255 255 255 255 255 255 255 255 255 255 255 255 255 255 255 255 255 255 255 255 255 255 255 255 255 255 255 255 255 255 255 255 253 244 222 184 150 135 131 131 131 131 132 132 132 132 133 133 133 133 133 134 135 135 135 135 135 135 135 136 136 136 136 137 137 137 137 138 138 138 138 138 139 139 139 139 139 139 139 140 140 140 140 140 140 140 140 140 140 139 138 137 135 135 134 133 131 131 130 129 128 127 126 126 125 124 123 122 122 121 120 119 118 118 117 116 115 115 114 113 113 112 111 111 110 110 109 109 108 107 107 107 106 106 105 105 105 104 104 104 103 102 102 102 101 101 101 100 100 99 99 98 98 98 98 97 97 97 97 96 96 96 96 96 95 95 94 94 99 115 153 201 233 249 254 255 255 255 255 255 255 255 255 255 255 255 255 255 255 255 255 255 255 255 255 255 255 255 255 255 255 255 255 255 255 255 255 255 255 255 255 255 255 255 255 255 255 255 255 255 255 255 255 255 255 255 255 255 255 255 255
255 255 255 255 255 255 255 255 255 255 255 255 255 255 255 255 255 255 255 255 255 255 255 255 255 255 255 255 255 255 255 255 255 255 255 255 255 255 255 255 255 255 255 255 255 255 255 255 255 255 255 255 255 255 255 255 255 255 253 244 221 187 152 135 131 131 131 131 131 132 132 132 133 133 133 133 134 134 135 135 135 135 135 135 136 136 136 136 136 137 137 137 137 137 138 138 138 138 139 139 139 139 139 139 139 139 140 140 140 140 140 140 140 140 140 139 138 136 135 135 134 132 131 131 130 129 128 127 126 125 125 124 123 122 122 121 120 119 118 118 117 116 115 115 114 113 113 112 111 111 110 110 109 109 108 108 107 107 106 106 105 105 104 104 104 103 103 102 102 101 101 101 101 100 99 99 99 98 98 98 98 97 97 97 97 96 96 96 96 95 95 95 99 120 163 204 234 249 254 255 255 255 255 255 255 255 255 255 255 255 255 255 255 255 255 255 255 255 255 255 255 255 255 255 255 255 255 255 255 255 255 255 255 255 255 255 255 255 255 255 255 255 255 255 255 255 255 255 255 255 255 255 255 255 255 255
255 255 255 255 255 255 255 255 255 255 255 255 255 255 255 255 255 255 255 255 255 255 255 255 255 255 255 255 255 255 255 255 255 255 255 255 255 255 255 255 255 255 255 255 255 255 255 255 255 255 255 255 255 255 255 255 255 255 255 253 245 221 186 156 138 131 131 131 131 132 132 132 132 133 133 133 134 134 134 135 135 135 135 135 136 136 136 136 136 137 137 137 137 137 138 138 138 138 138 139 139 139 139 139 139 139 139 140 140 140 140 140 140 140 140 140 138 137 136 135 134 133 132 131 130 130 129 128 127 126 125 125 124 123 122 121 120 120 119 118 117 116 116 115 114 114 113 113 112 111 111 110 110 109 109 108 107 107 107 106 106 105 104 104 104 103 103 103 102 101 101 101 101 101 100 99 99 99 98 98 98 97 97 97 97 97 96 96 96 95 96 105 129 165 207 239 251 254 255 255 255 255 255 255 255 255 255 255 255 255 255 255 255 255 255 255 255 255 255 255 255 255 255 255 255 255 255 255 255 255 255 255 255 255 255 255 255 255 255 255 255 255 255 255 255 255 255 255 255 255 255 255 255 255 255 255
255 255 255 255 255 255 255 255 255 255 255 255 255 255 255 255 255 255 255 255 255 255 255 255 255 255 255 255 255 255 255 255 255 255 255 255 255 255 255 255 255 255 255 255 255 255 255 255 255 255 255 255 255 255 255 255 255 255 255 255 253 245 225 191 158 138 131 131 131 131 131 132 132 132 133 133 133 134 134 134 135 135 135 135 135 135 135 136 136 136 137 137 137 137 138 138 138 138 138 138 139 139 139 139 139 139 139 139 139 140 140 140 140 140 140 140 139 138 137 136 135 134 133 132 131 130 130 129 128 127 126 125 124 123 123 122 121 121 120 118 118 117 116 115 115 115 114 113 112 111 111 111 110 110 109 108 108 108 107 107 106 106 105 104 104 103 103 103 102 102 102 101 101 101 101 100 99 99 99 98 98 98 98 98 97 97 97 96 96 97 107 135 176 216 240 251 255 255 255 255 255 255 255 255 255 255 255 255 255 255 255 255 255 255 255 255 255 255 255 255 255 255 255 255 255 255 255 255 255 255 255 255 255 255 255 255 255 255 255 255 255 255 255 255 255 255 255 255 255 255 255 255 255 255 255 255
255 255 255 255 255 255 255 255 255 255 255 255 255 255 255 255 255 255 255 255 255 255 255 255 255 255 255 255 255 255 255 255 255 255 255 255 255 255 255 255 255 255 255 255 255 255 255 255 255 255 255 255 255 255 255 255 255 255 255 255 255 254 246 226 196 163 141 131 131 131 131 132 132 132 133 133 133 133 134 134 134 135 135 135 135 135 135 136 136 136 136 137 137 137 137 138 138 138 138 138 138 139 139 139 139 139 139 139 139 140 140 140 140 140 140 140 140 139 138 137 136 135 134 133 132 131 130 130 129 128 126 125 125 124 123 122 122 121 120 119 118 117 116 116 116 115 114 114 113 112 111 111 111 110 109 109 108 108 108 107 106 106 106 105 104 104 103 103 102 102 102 101 101 101 101 100 100 99 99 99 98 98 98 98 97 97 97 96 97 115 149 186 219 243 253 255 255 255 255 255 255 255 255 255 255 255 255 255 255 255 255 255 255 255 255 255 255 255 255 255 255 255 255 255 255 255 255 255 255 255 255 255 255 255 255 255 255 255 255 255 255 255 255 255 255 255 255 255 255 255 255 255 255 255 255 255
255 255 255 255 255 255 255 255 255 255 255 255 255 255 255 255 255 255 255 255 255 255 255 255 255 255 255 255 255 255 255 255 255 255 255 255 255 255 255 255 255 255 255 255 255 255 255 255 255 255 255 255 255 255 255 255 255 255 255 255 255 255 254 249 231 199 168 144 133 131 131 132 132 132 133 133 133 133 133 134 134 134 135 135 135 135 135 136 136 136 136 137 137 137 137 137 138 138 138 138 138 139 139 139 139 139 139 139 139 140 140 140 140 140 140 140 140 140 139 138 137 135 134 134 132 132 131 130 129 128 127 126 125 124 123 123 122 121 121 120 119 118 117 117 116 116 115 114 114 112 112 111 111 111 110 109 109 108 108 107 107 106 106 106 105 104 104 104 103 102 102 102 101 101 101 101 100 99 99 99 99 98 98 98 97 97 97 103 121 155 195 229 248 254 255 255 255 255 255 255 255 255 255 255 255 255 255 255 255 255 255 255 255 255 255 255 255 255 255 255 255 255 255 255 255 255 255 255 255 255 255 255 255 255 255 255 255 255 255 255 255 255 255 255 255 255 255 255 255 255 255 255 255 255 255 255
255 255 255 255 255 255 255 255 255 255 255 255 255 255 255 255 255 255 255 255 255 255 255 255 255 255 255 255 255 255 255 255 255 255 255 255 255 255 255 255 255 255 255 255 255 255 255 255 255 255 255 255 255 255 255 255 255 255 255 255 255 255 255 254 248 234 209 177 147 133 131 131 132 132 132 133 133 133 133 133 134 134 134 135 135 135 135 135 136 136 136 137 137 137 137 137 137 138 138 138 138 138 139 139 139 139 139 139 139 139 140 140 140 140 140 140 140 140 139 139 137 136 135 134 133 132 132 131 130 129 128 127 126 125 124 124 123 122 121 121 119 119 118 117 117 116 115 114 114 113 112 112 111 111 110 110 110 109 108 108 107 107 107 106 105 105 104 104 103 103 102 102 102 102 101 101 101 100 99 99 99 99 98 98 98 99 107 130 171 208 233 248 254 255 255 255 255 255 255 255 255 255 255 255 255 255 255 255 255 255 255 255 255 255 255 255 255 255 255 255 255 255 255 255 255 255 255 255 255 255 255 255 255 255 255 255 255 255 255 255 255 255 255 255 255 255 255 255 255 255 255 255 255 255 255 255
255 255 255 255 255 255 255 255 255 255 255 255 255 255 255 255 255 255 255 255 255 255 255 255 255 255 255 255 255 255 255 255 255 255 255 255 255 255 255 255 255 255 255 255 255 255 255 255 255 255 255 255 255 255 255 255 255 255 255 255 255 255 255 255 255 251 238 214 184 155 137 132 131 132 132 132 133 133 133 133 133 134 134 134 135 135 135 135 135 136 136 136 137 137 137 137 137 137 138 138 138 138 139 139 139 139 139 139 139 139 139 140 140 140 140 140 140 140 140 139 138 137 136 135 134 133 132 131 131 130 129 128 127 126 125 125 124 123 122 121 120 119 119 118 117 116 115 115 114 113 113 112 112 111 111 111 110 109 109 108 108 107 107 106 105 105 105 104 104 103 103 102 102 102 101 101 101 101 100 99 99 99 98 97 101 118 147 183 216 240 252 255 255 255 255 255 255 255 255 255 255 255 255 255 255 255 255 255 255 255 255 255 255 255 255 255 255 255 255 255 255 255 255 255 255 255 255 255 255 255 255 255 255 255 255 255 255 255 255 255 255 255 255 255 255 255 255 255 255 255 255 255 255 255 255 255
255 255 255 255 255 255 255 255 255 255 255 255 255 255 255 255 255 255 255 255 255 255 255 255 255 255 255 255 255 255 255 255 255 255 255 255 255 255 255 255 255 255 255 255 255 255 255 255 255 255 255 255 255 255 255 255 255 255 255 255 255 255 255 255 255 255 252 243 224 193 161 142 134 131 132 132 133 133 133 133 133 133 134 134 135 135 135 135 135 136 136 136 136 136 137 137 137 137 137 138 138 138 139 139 138 139 139 139 139 139 139 139 140 140 140 140 140 140 140 140 139 138 137 136 135 134 133 132 131 131 130 129 127 127 126 125 124 123 123 122 121 120 120 118 117 117 116 115 115 114 113 113 112 112 111 111 110 109 109 109 108 108 107 107 106 105 105 105 104 104 103 103 102 102 101 101 101 101 101 100 99 98 99 107 127 158 196 230 246 252 255 255 255 255 255 255 255 255 255 255 255 255 255 255 255 255 255 255 255 255 255 255 255 255 255 255 255 255 255 255 255 255 255 255 255 255 255 255 255 255 255 255 255 255 255 255 255 255 255 255 255 255 255 255 255 255 255 255 255 255 255 255 255 255 255 255
255 255 255 255 255 255 255 255 255 255 255 255 255 255 255 255 255 255 255 255 255 255 255 255 255 255 255 255 255 255 255 255 255 255 255 255 255 255 255 255 255 255 255 255 255 255 255 255 255 255 255 255 255 255 255 255 255 255 255 255 255 255 255 255 255 255 255 253 245 230 206 174 149 135 132 132 132 133 133 133 133 133 133 134 134 135 135 135 135 136 136 136 136 136 136 137 137 137 137 138 138 138 138 138 138 138 139 139 139 139 139 139 139 140 140 140 140 140 140 140 140 139 138 137 136 135 134 133 132 131 130 129 128 128 127 126 125 124 123 123 122 121 120 119 118 118 117 116 115 115 114 113 113 112 111 111 110 110 109 109 108 108 108 107 107 106 105 105 104 104 104 103 103 102 102 101 101 101 101 101 101 102 112 143 180 211 235 249 255 255 255 255 255 255 255 255 255 255 255 255 255 255 255 255 255 255 255 255 255 255 255 255 255 255 255 255 255 255 255 255 255 255 255 255 255 255 255 255 255 255 255 255 255 255 255 255 255 255 255 255 255 255 255 255 255 255 255 255 255 255 255 255 255 255 255 255
255 255 255 255 255 255 255 255 255 255 255 255 255 255 255 255 255 255 255 255 255 255 255 255 255 255 255 255 255 255 255 255 255 255 255 255 255 255 255 255 255 255 255 255 255 255 255 255 255 255 255 255 255 255 255 255 255 255 255 255 255 255 255 255 255 255 255 255 254 251 238 213 186 161 142 133 132 132 133 133 133 133 133 133 134 135 135 135 135 135 136 136 136 136 136 136 137 137 137 138 138 138 138 138 138 138 139 139 139 139 139 139 139 139 140 140 140 140 140 140 140 140 139 137 137 136 135 134 133 132 131 130 129 128 127 126 125 125 124 123 122 121 121 120 119 118 118 117 116 115 115 114 114 113 111 111 111 110 110 109 109 108 108 108 107 106 105 105 105 104 104 104 103 103 102 102 101 101 100 101 111 132 161 193 223 243 253 255 255 255 255 255 255 255 255 255 255 255 255 255 255 255 255 255 255 255 255 255 255 255 255 255 255 255 255 255 255 255 255 255 255 255 255 255 255 255 255 255 255 255 255 255 255 255 255 255 255 255 255 255 255 255 255 255 255 255 255 255 255 255 255 255 255 255 255 255
255 255 255 255 255 255 255 255 255 255 255 255 255 255 255 255 255 255 255 255 255 255 255 255 255 255 255 255 255 255 255 255 255 255 255 255 255 255 255 255 255 255 255 255 255 255 255 255 255 255 255 255 255 255 255 255 255 255 255 255 255 255 255 255 255 255 255 255 255 255 252 244 226 201 170 147 138 133 131 133 133 133 133 133 134 134 134 135 135 135 135 136 136 136 136 136 137 137 137 137 138 138 138 138 138 138 139 139 139 139 139 139 139 139 140 140 140 140 140 140 140 140 139 139 137 136 135 134 133 133 132 131 130 129 128 127 126 125 124 123 123 122 121 121 120 119 118 117 117 116 115 115 114 113 112 111 111 111 110 110 109 109 109 108 107 107 106 105 105 105 104 104 103 103 103 102 101 102 108 121 146 180 215 236 248 253 255 255 255 255 255 255 255 255 255 255 255 255 255 255 255 255 255 255 255 255 255 255 255 255 255 255 255 255 255 255 255 255 255 255 255 255 255 255 255 255 255 255 255 255 255 255 255 255 255 255 255 255 255 255 255 255 255 255 255 255 255 255 255 255 255 255 255 255 255 255
255 255 255 255 255 255 255 255 255 255 255 255 255 255 255 255 255 255 255 255 255 255 255 255 255 255 255 255 255 255 255 255 255 255 255 255 255 255 255 255 255 255 255 255 255 255 255 255 255 255 255 255 255 255 255 255 255 255 255 255 255 255 255 255 255 255 255 255 255 255 255 255 247 234 214 189 161 142 133 133 133 133 133 133 134 134 134 135 135 135 135 135 136 136 136 136 136 137 137 137 137 138 138 138 138 138 139 139 139 139 139 139 139 139 140 140 140 140 140 140 140 140 140 140 139 137 136 135 134 133 132 131 130 129 128 128 127 126 125 124 123 122 122 121 120 119 118 118 117 116 116 115 115 114 113 112 111 111 111 110 110 109 109 108 107 107 107 106 106 105 105 104 103 103 103 103 105 114 139 172 202 225 243 252 255 255 255 255 255 255 255 255 255 255 255 255 255 255 255 255 255 255 255 255 255 255 255 255 255 255 255 255 255 255 255 255 255 255 255 255 255 255 255 255 255 255 255 255 255 255 255 255 255 255 255 255 255 255 255 255 255 255 255 255 255 255 255 255 255 255 255 255 255 255 255 255
255 255 255 255 255 255 255 255 255 255 255 255 255 255 255 255 255 255 255 255 255 255 255 255 255 255 255 255 255 255 255 255 255 255 255 255 255 255 255 255 255 255 255 255 255 255 255 255 255 255 255 255 255 255 255 255 255 255 255 255 255 255 255 255 255 255 255 255 255 255 255 255 254 252 245 227 200 177 157 142 134 132 133 133 133 134 134 134 134 135 135 135 135 136 136 136 136 136 137 137 137 137 138 138 138 138 138 139 139 139 139 139 139 139 139 140 140 140 140 140 140 140 140 140 140 139 137 136 135 133 133 132 131 130 129 128 127 126 126 125 124 123 122 121 121 120 119 118 118 117 116 115 115 114 113 113 112 111 111 111 110 109 109 109 108 107 107 107 106 105 105 104 103 102 104 115 136 160 189 219 239 251 254 255 255 255 255 255 255 255 255 255 255 255 255 255 255 255 255 255 255 255 255 255 255 255 255 255 255 255 255 255 255 255 255 255 255 255 255 255 255 255 255 255 255 255 255 255 255 255 255 255 255 255 255 255 255 255 255 255 255 255 255 255 255 255 255 255 255 255 255 255 255 255 255 255
255 255 255 255 255 255 255 255 255 255 255 255 255 255 255 255 255 255 255 255 255 255 255 255 255 255 255 255 255 255 255 255 255 255 255 255 255 255 255 255 255 255 255 255 255 255 255 255 255 255 255 255 255 255 255 255 255 255 255 255 255 255 255 255 255 255 255 255 255 255 255 255 255 255 254 248 238 222 199 170 151 140 135 133 133 133 134 134 134 135 135 135 135 135 136 136 136 136 136 137 137 137 138 138 138 138 138 138 139 139 139 139 139 139 139 140 140 140 140 140 140 140 140 140 140 139 138 137 135 134 133 132 132 131 130 129 128 127 126 126 125 124 123 122 121 121 120 119 119 118 117 116 115 115 114 113 113 112 111 111 110 109 109 109 108 108 107 107 106 105 105 105 107 114 125 151 185 215 235 245 252 255 255 255 255 255 255 255 255 255 255 255 255 255 255 255 255 255 255 255 255 255 255 255 255 255 255 255 255 255 255 255 255 255 255 255 255 255 255 255 255 255 255 255 255 255 255 255 255 255 255 255 255 255 255 255 255 255 255 255 255 255 255 255 255 255 255 255 255 255 255 255 255 255 255 255
255 255 255 255 255 255 255 255 255 255 255 255 255 255 255 255 255 255 255 255 255 255 255 255 255 255 255 255 255 255 255 255 255 255 255 255 255 255 255 255 255 255 255 255 255 255 255 255 255 255 255 255 255 255 255 255 255 255 255 255 255 255 255 255 255 255 255 255 255 255 255 255 255 255 255 255 254 246 233 215 197 175 151 137 133 133 133 134 134 135 134 135 135 135 135 136 136 136 136 136 137 137 137 138 138 138 138 138 138 139 139 139 139 139 139 139 140 140 140 140 140 140 140 140 140 140 139 138 136 135 134 133 132 132 131 130 129 128 127 126 125 125 124 123 122 121 120 120 119 118 117 117 116 116 115 114 113 112 112 111 111 110 109 109 109 108 108 107 107 106 105 108 126 154 182 206 227 244 253 255 255 255 255 255 255 255 255 255 255 255 255 255 255 255 255 255 255 255 255 255 255 255 255 255 255 255 255 255 255 255 255 255 255 255 255 255 255 255 255 255 255 255 255 255 255 255 255 255 255 255 255 255 255 255 255 255 255 255 255 255 255 255 255 255 255 255 255 255 255 255 255 255 255 255 255 255
255 255 255 255 255 255 255 255 255 255 255 255 255 255 255 255 255 255 255 255 255 255 255 255 255 255 255 255 255 255 255 255 255 255 255 255 255 255 255 255 255 255 255 255 255 255 255 255 255 255 255 255 255 255 255 255 255 255 255 255 255 255 255 255 255 255 255 255 255 255 255 255 255 255 255 255 255 254 252 247 235 214 188 166 150 139 133 133 133 134 134 135 135 135 135 135 136 136 136 136 136 137 137 137 137 138 138 138 138 138 139 139 139 139 139 139 139 139 140 140 140 140 140 140 140 140 140 139 138 136 135 134 133 132 131 130 130 129 128 127 126 125 124 123 123 122 121 120 120 119 118 117 117 116 115 115 114 113 112 112 111 111 110 109 109 108 107 106 109 119 133 150 174 201 228 244 250 253 255 255 255 255 255 255 255 255 255 255 255 255 255 255 255 255 255 255 255 255 255 255 255 255 255 255 255 255 255 255 255 255 255 255 255 255 255 255 255 255 255 255 255 255 255 255 255 255 255 255 255 255 255 255 255 255 255 255 255 255 255 255 255 255 255 255 255 255 255 255 255 255 255 255 255 255 255 255
255 255 255 255 255 255 255 255 255 255 255 255 255 255 255 255 255 255 255 255 255 255 255 255 255 255 255 255 255 255 255 255 255 255 255 255 255 255 255 255 255 255 255 255 255 255 255 255 255 255 255 255 255 255 255 255 255 255 255 255 255 255 255 255 255 255 255 255 255 255 255 255 255 255 255 255 255 255 255 255 250 243 231 212 187 162 145 139 136 135 134 135 135 135 135 135 136 136 136 136 136 136 137 137 137 137 138 138 138 138 138 139 139 139 139 139 139 139 139 140 140 140 140 140 140 140 140 139 138 137 136 135 134 133 132 131 130 130 129 128 127 126 125 124 123 122 121 121 120 119 119 118 117 117 116 115 115 114 113 112 112 111 111 110 110 111 113 117 129 154 184 209 227 239 249 254 255 255 255 255 255 255 255 255 255 255 255 255 255 255 255 255 255 255 255 255 255 255 255 255 255 255 255 255 255 255 255 255 255 255 255 255 255 255 255 255 255 255 255 255 255 255 255 255 255 255 255 255 255 255 255 255 255 255 255 255 255 255 255 255 255 255 255 255 255 255 255 255 255 255 255 255 255 255 255 255
255 255 255 255 255 255 255 255 255 255 255 255 255 255 255 255 255 255 255 255 255 255 255 255 255 255 255 255 255 255 255 255 255 255 255 255 255 255 255 255 255 255 255 255 255 255 255 255 255 255 255 255 255 255 255 255 255 255 255 255 255 255 255 255 255 255 255 255 255 255 255 255 255 255 255 255 255 255 255 255 255 254 251 241 225 208 191 175 157 142 134 133 134 135 135 135 135 136 136 136 136 136 136 137 137 137 137 138 138 138 138 138 139 139 139 139 139 139 139 140 140 140 140 140 140 140 140 140 139 138 136 135 135 134 133 132 131 130 130 129 128 127 126 125 124 123 122 121 120 120 119 119 118 117 117 116 115 114 113 113 112 111 109 108 112 124 144 166 187 207 226 242 251 254 255 255 255 255 255 255 255 255 255 255 255 255 255 255 255 255 255 255 255 255 255 255 255 255 255 255 255 255 255 255 255 255 255 255 255 255 255 255 255 255 255 255 255 255 255 255 255 255 255 255 255 255 255 255 255 255 255 255 255 255 255 255 255 255 255 255 255 255 255 255 255 255 255 255 255 255 255 255 255 255 255 255
255 255 255 255 255 255 255 255 255 255 255 255 255 255 255 255 255 255 255 255 255 255 255 255 255 255 255 255 255 255 255 255 255 255 255 255 255 255 255 255 255 255 255 255 255 255 255 255 255 255 255 255 255 255 255 255 255 255 255 255 255 255 255 255 255 255 255 255 255 255 255 255 255 255 255 255 255 255 255 255 255 255 255 253 250 244 234 216 195 174 159 149 141 136 134 134 134 135 136 136 136 136 136 136 137 137 137 137 138 138 138 138 139 139 139 139 139 139 139 140 140 140 140 140 140 140 140 140 140 139 138 137 135 135 134 133 132 131 130 129 128 127 126 125 125 124 123 122 121 120 120 119 118 117 117 117 116 115 113 112 113 117 125 135 148 166 190 215 234 245 250 253 255 255 255 255 255 255 255 255 255 255 255 255 255 255 255 255 255 255 255 255 255 255 255 255 255 255 255 255 255 255 255 255 255 255 255 255 255 255 255 255 255 255 255 255 255 255 255 255 255 255 255 255 255 255 255 255 255 255 255 255 255 255 255 255 255 255 255 255 255 255 255 255 255 255 255 255 255 255 255 255 255 255 255 255
255 255 255 255 255 255 255 255 255 255 255 255 255 255 255 255 255 255 255 255 255 255 255 255 255 255 255 255 255 255 255 255 255 255 255 255 255 255 255 255 255 255 255 255 255 255 255 255 255 255 255 255 255 255 255 255 255 255 255 255 255 255 255 255 255 255 255 255 255 255 255 255 255 255 255 255 255 255 255 255 255 255 255 255 255 254 250 243 235 224 208 188 166 147 138 137 136 136 136 136 136 136 137 137 137 137 137 137 137 138 138 138 138 139 139 139 139 139 139 139 139 140 140 140 140 140 140 140 140 140 139 138 137 135 134 133 132 131 131 130 129 127 126 126 125 124 123 122 122 121 120 120 119 118 117 117 117 117 117 118 123 139 164 188 208 224 235 243 251 255 255 255 255 255 255 255 255 255 255 255 255 255 255 255 255 255 255 255 255 255 255 255 255 255 255 255 255 255 255 255 255 255 255 255 255 255 255 255 255 255 255 255 255 255 255 255 255 255 255 255 255 255 255 255 255 255 255 255 255 255 255 255 255 255 255 255 255 255 255 255 255 255 255 255 255 255 255 255 255 255 255 255 255 255 255 255
255 255 255 255 255 255 255 255 255 255 255 255 255 255 255 255 255 255 255 255 255 255 255 255 255 255 255 255 255 255 255 255 255 255 255 255 255 255 255 255 255 255 255 255 255 255 255 255 255 255 255 255 255 255 255 255 255 255 255 255 255 255 255 255 255 255 255 255 255 255 255 255 255 255 255 255 255 255 255 255 255 255 255 255 255 255 255 254 253 249 240 225 209 193 181 170 158 146 137 134 134 135 136 136 137 137 137 137 137 138 138 138 138 138 139 139 139 139 139 139 139 139 140 140 140 140 140 140 140 140 140 139 138 137 135 134 133 132 131 131 129 128 127 126 126 125 124 123 122 122 121 119 118 117 115 115 122 135 150 164 179 194 211 228 242 250 253 254 254 255 255 255 255 255 255 255 255 255 255 255 255 255 255 255 255 255 255 255 255 255 255 255 255 255 255 255 255 255 255 255 255 255 255 255 255 255 255 255 255 255 255 255 255 255 255 255 255 255 255 255 255 255 255 255 255 255 255 255 255 255 255 255 255 255 255 255 255 255 255 255 255 255 255 255 255 255 255 255 255 255 255 255 255 255 255 255
255 255 255 255 255 255 255 255 255 255 255 255 255 255 255 255 255 255 255 255 255 255 255 255 255 255 255 255 255 255 255 255 255 255 255 255 255 255 255 255 255 255 255 255 255 255 255 255 255 255 255 255 255 255 255 255 255 255 255 255 255 255 255 255 255 255 255 255 255 255 255 255 255 255 255 255 255 255 255 255 255 255 255 255 255 255 255 255 255 255 252 249 245 238 226 212 194 176 160 153 148 144 140 138 137 136 137 137 137 138 138 138 138 138 139 139 139 139 139 139 139 139 139 140 140 140 140 140 140 140 140 140 139 138 137 135 134 133 132 131 130 129 128 127 126 126 125 124 123 122 123 125 128 132 136 141 154 174 195 215 231 241 246 250 253 255 255 255 255 255 255 255 255 255 255 255 255 255 255 255 255 255 255 255 255 255 255 255 255 255 255 255 255 255 255 255 255 255 255 255 255 255 255 255 255 255 255 255 255 255 255 255 255 255 255 255 255 255 255 255 255 255 255 255 255 255 255 255 255 255 255 255 255 255 255 255 255 255 255 255 255 255 255 255 255 255 255 255 255 255 255 255 255 255 255 255
255 255 255 255 255 255 255 255 255 255 255 255 255 255 255 255 255 255 255 255 255 255 255 255 255 255 255 255 255 255 255 255 255 255 255 255 255 255 255 255 255 255 255 255 255 255 255 255 255 255 255 255 255 255 255 255 255 255 255 255 255 255 255 255 255 255 255 255 255 255 255 255 255 255 255 255 255 255 255 255 255 255 255 255 255 255 255 255 255 255 255 255 255 253 247 241 233 225 216 204 189 174 159 147 139 137 138 137 137 138 138 138 138 138 138 139 139 139 139 139 139 139 139 139 140 140 140 140 140 140 140 140 139 139 137 136 135 134 133 132 130 130 129 128 127 127 126 125 124 125 131 145 160 176 191 205 216 226 234 243 250 254 255 255 255 255 255 255 255 255 255 255 255 255 255 255 255 255 255 255 255 255 255 255 255 255 255 255 255 255 255 255 255 255 255 255 255 255 255 255 255 255 255 255 255 255 255 255 255 255 255 255 255 255 255 255 255 255 255 255 255 255 255 255 255 255 255 255 255 255 255 255 255 255 255 255 255 255 255 255 255 255 255 255 255 255 255 255 255 255 255 255 255 255 255 255
255 255 255 255 255 255 255 255 255 255 255 255 255 255 255 255 255 255 255 255 255 255 255 255 255 255 255 255 255 255 255 255 255 255 255 255 255 255 255 255 255 255 255 255 255 255 255 255 255 255 255 255 255 255 255 255 255 255 255 255 255 255 255 255 255 255 255 255 255 255 255 255 255 255 255 255 255 255 255 255 255 255 255 255 255 255 255 255 255 255 255 255 255 255 254 253 253 252 247 238 226 213 200 190 181 174 168 162 156 149 143 138 136 136 137 137 138 138 138 138 138 138 138 138 139 139 139 139 139 139 139 139 138 138 137 136 135 133 132 130 130 130 132 137 143 148 153 159 164 171 180 192 205 218 231 242 250 252 253 254 255 255 255 255 255 255 255 255 255 255 255 255 255 255 255 255 255 255 255 255 255 255 255 255 255 255 255 255 255 255 255 255 255 255 255 255 255 255 255 255 255 255 255 255 255 255 255 255 255 255 255 255 255 255 255 255 255 255 255 255 255 255 255 255 255 255 255 255 255 255 255 255 255 255 255 255 255 255 255 255 255 255 255 255 255 255 255 255 255 255 255 255 255 255 255 255
255 255 255 255 255 255 255 255 255 255 255 255 255 255 255 255 255 255 255 255 255 255 255 255 255 255 255 255 255 255 255 255 255 255 255 255 255 255 255 255 255 255 255 255 255 255 255 255 255 255 255 255 255 255 255 255 255 255 255 255 255 255 255 255 255 255 255 255 255 255 255 255 255 255 255 255 255 255 255 255 255 255 255 255 255 255 255 255 255 255 255 255 255 255 255 255 255 255 254 252 248 245 242 239 234 225 214 203 192 179 165 155 150 149 148 147 147 146 146 145 144 143 143 143 144 144 143 143 143 143 143 144 144 145 145 145 144 144 144 144 144 147 153 165 176 186 197 207 217 228 235 241 244 247 250 253 255 255 255 255 255 255 255 255 255 255 255 255 255 255 255 255 255 255 255 255 255 255 255 255 255 255 255 255 255 255 255 255 255 255 255 255 255 255 255 255 255 255 255 255 255 255 255 255 255 255 255 255 255 255 255 255 255 255 255 255 255 255 255 255 255 255 255 255 255 255 255 255 255 255 255 255 255 255 255 255 255 255 255 255 255 255 255 255 255 255 255 255 255 255 255 255 255 255 255 255
255 255 255 255 255 255 255 255 255 255 255 255 255 255 255 255 255 255 255 255 255 255 255 255 255 255 255 255 255 255 255 255 255 255 255 255 255 255 255 255 255 255 255 255 255 255 255 255 255 255 255 255 255 255 255 255 255 255 255 255 255 255 255 255 255 255 255 255 255 255 255 255 255 255 255 255 255 255 255 255 255 255 255 255 255 255 255 255 255 255 255 255 255 255 255 255 255 255 255 255 255 254 254 254 252 247 242 236 230 224 218 212 208 204 199 195 190 186 182 176 172 170 169 169 169 167 165 164 164 165 166 169 172 176 180 182 185 188 191 195 201 207 212 218 223 228 233 238 244 249 253 254 254 254 255 255 255 255 255 255 255 255 255 255 255 255 255 255 255 255 255 255 255 255 255 255 255 255 255 255 255 255 255 255 255 255 255 255 255 255 255 255 255 255 255 255 255 255 255 255 255 255 255 255 255 255 255 255 255 255 255 255 255 255 255 255 255 255 255 255 255 255 255 255 255 255 255 255 255 255 255 255 255 255 255 255 255 255 255 255 255 255 255 255 255 255 255 255 255 255 255 255 255 255 255 255
255 255 255 255 255 255 255 255 255 255 255 255 255 255 255 255 255 255 255 255 255 255 255 255 255 255 255 255 255 255 255 255 255 255 255 255 255 255 255 255 255 255 255 255 255 255 255 255 255 255 255 255 255 255 255 255 255 255 255 255 255 255 255 255 255 255 255 255 255 255 255 255 255 255 255 255 255 255 255 255 255 255 255 255 255 255 255 255 255 255 255 255 255 255 255 255 255 255 255 255 255 255 255 255 255 254 254 253 252 252 251 249 246 243 238 233 228 223 218 212 208 206 206 205 205 203 201 200 200 200 202 205 208 212 216 219 222 226 229 234 240 246 249 251 252 252 252 253 254 255 255 255 255 255 255 255 255 255 255 255 255 255 255 255 255 255 255 255 255 255 255 255 255 255 255 255 255 255 255 255 255 255 255 255 255 255 255 255 255 255 255 255 255 255 255 255 255 255 255 255 255 255 255 255 255 255 255 255 255 255 255 255 255 255 255 255 255 255 255 255 255 255 255 255 255 255 255 255 255 255 255 255 255 255 255 255 255 255 255 255 255 255 255 255 255 255 255 255 255 255 255 255 255 255 255 255
255 255 255 255 255 255 255 255 255 255 255 255 255 255 255 255 255 255 255 255 255 255 255 255 255 255 255 255 255 255 255 255 255 255 255 255 255 255 255 255 255 255 255 255 255 255 255 255 255 255 255 255 255 255 255 255 255 255 255 255 255 255 255 255 255 255 255 255 255 255 255 255 255 255 255 255 255 255 255 255 255 255 255 255 255 255 255 255 255 255 255 255 255 255 255 255 255 255 255 255 255 255 255 255 255 255 255 255 255 255 255 255 255 254 254 253 253 253 252 252 252 251 251 251 251 251 251 251 251 251 251 251 252 252 252 252 253 253 253 253 254 255 255 255 255 255 255 255 255 255 255 255 255 255 255 255 255 255 255 255 255 255 255 255 255 255 255 255 255 255 255 255 255 255 255 255 255 255 255 255 255 255 255 255 255 255 255 255 255 255 255 255 255 255 255 255 255 255 255 255 255 255 255 255 255 255 255 255 255 255 255 255 255 255 255 255 255 255 255 255 255 255 255 255 255 255 255 255 255 255 255 255 255 255 255 255 255 255 255 255 255 255 255 255 255 255 255 255 255 255 255 255 255 255 255 255
255 255 255 255 255 255 255 255 255 255 255 255 255 255 255 255 255 255 255 255 255 255 255 255 255 255 255 255 255 255 255 255 255 255 255 255 255 255 255 255 255 255 255 255 255 255 255 255 255 255 255 255 255 255 255 255 255 255 255 255 255 255 255 255 255 255 255 255 255 255 255 255 255 255 255 255 255 255 255 255 255 255 255 255 255 255 255 255 255 255 255 255 255 255 255 255 255 255 255 255 255 255 255 255 255 255 255 255 255 255 255 255 255 255 255 255 255 255 255 255 255 255 255 255 255 255 255 255 255 255 255 255 255 255 255 255 255 255 255 255 255 255 255 255 255 255 255 255 255 255 255 255 255 255 255 255 255 255 255 255 255 255 255 255 255 255 255 255 255 255 255 255 255 255 255 255 255 255 255 255 255 255 255 255 255 255 255 255 255 255 255 255 255 255 255 255 255 255 255 255 255 255 255 255 255 255 255 255 255 255 255 255 255 255 255 255 255 255 255 255 255 255 255 255 255 255 255 255 255 255 255 255 255 255 255 255 255 255 255 255 255 255 255 255 255 255 255 255 255 255 255 255 255 255 255 255
255 255 255 255 255 255 255 255 255 255 255 255 255 255 255 255 255 255 255 255 255 255 255 255 255 255 255 255 255 255 255 255 255 255 255 255 255 255 255 255 255 255 255 255 255 255 255 255 255 255 255 255 255 255 255 255 255 255 255 255 255 255 255 255 255 255 255 255 255 255 255 255 255 255 255 255 255 255 255 255 255 255 255 255 255 255 255 255 255 255 255 255 255 255 255 255 255 255 255 255 255 255 255 255 255 255 255 255 255 255 255 255 255 255 255 255 255 255 255 255 255 255 255 255 255 255 255 255 255 255 255 255 255 255 255 255 255 255 255 255 255 255 255 255 255 255 255 255 255 255 255 255 255 255 255 255 255 255 255 255 255 255 255 255 255 255 255 255 255 255 255 255 255 255 255 255 255 255 255 255 255 255 255 255 255 255 255 255 255 255 255 255 255 255 255 255 255 255 255 255 255 255 255 255 255 255 255 255 255 255 255 255 255 255 255 255 255 255 255 255 255 255 255 255 255 255 255 255 255 255 255 255 255 255 255 255 255 255 255 255 255 255 255 255 255 255 255 255 255 255 255 255 255 255 255 255
255 255 255 255 255 255 255 255 255 255 255 255 255 255 255 255 255 255 255 255 255 255 255 255 255 255 255 255 255 255 255 255 255 255 255 255 255 255 255 255 255 255 255 255 255 255 255 255 255 255 255 255 255 255 255 255 255 255 255 255 255 255 255 255 255 255 255 255 255 255 255 255 255 255 255 255 255 255 255 255 255 255 255 255 255 255 255 255 255 255 255 255 255 255 255 255 255 255 255 255 255 255 255 255 255 255 255 255 255 255 255 255 255 255 255 255 255 255 255 255 255 255 255 255 255 255 255 255 255 255 255 255 255 255 255 255 255 255 255 255 255 255 255 255 255 255 255 255 255 255 255 255 255 255 255 255 255 255 255 255 255 255 255 255 255 255 255 255 255 255 255 255 255 255 255 255 255 255 255 255 255 255 255 255 255 255 255 255 255 255 255 255 255 255 255 255 255 255 255 255 255 255 255 255 255 255 255 255 255 255 255 255 255 255 255 255 255 255 255 255 255 255 255 255 255 255 255 255 255 255 255 255 255 255 255 255 255 255 255 255 255 255 255 255 255 255 255 255 255 255 255 255 255 255 255 255
255 255 255 255 255 255 255 255 255 255 255 255 255 255 255 255 255 255 255 255 255 255 255 255 255 255 255 255 255 255 255 255 255 255 255 255 255 255 255 255 255 255 255 255 255 255 255 255 255 255 255 255 255 255 255 255 255 255 255 255 255 255 255 255 255 255 255 255 255 255 255 255 255 255 255 255 255 255 255 255 255 255 255 255 255 255 255 255 255 255 255 255 255 255 255 255 255 255 255 255 255 255 255 255 255 255 255 255 255 255 255 255 255 255 255 255 255 255 255 255 255 255 255 255 255 255 255 255 255 255 255 255 255 255 255 255 255 255 255 255 255 255 255 255 255 255 255 255 255 255 255 255 255 255 255 255 255 255 255 255 255 255 255 255 255 255 255 255 255 255 255 255 255 255 255 255 255 255 255 255 255 255 255 255 255 255 255 255 255 255 255 255 255 255 255 255 255 255 255 255 255 255 255 255 255 255 255 255 255 255 255 255 255 255 255 255 255 255 255 255 255 255 255 255 255 255 255 255 255 255 255 255 255 255 255 255 255 255 255 255 255 255 255 255 255 255 255 255 255 255 255 255 255 255 255 255
255 255 255 255 255 255 255 255 255 255 255 255 255 255 255 255 255 255 255 255 255 255 255 255 255 255 255 255 255 255 255 255 255 255 255 255 255 255 255 255 255 255 255 255 255 255 255 255 255 255 255 255 255 255 255 255 255 255 255 255 255 255 255 255 255 255 255 255 255 255 255 255 255 255 255 255 255 255 255 255 255 255 255 255 255 255 255 255 255 255 255 255 255 255 255 255 255 255 255 255 255 255 255 255 255 255 255 255 255 255 255 255 255 255 255 255 255 255 255 255 255 255 255 255 255 255 255 255 255 255 255 255 255 255 255 255 255 255 255 255 255 255 255 255 255 255 255 255 255 255 255 255 255 255 255 255 255 255 255 255 255 255 255 255 255 255 255 255 255 255 255 255 255 255 255 255 255 255 255 255 255 255 255 255 255 255 255 255 255 255 255 255 255 255 255 255 255 255 255 255 255 255 255 255 255 255 255 255 255 255 255 255 255 255 255 255 255 255 255 255 255 255 255 255 255 255 255 255 255 255 255 255 255 255 255 255 255 255 255 255 255 255 255 255 255 255 255 255 255 255 255 255 255 255 255 255
255 255 255 255 255 255 255 255 255 255 255 255 255 255 255 255 255 255 255 255 255 255 255 255 255 255 255 255 255 255 255 255 255 255 255 255 255 255 255 255 255 255 255 255 255 255 255 255 255 255 255 255 255 255 255 255 255 255 255 255 255 255 255 255 255 255 255 255 255 255 255 255 255 255 255 255 255 255 255 255 255 255 255 255 255 255 255 255 255 255 255 255 255 255 255 255 255 255 255 255 255 255 255 255 255 255 255 255 255 255 255 255 255 255 255 255 255 255 255 255 255 255 255 255 255 255 255 255 255 255 255 255 255 255 255 255 255 255 255 255 255 255 255 255 255 255 255 255 255 255 255 255 255 255 255 255 255 255 255 255 255 255 255 255 255 255 255 255 255 255 255 255 255 255 255 255 255 255 255 255 255 255 255 255 255 255 255 255 255 255 255 255 255 255 255 255 255 255 255 255 255 255 255 255 255 255 255 255 255 255 255 255 255 255 255 255 255 255 255 255 255 255 255 255 255 255 255 255 255 255 255 255 255 255 255 255 255 255 255 255 255 255 255 255 255 255 255 255 255 255 255 255 255 255 255 255
255 255 255 255 255 255 255 255 255 255 255 255 255 255 255 255 255 255 255 255 255 255 255 255 255 255 255 255 255 255 255 255 255 255 255 255 255 255 255 255 255 255 255 255 255 255 255 255 255 255 255 255 255 255 255 255 255 255 255 255 255 255 255 255 255 255 255 255 255 255 255 255 255 255 255 255 255 255 255 255 255 255 255 255 255 255 255 255 255 255 255 255 255 255 255 255 255 255 255 255 255 255 255 255 255 255 255 255 255 255 255 255 255 255 255 255 255 255 255 255 255 255 255 255 255 255 255 255 255 255 255 255 255 255 255 255 255 255 255 255 255 255 255 255 255 255 255 255 255 255 255 255 255 255 255 255 255 255 255 255 255 255 255 255 255 255 255 255 255 255 255 255 255 255 255 255 255 255 255 255 255 255 255 255 255 255 255 255 255 255 255 255 255 255 255 255 255 255 255 255 255 255 255 255 255 255 255 255 255 255 255 255 255 255 255 255 255 255 255 255 255 255 255 255 255 255 255 255 255 255 255 255 255 255 255 255 255 255 255 255 255 255 255 255 255 255 255 255 255 255 255 255 255 255 255 255
255 255 255 255 255 255 255 255 255 255 255 255 255 255 255 255 255 255 255 255 255 255 255 255 255 255 255 255 255 255 255 255 255 255 255 255 255 255 255 255 255 255 255 255 255 255 255 255 255 255 255 255 255 255 255 255 255 255 255 255 255 255 255 255 255 255 255 255 255 255 255 255 255 255 255 255 255 255 255 255 255 255 255 255 255 255 255 255 255 255 255 255 255 255 255 255 255 255 255 255 255 255 255 255 255 255 255 255 255 255 255 255 255 255 255 255 255 255 255 255 255 255 255 255 255 255 255 255 255 255 255 255 255 255 255 255 255 255 255 255 255 255 255 255 255 255 255 255 255 255 255 255 255 255 255 255 255 255 255 255 255 255 255 255 255 255 255 255 255 255 255 255 255 255 255 255 255 255 255 255 255 255 255 255 255 255 255 255 255 255 255 255 255 255 255 255 255 255 255 255 255 255 255 255 255 255 255 255 255 255 255 255 255 255 255 255 255 255 255 255 255 255 255 255 255 255 255 255 255 255 255 255 255 255 255 255 255 255 255 255 255 255 255 255 255 255 255 255 255 255 255 255 255 255 255 255
255 255 255 255 255 255 255 255 255 255 255 255 255 255 255 255 255 255 255 255 255 255 255 255 255 255 255 255 255 255 255 255 255 255 255 255 255 255 255 255 255 255 255 255 255 255 255 255 255 255 255 255 255 255 255 255 255 255 255 255 255 255 255 255 255 255 255 255 255 255 255 255 255 255 255 255 255 255 255 255 255 255 255 255 255 255 255 255 255 255 255 255 255 255 255 255 255 255 255 255 255 255 255 255 255 255 255 255 255 255 255 255 255 255 255 255 255 255 255 255 255 255 255 255 255 255 255 255 255 255 255 255 255 255 255 255 255 255 255 255 255 255 255 255 255 255 255 255 255 255 255 255 255 255 255 255 255 255 255 255 255 255 255 255 255 255 255 255 255 255 255 255 255 255 255 255 255 255 255 255 255 255 255 255 255 255 255 255 255 255 255 255 255 255 255 255 255 255 255 255 255 255 255 255 255 255 255 255 255 255 255 255 255 255 255 255 255 255 255 255 255 255 255 255 255 255 255 255 255 255 255 255 255 255 255 255 255 255 255 255 255 255 255 255 255 255 255 255 255 255 255 255 255 255 255 255
255 255 255 255 255 255 255 255 255 255 255 255 255 255 255 255 255 255 255 255 255 255 255 255 255 255 255 255 255 255 255 255 255 255 255 255 255 255 255 255 255 255 255 255 255 255 255 255 255 255 255 255 255 255 255 255 255 255 255 255 255 255 255 255 255 255 255 255 255 255 255 255 255 255 255 255 255 255 255 255 255 255 255 255 255 255 255 255 255 255 255 255 255 255 255 255 255 255 255 255 255 255 255 255 255 255 255 255 255 255 255 255 255 255 255 255 255 255 255 255 255 255 255 255 255 255 255 255 255 255 255 255 255 255 255 255 255 255 255 255 255 255 255 255 255 255 255 255 255 255 255 255 255 255 255 255 255 255 255 255 255 255 255 255 255 255 255 255 255 255 255 255 255 255 255 255 255 255 255 255 255 255 255 255 255 255 255 255 255 255 255 255 255 255 255 255 255 255 255 255 255 255 255 255 255 255 255 255 255 255 255 255 255 255 255 255 255 255 255 255 255 255 255 255 255 255 255 255 255 255 255 255 255 255 255 255 255 255 255 255 255 255 255 255 255 255 255 255 255 255 255 255 255 255 255 255
255 255 255 255 255 255 255 255 255 255 255 255 255 255 255 255 255 255 255 255 255 255 255 255 255 255 255 255 255 255 255 255 255 255 255 255 255 255 255 255 255 255 255 255 255 255 255 255 255 255 255 255 255 255 255 255 255 255 255 255 255 255 255 255 255 255 255 255 255 255 255 255 255 255 255 255 255 255 255 255 255 255 255 255 255 255 255 255 255 255 255 255 255 255 255 255 255 255 255 255 255 255 255 255 255 255 255 255 255 255 255 255 255 255 255 255 255 255 255 255 255 255 255 255 255 255 255 255 255 255 255 255 255 255 255 255 255 255 255 255 255 255 255 255 255 255 255 255 255 255 255 255 255 255 255 255 255 255 255 255 255 255 255 255 255 255 255 255 255 255 255 255 255 255 255 255 255 255 255 255 255 255 255 255 255 255 255 255 255 255 255 255 255 255 255 255 255 255 255 255 255 255 255 255 255 255 255 255 255 255 255 255 255 255 255 255 255 255 255 255 255 255 255 255 255 255 255 255 255 255 255 255 255 255 255 255 255 255 255 255 255 255 255 255 255 255 255 255 255 255 255 255 255 255 255 255
255 255 255 255 255 255 255 255 255 255 255 255 255 255 255 255 255 255 255 255 255 255 255 255 255 255 255 255 255 255 255 255 255 255 255 255 255 255 255 255 255 255 255 255 255 255 255 255 255 255 255 255 255 255 255 255 255 255 255 255 255 255 255 255 255 255 255 255 255 255 255 255 255 255 255 255 255 255 255 255 255 255 255 255 255 255 255 255 255 255 255 255 255 255 255 255 255 255 255 255 255 255 255 255 255 255 255 255 255 255 255 255 255 255 255 255 255 255 255 255 255 255 255 255 255 255 255 255 255 255 255 255 255 255 255 255 255 255 255 255 255 255 255 255 255 255 255 255 255 255 255 255 255 255 255 255 255 255 255 255 255 255 255 255 255 255 255 255 255 255 255 255 255 255 255 255 255 255 255 255 255 255 255 255 255 255 255 255 255 255 255 255 255 255 255 255 255 255 255 255 255 255 255 255 255 255 255 255 255 255 255 255 255 255 255 255 255 255 255 255 255 255 255 255 255 255 255 255 255 255 255 255 255 255 255 255 255 255 255 255 255 255 255 255 255 255 255 255 255 255 255 255 255 255 255 255
255 255 255 255 255 255 255 255 255 255 255 255 255 255 255 255 255 255 255 255 255 255 255 255 255 255 255 255 255 255 255 255 255 255 255 255 255 255 255 255 255 255 255 255 255 255 255 255 255 255 255 255 255 255 255 255 255 255 255 255 255 255 255 255 255 255 255 255 255 255 255 255 255 255 255 255 255 255 255 255 255 255 255 255 255 255 255 255 255 255 255 255 255 255 255 255 255 255 255 255 255 255 255 255 255 255 255 255 255 255 255 255 255 255 255 255 255 255 255 255 255 255 255 255 255 255 255 255 255 255 255 255 255 255 255 255 255 255 255 255 255 255 255 255 255 255 255 255 255 255 255 255 255 255 255 255 255 255 255 255 255 255 255 255 255 255 255 255 255 255 255 255 255 255 255 255 255 255 255 255 255 255 255 255 255 255 255 255 255 255 255 255 255 255 255 255 255 255 255 255 255 255 255 255 255 255 255 255 255 255 255 255 255 255 255 255 255 255 255 255 255 255 255 255 255 255 255 255 255 255 255 255 255 255 255 255 255 255 255 255 255 255 255 255 255 255 255 255 255 255 255 255 255 255 255 255
255 255 255 255 255 255 255 255 255 255 255 255 255 255 255 255 255 255 255 255 255 255 255 255 255 255 255 255 255 255 255 255 255 255 255 255 255 255 255 255 255 255 255 255 255 255 255 255 255 255 255 255 255 255 255 255 255 255 255 255 255 255 255 255 255 255 255 255 255 255 255 255 255 255 255 255 255 255 255 255 255 255 255 255 255 255 255 255 255 255 255 255 255 255 255 255 255 255 255 255 255 255 255 255 255 255 255 255 255 255 255 255 255 255 255 255 255 255 255 255 255 255 255 255 255 255 255 255 255 255 255 255 255 255 255 255 255 255 255 255 255 255 255 255 255 255 255 255 255 255 255 255 255 255 255 255 255 255 255 255 255 255 255 255 255 255 255 255 255 255 255 255 255 255 255 255 255 255 255 255 255 255 255 255 255 255 255 255 255 255 255 255 255 255 255 255 255 255 255 255 255 255 255 255 255 255 255 255 255 255 255 255 255 255 255 255 255 255 255 255 255 255 255 255 255 255 255 255 255 255 255 255 255 255 255 255 255 255 255 255 255 255 255 255 255 255 255 255 255 255 255 255 255 255 255 255
255 255 255 255 255 255 255 255 255 255 255 255 255 255 255 255 255 255 255 255 255 255 255 255 255 255 255 255 255 255 255 255 255 255 255 255 255 255 255 255 255 255 255 255 255 255 255 255 255 255 255 255 255 255 255 255 255 255 255 255 255 255 255 255 255 255 255 255 255 255 255 255 255 255 255 255 255 255 255 255 255 255 255 255 255 255 255 255 255 255 255 255 255 255 255 255 255 255 255 255 255 255 255 255 255 255 255 255 255 255 255 255 255 255 255 255 255 255 255 255 255 255 255 255 255 255 255 255 255 255 255 255 255 255 255 255 255 255 255 255 255 255 255 255 255 255 255 255 255 255 255 255 255 255 255 255 255 255 255 255 255 255 255 255 255 255 255 255 255 255 255 255 255 255 255 255 255 255 255 255 255 255 255 255 255 255 255 255 255 255 255 255 255 255 255 255 255 255 255 255 255 255 255 255 255 255 255 255 255 255 255 255 255 255 255 255 255 255 255 255 255 255 255 255 255 255 255 255 255 255 255 255 255 255 255 255 255 255 255 255 255 255 255 255 255 255 255 255 255 255 255 255 255 255 255 255
255 255 255 255 255 255 255 255 255 255 255 255 255 255 255 255 255 255 255 255 255 255 255 255 255 255 255 255 255 255 255 255 255 255 255 255 255 255 255 255 255 255 255 255 255 255 255 255 255 255 255 255 255 255 255 255 255 255 255 255 255 255 255 255 255 255 255 255 255 255 255 255 255 255 255 255 255 255 255 255 255 255 255 255 255 255 255 255 255 255 255 255 255 255 255 255 255 255 255 255 255 255 255 255 255 255 255 255 255 255 255 255 255 255 255 255 255 255 255 255 255 255 255 255 255 255 255 255 255 255 255 255 255 255 255 255 255 255 255 255 255 255 255 255 255 255 255 255 255 255 255 255 255 255 255 255 255 255 255 255 255 255 255 255 255 255 255 255 255 255 255 255 255 255 255 255 255 255 255 255 255 255 255 255 255 255 255 255 255 255 255 255 255 255 255 255 255 255 255 255 255 255 255 255 255 255 255 255 255 255 255 255 255 255 255 255 255 255 255 255 255 255 255 255 255 255 255 255 255 255 255 255 255 255 255 255 255 255 255 255 255 255 255 255 255 255 255 255 255 255 255 255 255 255 255 255
255 255 255 255 255 255 255 255 255 255 255 255 255 255 255 255 255 255 255 255 255 255 255 255 255 255 255 255 255 255 255 255 255 255 255 255 255 255 255 255 255 255 255 255 255 255 255 255 255 255 255 255 255 255 255 255 255 255 255 255 255 255 255 255 255 255 255 255 255 255 255 255 255 255 255 255 255 255 255 255 255 255 255 255 255 255 255 255 255 255 255 255 255 255 255 255 255 255 255 255 255 255 255 255 255 255 255 255 255 255 255 255 255 255 255 255 255 255 255 255 255 255 255 255 255 255 255 255 255 255 255 255 255 255 255 255 255 255 255 255 255 255 255 255 255 255 255 255 255 255 255 255 255 255 255 255 255 255 255 255 255 255 255 255 255 255 255 255 255 255 255 255 255 255 255 255 255 255 255 255 255 255 255 255 255 255 255 255 255 255 255 255 255 255 255 255 255 255 255 255 255 255 255 255 255 255 255 255 255 255 255 255 255 255 255 255 255 255 255 255 255 255 255 255 255 255 255 255 255 255 255 255 255 255 255 255 255 255 255 255 255 255 255 255 255 255 255 255 255 255 255 255 255 255 255 255
255 255 255 255 255 255 255 255 255 255 255 255 255 255 255 255 255 255 255 255 255 255 255 255 255 255 255 255 255 255 255 255 255 255 255 255 255 255 255 255 255 255 255 255 255 255 255 255 255 255 255 255 255 255 255 255 255 255 255 255 255 255 255 255 255 255 255 255 255 255 255 255 255 255 255 255 255 255 255 255 255 255 255 255 255 255 255 255 255 255 255 255 255 255 255 255 255 255 255 255 255 255 255 255 255 255 255 255 255 255 255 255 255 255 255 255 255 255 255 255 255 255 255 255 255 255 255 255 255 255 255 255 255 255 255 255 255 255 255 255 255 255 255 255 255 255 255 255 255 255 255 255 255 255 255 255 255 255 255 255 255 255 255 255 255 255 255 255 255 255 255 255 255 255 255 255 255 255 255 255 255 255 255 255 255 255 255 255 255 255 255 255 255 255 255 255 255 255 255 255 255 255 255 255 255 255 255 255 255 255 255 255 255 255 255 255 255 255 255 255 255 255 255 255 255 255 255 255 255 255 255 255 255 255 255 255 255 255 255 255 255 255 255 255 255 255 255 255 255 255 255 255 255 255 255 255
255 255 255 255 255 255 255 255 255 255 255 255 255 255 255 255 255 255 255 255 255 255 255 255 255 255 255 255 255 255 255 255 255 255 255 255 255 255 255 255 255 255 255 255 255 255 255 255 255 255 255 255 255 255 255 255 255 255 255 255 255 255 255 255 255 255 255 255 255 255 255 255 255 255 255 255 255 255 255 255 255 255 255 255 255 255 255 255 255 255 255 255 255 255 255 255 255 255 255 255 255 255 255 255 255 255 255 255 255 255 255 255 255 255 255 255 255 255 255 255 255 255 255 255 255 255 255 255 255 255 255 255 255 255 255 255 255 255 255 255 255 255 255 255 255 255 255 255 255 255 255 255 255 255 255 255 255 255 255 255 255 255 255 255 255 255 255 255 255 255 255 255 255 255 255 255 255 255 255 255 255 255 255 255 255 255 255 255 255 255 255 255 255 255 255 255 255 255 255 255 255 255 255 255 255 255 255 255 255 255 255 255 255 255 255 255 255 255 255 255 255 255 255 255 255 255 255 255 255 255 255 255 255 255 255 255 255 255 255 255 255 255 255 255 255 255 255 255 255 255 255 255 255 255 255 255
255 255 255 255 255 255 255 255 255 255 255 255 255 255 255 255 255 255 255 255 255 255 255 255 255 255 255 255 255 255 255 255 255 255 255 255 255 255 255 255 255 255 255 255 255 255 255 255 255 255 255 255 255 255 255 255 255 255 255 255 255 255 255 255 255 255 255 255 255 255 255 255 255 255 255 255 255 255 255 255 255 255 255 255 255 255 255 255 255 255 255 255 255 255 255 255 255 255 255 255 255 255 255 255 255 255 255 255 255 255 255 255 255 255 255 255 255 255 255 255 255 255 255 255 255 255 255 255 255 255 255 255 255 255 255 255 255 255 255 255 255 255 255 255 255 255 255 255 255 255 255 255 255 255 255 255 255 255 255 255 255 255 255 255 255 255 255 255 255 255 255 255 255 255 255 255 255 255 255 255 255 255 255 255 255 255 255 255 255 255 255 255 255 255 255 255 255 255 255 255 255 255 255 255 255 255 255 255 255 255 255 255 255 255 255 255 255 255 255 255 255 255 255 255 255 255 255 255 255 255 255 255 255 255 255 255 255 255 255 255 255 255 255 255 255 255 255 255 255 255 255 255 255 255 255 255
255 255 255 255 255 255 255 255 255 255 255 255 255 255 255 255 255 255 255 255 255 255 255 255 255 255 255 255 255 255 255 255 255 255 255 255 255 255 255 255 255 255 255 255 255 255 255 255 255 255 255 255 255 255 255 255 255 255 255 255 255 255 255 255 255 255 255 255 255 255 255 255 255 255 255 255 255 255 255 255 255 255 255 255 255 255 255 255 255 255 255 255 255 255 255 255 255 255 255 255 255 255 255 255 255 255 255 255 255 255 255 255 255 255 255 255 255 255 255 255 255 255 255 255 255 255 255 255 255 255 255 255 255 255 255 255 255 255 255 255 255 255 255 255 255 255 255 255 255 255 255 255 255 255 255 255 255 255 255 255 255 255 255 255 255 255 255 255 255 255 255 255 255 255 255 255 255 255 255 255 255 255 255 255 255 255 255 255 255 255 255 255 255 255 255 255 255 255 255 255 255 255 255 255 255 255 255 255 255 255 255 255 255 255 255 255 255 255 255 255 255 255 255 255 255 255 255 255 255 255 255 255 255 255 255 255 255 255 255 255 255 255 255 255 255 255 255 255 255 255 255 255 255 255 255 255
255 255 255 255 255 255 255 255 255 255 255 255 255 255 255 255 255 255 255 255 255 255 255 255 255 255 255 255 255 255 255 255 255 255 255 255 255 255 255 255 255 255 255 255 255 255 255 255 255 255 255 255 255 255 255 255 255 255 255 255 255 255 255 255 255 255 255 255 255 255 255 255 255 255 255 255 255 255 255 255 255 255 255 255 255 255 255 255 255 255 255 255 255 255 255 255 255 255 255 255 255 255 255 255 255 255 255 255 255 255 255 255 255 255 255 255 255 255 255 255 255 255 255 255 255 255 255 255 255 255 255 255 255 255 255 255 255 255 255 255 255 255 255 255 255 255 255 255 255 255 255 255 255 255 255 255 255 255 255 255 255 255 255 255 255 255 255 255 255 255 255 255 255 255 255 255 255 255 255 255 255 255 255 255 255 255 255 255 255 255 255 255 255 255 255 255 255 255 255 255 255 255 255 255 255 255 255 255 255 255 255 255 255 255 255 255 255 255 255 255 255 255 255 255 255 255 255 255 255 255 255 255 255 255 255 255 255 255 255 255 255 255 255 255 255 255 255 255 255 255 255 255 255 255 255 255
255 255 255 255 255 255 255 255 255 255 255 255 255 255 255 255 255 255 255 255 255 255 255 255 255 255 255 255 255 255 255 255 255 255 255 255 255 255 255 255 255 255 255 255 255 255 255 255 255 255 255 255 255 255 255 255 255 255 255 255 255 255 255 255 255 255 255 255 255 255 255 255 255 255 255 255 255 255 255 255 255 255 255 255 255 255 255 255 255 255 255 255 255 255 255 255 255 255 255 255 255 255 255 255 255 255 255 255 255 255 255 255 255 255 255 255 255 255 255 255 255 255 255 255 255 255 255 255 255 255 255 255 255 255 255 255 255 255 255 255 255 255 255 255 255 255 255 255 255 255 255 255 255 255 255 255 255 255 255 255 255 255 255 255 255 255 255 255 255 255 255 255 255 255 255 255 255 255 255 255 255 255 255 255 255 255 255 255 255 255 255 255 255 255 255 255 255 255 255 255 255 255 255 255 255 255 255 255 255 255 255 255 255 255 255 255 255 255 255 255 255 255 255 255 255 255 255 255 255 255 255 255 255 255 255 255 255 255 255 255 255 255 255 255 255 255 255 255 255 255 255 255 255 255 255 255
255 255 255 255 255 255 255 255 255 255 255 255 255 255 255 255 255 255 255 255 255 255 255 255 255 255 255 255 255 255 255 255 255 255 255 255 255 255 255 255 255 255 255 255 255 255 255 255 255 255 255 255 255 255 255 255 255 255 255 255 255 255 255 255 255 255 255 255 255 255 255 255 255 255 255 255 255 255 255 255 255 255 255 255 255 255 255 255 255 255 255 255 255 255 255 255 255 255 255 255 255 255 255 255 255 255 255 255 255 255 255 255 255 255 255 255 255 255 255 255 255 255 255 255 255 255 255 255 255 255 255 255 255 255 255 255 255 255 255 255 255 255 255 255 255 255 255 255 255 255 255 255 255 255 255 255 255 255 255 255 255 255 255 255 255 255 255 255 255 255 255 255 255 255 255 255 255 255 255 255 255 255 255 255 255 255 255 255 255 255 255 255 255 255 255 255 255 255 255 255 255 255 255 255 255 255 255 255 255 255 255 255 255 255 255 255 255 255 255 255 255 255 255 255 255 255 255 255 255 255 255 255 255 255 255 255 255 255 255 255 255 255 255 255 255 255 255 255 255 255 255 255 255 255 255 255
255 255 255 255 255 255 255 255 255 255 255 255 255 255 255 255 255 255 255 255 255 255 255 255 255 255 255 255 255 255 255 255 255 255 255 255 255 255 255 255 255 255 255 255 255 255 255 255 255 255 255 255 255 255 255 255 255 255 255 255 255 255 255 255 255 255 255 255 255 255 255 255 255 255 255 255 255 255 255 255 255 255 255 255 255 255 255 255 255 255 255 255 255 255 255 255 255 255 255 255 255 255 255 255 255 255 255 255 255 255 255 255 255 255 255 255 255 255 255 255 255 255 255 255 255 255 255 255 255 255 255 255 255 255 255 255 255 255 255 255 255 255 255 255 255 255 255 255 255 255 255 255 255 255 255 255 255 255 255 255 255 255 255 255 255 255 255 255 255 255 255 255 255 255 255 255 255 255 255 255 255 255 255 255 255 255 255 255 255 255 255 255 255 255 255 255 255 255 255 255 255 255 255 255 255 255 255 255 255 255 255 255 255 255 255 255 255 255 255 255 255 255 255 255 255 255 255 255 255 255 255 255 255 255 255 255 255 255 255 255 255 255 255 255 255 255 255 255 255 255 255 255 255 255 255 255
