P2
# Converted from tiles.png
512 512
255
128 128 128 128 128 128 128 128 128 128 128 128 128 128 128 128 128 128 128 128 128 128 128 128 128 128 128 128 128 128 128 128 128 128 128 128 128 128 128 128 128 128 128 128 128 128 128 128 128 128 128 128 128 127 125 124 123 123 123 123 124 125 126 127 250 252 252 252 252 252 252 252 252 252 252 252 252 252 252 252 252 252 252 252 252 252 252 252 252 252 252 252 251 251 252 251 251 251 251 251 251 251 251 251 251 251 251 251 250 250 250 250 250 250 250 249 249 249 248 248 247 246 245 244 241 237 227 192 128 128 128 128 128 128 128 128 128 128 128 128 128 128 128 128 128 128 128 128 128 128 128 128 128 128 128 128 128 128 128 128 128 128 128 128 128 128 128 128 128 128 128 128 128 128 128 128 128 128 128 128 128 127 125 124 123 123 123 123 124 125 126 127 127 127 127 127 127 127 127 127 127 127 127 127 127 127 127 127 127 127 127 127 127 127 127 127 127 127 127 127 127 127 127 127 127 0 0 0 0 0 0 0 0 0 0 0 0 0 0 0 0 0 0 0 0 0 0 0 0 0 0 0 0 0 0 0 0 0 0 0 0 0 0 0 0 0 0 0 0 0 0 0 0 0 0 0 0 0 0 0 0 0 0 0 0 0 127 127 127 127 127 127 127 127 127 127 127 127 127 127 127 127 127 127 127 127 127 127 127 127 127 127 127 127 127 127 127 127 127 127 127 127 130 131 132 133 133 133 133 132 130 129 129 129 128 128 128 128 128 128 128 128 128 128 128 128 128 128 128 128 128 128 128 128 128 128 128 128 128 128 128 128 128 128 128 128 128 128 128 128 128 128 128 128 128 128 128 128 128 128 128 128 128 128 128 128 128 128 128 128 128 128 128 128 128 128 128 128 128 128 128 128 128 128 128 128 128 128 128 128 128 128 128 128 128 128 128 128 128 128 128 128 128 128 128 128 128 128 128 128 128 128 128 128 128 128 128 128 128 128 128 128 128 128 128 128 128 128 128 129 130 131 132 133 133 133 133 132 130 129 129 129 128 128 128 128 128 128 128 128 128 128 128 128 128 128 128 128 128 128 128 128 128 128 128 128 128 128 128 128 128 128 128 128 128 128 128 128 128 128 128 128 128 128 128 128 128 128 128 128 128 128
128 128 128 128 128 128 128 128 128 128 128 128 128 128 128 128 128 128 128 128 128 128 128 128 128 128 128 128 128 128 128 128 128 128 128 128 128 128 128 128 128 128 128 128 128 128 128 128 127 124 120 117 115 114 115 117 118 119 120 122 123 124 125 127 248 253 253 253 253 253 253 253 253 253 253 253 253 253 253 252 252 252 252 252 252 252 252 252 252 252 252 252 252 252 251 251 251 251 251 251 251 250 250 250 250 250 249 249 249 248 248 248 247 247 246 245 244 244 242 241 239 236 234 229 222 211 192 155 128 128 128 128 128 128 128 128 128 128 128 128 128 128 128 128 128 128 128 128 128 128 128 128 128 128 128 128 128 128 128 128 128 128 128 128 128 128 128 128 128 128 128 128 128 128 128 128 127 124 120 117 115 114 115 117 118 119 120 122 123 124 125 127 127 127 127 127 127 127 127 127 127 127 127 127 127 127 127 127 127 127 127 127 127 127 127 127 127 127 127 127 127 127 127 127 127 0 0 0 0 0 0 0 0 0 0 0 0 0 0 0 0 0 0 0 0 0 0 0 0 0 0 0 0 0 0 0 0 0 0 0 0 0 0 0 0 0 0 0 0 0 0 0 0 0 0 0 0 0 0 0 0 0 0 0 0 0 127 127 127 127 127 127 127 127 127 127 127 127 127 127 127 127 127 127 127 127 127 127 127 127 127 127 127 127 127 127 127 127 127 127 127 127 131 132 133 135 136 137 138 139 140 140 139 137 134 131 130 129 129 128 128 128 128 128 128 128 128 128 128 128 128 128 128 128 128 128 128 128 128 128 128 128 128 128 128 128 128 128 128 128 128 128 128 128 128 128 128 128 128 128 128 128 128 128 128 128 128 128 128 128 128 128 128 128 128 128 128 128 128 128 128 128 128 128 128 128 128 128 128 128 128 128 128 128 128 128 128 128 128 128 128 128 128 128 128 128 128 128 128 128 128 128 128 128 128 128 128 128 128 128 128 128 128 128 128 128 128 128 128 129 131 132 133 135 136 137 138 139 140 140 139 137 134 131 130 129 129 128 128 128 128 128 128 128 128 128 128 128 128 128 128 128 128 128 128 128 128 128 128 128 128 128 128 128 128 128 128 128 128 128 128 128 128 128 128 128 128 128 128 128 128 128
128 128 128 128 128 128 128 128 128 128 128 128 128 128 128 128 128 128 128 128 128 128 128 128 128 128 128 128 128 128 128 128 128 128 128 128 128 128 128 128 128 128 128 128 128 124 118 113 108 109 110 111 112 114 115 116 117 119 120 122 123 124 126 127 242 252 252 252 252 252 252 251 251 251 251 251 251 251 251 251 251 251 250 251 250 250 250 250 250 250 250 249 249 249 249 249 249 248 248 248 248 247 247 247 246 246 246 245 245 244 244 243 242 241 240 239 238 236 234 232 229 225 220 214 205 192 172 144 128 128 128 128 128 128 128 128 128 128 128 128 128 128 128 128 128 128 128 128 128 128 128 128 128 128 128 128 128 128 128 128 128 128 128 128 128 128 128 128 128 128 128 128 128 124 118 113 108 109 110 111 112 114 115 116 117 119 120 122 123 124 126 127 127 127 127 127 127 127 127 127 127 127 127 127 127 127 127 127 127 127 127 127 127 127 127 127 127 127 127 127 127 127 127 127 127 0 0 0 0 0 0 0 0 0 0 0 0 0 0 0 0 0 0 0 0 0 0 0 0 0 0 0 0 0 0 0 0 0 0 0 0 0 0 0 0 0 0 0 0 0 0 0 0 0 0 0 0 0 0 0 0 0 0 0 0 0 127 127 127 127 127 127 127 127 127 127 127 127 127 127 127 127 127 127 127 127 127 127 127 127 127 127 127 127 127 127 127 127 127 127 127 127 131 132 133 135 136 137 139 140 141 142 144 144 145 145 144 140 135 130 129 129 128 128 128 128 128 128 128 128 128 128 128 128 128 128 128 128 128 128 128 128 128 128 128 128 128 128 128 128 128 128 128 128 128 128 128 128 128 128 128 128 128 128 128 128 128 128 128 128 128 128 128 128 128 128 128 128 128 128 128 128 128 128 128 128 128 128 128 128 128 128 128 128 128 128 128 128 128 128 128 128 128 128 128 128 128 128 128 128 128 128 128 128 128 128 128 128 128 128 128 128 128 128 128 128 128 128 128 129 131 132 133 135 136 137 139 140 141 142 144 144 145 145 144 140 135 130 129 129 128 128 128 128 128 128 128 128 128 128 128 128 128 128 128 128 128 128 128 128 128 128 128 128 128 128 128 128 128 128 128 128 128 128 128 128 128 128 128 128 128 128
128 128 128 128 128 128 128 128 128 128 128 128 128 128 128 128 128 128 128 128 128 128 128 128 128 128 128 128 128 128 128 128 128 128 128 128 128 128 128 128 128 128 124 114 107 104 105 106 107 108 110 111 112 113 115 116 117 119 120 121 123 124 126 127 235 250 251 250 250 250 250 250 250 250 250 250 249 249 249 249 249 249 249 249 249 248 248 248 248 247 247 247 247 247 246 247 246 246 246 245 245 244 244 244 243 242 242 241 241 240 239 238 237 236 234 233 231 229 226 223 220 215 209 201 191 178 160 139 128 128 128 128 128 128 128 128 128 128 128 128 128 128 128 128 128 128 128 128 128 128 128 128 128 128 128 128 128 128 128 128 128 128 128 128 128 128 128 128 128 128 124 114 107 104 105 106 107 108 110 111 112 113 115 116 117 119 120 121 123 124 126 127 127 127 127 127 127 127 127 127 127 127 127 127 127 127 127 127 127 127 127 127 127 127 127 127 127 127 127 127 127 127 127 127 127 0 0 0 0 0 0 0 0 0 0 0 0 0 0 0 0 0 0 0 0 0 0 0 0 0 0 0 0 0 0 0 0 0 0 0 0 0 0 0 0 0 0 0 0 0 0 0 0 0 0 0 0 0 0 0 0 0 0 0 0 0 127 127 127 127 127 127 127 127 127 127 127 127 127 127 127 127 127 127 127 127 127 127 127 127 127 127 127 127 127 127 127 127 127 127 127 127 131 132 133 135 136 138 139 140 141 143 144 145 146 148 149 149 150 148 143 136 131 129 128 128 128 128 128 128 128 128 128 128 128 128 128 128 128 128 128 128 128 128 128 128 128 128 128 128 128 128 128 128 128 128 128 128 128 128 128 128 128 128 128 128 128 128 128 128 128 128 128 128 128 128 128 128 128 128 128 128 128 128 128 128 128 128 128 128 128 128 128 128 128 128 128 128 128 128 128 128 128 128 128 128 128 128 128 128 128 128 128 128 128 128 128 128 128 128 128 128 128 128 128 128 128 128 128 130 131 132 133 135 136 138 139 140 141 143 144 145 146 148 149 149 150 148 143 136 131 129 128 128 128 128 128 128 128 128 128 128 128 128 128 128 128 128 128 128 128 128 128 128 128 128 128 128 128 128 128 128 128 128 128 128 128 128 128 128 128 128
128 128 128 128 128 128 128 128 128 128 128 128 128 128 128 128 128 128 128 128 128 128 128 128 128 128 128 128 128 128 128 128 128 128 128 128 128 128 128 126 116 104 100 101 102 103 104 106 107 108 109 111 112 113 115 116 117 119 120 121 123 124 125 127 230 249 249 249 249 249 249 249 248 248 248 248 248 248 248 248 247 247 247 247 247 247 246 246 246 246 245 245 245 245 244 244 244 243 243 242 242 241 241 240 240 239 238 237 237 236 235 233 232 231 229 227 225 222 219 215 211 206 199 191 181 169 154 136 128 128 128 128 128 128 128 128 128 128 128 128 128 128 128 128 128 128 128 128 128 128 128 128 128 128 128 128 128 128 128 128 128 128 128 128 128 128 128 126 116 104 100 101 102 103 104 106 107 108 109 111 112 113 115 116 117 119 120 121 123 124 125 127 127 127 127 127 127 127 127 127 127 127 127 127 127 127 127 127 127 127 127 127 127 127 127 127 127 127 127 127 127 127 127 127 127 0 0 0 0 0 0 0 0 0 0 0 0 0 0 0 0 0 0 0 0 0 0 0 0 0 0 0 0 0 0 0 0 0 0 0 0 0 0 0 0 0 0 0 0 0 0 0 0 0 0 0 0 0 0 0 0 0 0 0 0 0 127 127 127 127 127 127 127 127 127 127 127 127 127 127 127 127 127 127 127 127 127 127 127 127 127 127 127 127 127 127 127 127 127 127 127 127 131 132 134 135 136 138 139 140 142 143 144 146 147 148 150 151 152 153 153 154 151 143 135 130 129 128 128 128 128 128 128 128 128 128 128 128 128 128 128 128 128 128 128 128 128 128 128 128 128 128 128 128 128 128 128 128 128 128 128 128 128 128 128 128 128 128 128 128 128 128 128 128 128 128 128 128 128 128 128 128 128 128 128 128 128 128 128 128 128 128 128 128 128 128 128 128 128 128 128 128 128 128 128 128 128 128 128 128 128 128 128 128 128 128 128 128 128 128 128 128 128 128 128 128 128 128 128 129 131 132 134 135 136 138 139 140 142 143 144 146 147 148 150 151 152 153 153 154 151 143 135 130 129 128 128 128 128 128 128 128 128 128 128 128 128 128 128 128 128 128 128 128 128 128 128 128 128 128 128 128 128 128 128 128 128 128 128 128 128 128
128 128 128 128 128 128 128 128 128 128 128 128 128 128 128 128 128 128 128 128 128 128 128 128 128 128 128 128 128 128 128 128 128 128 128 128 128 124 109 97 97 98 99 100 101 102 104 105 106 108 109 111 112 113 114 116 117 118 120 121 123 124 125 127 225 248 248 248 248 247 247 247 247 247 247 246 246 246 246 246 246 245 245 245 245 245 244 244 244 244 243 243 243 242 242 241 241 240 240 240 239 238 238 237 236 236 235 234 233 231 230 229 227 226 224 222 219 216 213 209 204 198 191 183 174 162 149 135 128 128 128 128 128 128 128 128 128 128 128 128 128 128 128 128 128 128 128 128 128 128 128 128 128 128 128 128 128 128 128 128 128 128 128 128 128 124 109 97 97 98 99 100 101 102 104 105 106 108 109 111 112 113 114 116 117 118 120 121 123 124 125 127 127 127 127 127 127 127 127 127 127 127 127 127 127 127 127 127 127 127 127 127 127 127 127 127 127 127 127 127 127 127 127 127 127 0 0 0 0 0 0 0 0 0 0 0 0 0 0 0 0 0 0 0 0 0 0 0 0 0 0 0 0 0 0 0 0 0 0 0 0 0 0 0 0 0 0 0 0 0 0 0 0 0 0 0 0 0 0 0 0 0 0 0 0 0 127 127 127 127 127 127 127 127 127 127 127 127 127 127 127 127 127 127 127 127 127 127 127 127 127 127 127 127 127 127 127 127 127 127 127 127 131 132 134 135 136 138 139 140 142 143 145 146 147 148 150 151 152 154 155 156 157 158 156 149 138 131 129 128 128 128 128 128 128 128 128 128 128 128 128 128 128 128 128 128 128 128 128 128 128 128 128 128 128 128 128 128 128 128 128 128 128 128 128 128 128 128 128 128 128 128 128 128 128 128 128 128 128 128 128 128 128 128 128 128 128 128 128 128 128 128 128 128 128 128 128 128 128 128 128 128 128 128 128 128 128 128 128 128 128 128 128 128 128 128 128 128 128 128 128 128 128 128 128 128 128 128 128 130 131 132 134 135 136 138 139 140 142 143 145 146 147 148 150 151 152 154 155 156 157 158 156 149 138 131 129 128 128 128 128 128 128 128 128 128 128 128 128 128 128 128 128 128 128 128 128 128 128 128 128 128 128 128 128 128 128 128 128 128 128 128
128 128 128 128 128 128 128 128 128 128 128 128 128 128 128 128 128 128 128 128 128 128 128 128 128 128 128 128 128 128 128 128 128 128 128 122 105 93 94 95 96 97 98 100 101 102 103 105 106 107 109 110 112 113 114 116 117 118 120 121 123 124 125 127 211 247 247 246 246 246 246 246 246 245 245 245 245 245 244 244 244 244 244 243 243 243 242 242 242 241 241 241 240 240 239 239 238 238 237 237 236 235 235 234 233 232 231 230 229 228 226 224 223 221 219 216 213 210 206 202 197 191 184 177 168 157 146 134 128 128 128 128 128 128 128 128 128 128 128 128 128 128 128 128 128 128 128 128 128 128 128 128 128 128 128 128 128 128 128 128 128 128 128 122 105 93 94 95 96 97 98 100 101 102 103 105 106 107 109 110 112 113 114 116 117 118 120 121 123 124 125 127 127 127 127 127 127 127 127 127 127 127 127 127 127 127 127 127 127 127 127 127 127 127 127 127 127 127 127 127 127 127 127 127 127 0 0 0 0 0 0 0 0 0 0 0 0 0 0 0 0 0 0 0 0 0 0 0 0 0 0 0 0 0 0 0 0 0 0 0 0 0 0 0 0 0 0 0 0 0 0 0 0 0 0 0 0 0 0 0 0 0 0 0 0 0 127 127 127 127 127 127 127 127 127 127 127 127 127 127 127 127 127 127 127 127 127 127 127 127 127 127 127 127 127 127 127 127 127 127 127 127 131 132 134 135 137 138 139 141 142 143 145 146 148 149 150 152 153 154 155 157 158 159 160 160 160 153 140 131 129 128 128 128 128 128 128 128 128 128 128 128 128 128 128 128 128 128 128 128 128 128 128 128 128 128 128 128 128 128 128 128 128 128 128 128 128 128 128 128 128 128 128 128 128 128 128 128 128 128 128 128 128 128 128 128 128 128 128 128 128 128 128 128 128 128 128 128 128 128 128 128 128 128 128 128 128 128 128 128 128 128 128 128 128 128 128 128 128 128 128 128 128 128 128 128 128 128 128 130 131 132 134 135 137 138 139 141 142 143 145 146 148 149 150 152 153 154 155 157 158 159 160 160 160 153 140 131 129 128 128 128 128 128 128 128 128 128 128 128 128 128 128 128 128 128 128 128 128 128 128 128 128 128 128 128 128 128 128 128 128 128
128 128 128 128 128 128 128 128 128 128 128 128 128 128 128 128 128 128 128 128 128 128 128 128 128 128 128 128 128 128 128 128 128 123 104 90 91 92 93 94 96 97 98 99 100 102 103 104 106 107 108 110 111 113 114 115 117 118 120 121 123 124 125 127 200 245 245 245 245 245 244 244 244 244 244 244 243 243 243 243 242 242 242 241 241 241 240 240 240 239 239 239 238 238 237 237 236 235 235 234 233 232 232 231 230 229 228 227 225 224 222 220 218 216 214 211 208 205 201 196 191 185 179 171 163 154 144 133 128 128 128 128 128 128 128 128 128 128 128 128 128 128 128 128 128 128 128 128 128 128 128 128 128 128 128 128 128 128 128 128 128 123 104 90 91 92 93 94 96 97 98 99 100 102 103 104 106 107 108 110 111 113 114 115 117 118 120 121 123 124 125 127 127 127 127 127 127 127 127 127 127 127 127 127 127 127 127 127 127 127 127 127 127 127 127 127 127 127 127 127 127 127 127 127 127 0 0 0 0 0 0 0 0 0 0 0 0 0 0 0 0 0 0 0 0 0 0 0 0 0 0 0 0 0 0 0 0 0 0 0 0 0 0 0 0 0 0 0 0 0 0 0 0 0 0 0 0 0 0 0 0 0 0 0 0 0 127 127 127 127 127 127 127 127 127 127 127 127 127 127 127 127 127 127 127 127 127 127 127 127 127 127 127 127 127 127 127 127 127 127 127 127 131 132 134 135 137 138 140 141 142 144 145 146 148 149 151 152 153 154 156 157 158 159 161 162 163 163 162 155 141 131 129 128 128 128 128 128 128 128 128 128 128 128 128 128 128 128 128 128 128 128 128 128 128 128 128 128 128 128 128 128 128 128 128 128 128 128 128 128 128 128 128 128 128 128 128 128 128 128 128 128 128 128 128 128 128 128 128 128 128 128 128 128 128 128 128 128 128 128 128 128 128 128 128 128 128 128 128 128 128 128 128 128 128 128 128 128 128 128 128 128 128 128 128 128 128 128 128 130 131 132 134 135 137 138 140 141 142 144 145 146 148 149 151 152 153 154 156 157 158 159 161 162 163 163 162 155 141 131 129 128 128 128 128 128 128 128 128 128 128 128 128 128 128 128 128 128 128 128 128 128 128 128 128 128 128 128 128 128 128 128
128 128 128 128 128 128 128 128 128 128 128 128 128 128 128 128 128 128 128 128 128 128 128 128 128 128 128 128 128 128 128 125 106 88 88 89 90 91 93 94 95 96 97 99 100 101 103 104 105 107 108 109 111 112 114 115 117 118 120 121 122 124 125 127 184 244 244 244 243 243 243 243 243 242 242 242 242 241 241 241 241 240 240 240 239 239 239 238 238 237 237 236 236 235 235 234 234 233 232 231 231 230 229 228 227 226 224 223 222 220 218 216 214 212 209 206 203 200 196 191 186 180 174 167 159 151 142 132 128 128 128 128 128 128 128 128 128 128 128 128 128 128 128 128 128 128 128 128 128 128 128 128 128 128 128 128 128 128 128 125 106 88 88 89 90 91 93 94 95 96 97 99 100 101 103 104 105 107 108 109 111 112 114 115 117 118 120 121 122 124 125 127 127 127 127 127 127 127 127 127 127 127 127 127 127 127 127 127 127 127 127 127 127 127 127 127 127 127 127 127 127 127 127 127 127 0 0 0 0 0 0 0 0 0 0 0 0 0 0 0 0 0 0 0 0 0 0 0 0 0 0 0 0 0 0 0 0 0 0 0 0 0 0 0 0 0 0 0 0 0 0 0 0 0 0 0 0 0 0 0 0 0 0 0 0 0 127 127 127 127 127 127 127 127 127 127 127 127 127 127 127 127 127 127 127 127 127 127 127 127 127 127 127 127 127 127 127 127 127 127 127 127 131 132 134 136 137 138 140 141 143 144 145 147 148 150 151 152 154 155 156 157 159 160 161 163 164 165 166 166 165 155 138 131 128 128 128 128 128 128 128 128 128 128 128 128 128 128 128 128 128 128 128 128 128 128 128 128 128 128 128 128 128 128 128 128 128 128 128 128 128 128 128 128 128 128 128 128 128 128 128 128 128 128 128 128 128 128 128 128 128 128 128 128 128 128 128 128 128 128 128 128 128 128 128 128 128 128 128 128 128 128 128 128 128 128 128 128 128 128 128 128 128 128 128 128 128 128 128 130 131 132 134 136 137 138 140 141 143 144 145 147 148 150 151 152 154 155 156 157 159 160 161 163 164 165 166 166 165 155 138 131 128 128 128 128 128 128 128 128 128 128 128 128 128 128 128 128 128 128 128 128 128 128 128 128 128 128 128 128 128 128
128 128 128 128 128 128 128 128 128 128 128 128 128 128 128 128 128 128 128 128 128 128 128 128 128 128 128 128 128 128 112 88 85 86 87 89 90 91 92 93 94 96 97 98 100 101 102 104 105 106 108 109 111 112 113 115 116 118 119 121 122 124 125 127 167 243 243 242 242 242 242 241 241 241 241 241 240 240 240 239 239 239 238 238 238 237 237 236 236 236 235 234 234 233 233 232 231 231 230 229 228 227 226 225 224 222 221 220 218 216 215 213 210 208 205 202 199 195 191 187 182 176 170 163 156 148 140 132 128 128 128 128 128 128 128 128 128 128 128 128 128 128 128 128 128 128 128 128 128 128 128 128 128 128 128 128 128 128 112 88 85 86 87 89 90 91 92 93 94 96 97 98 100 101 102 104 105 106 108 109 111 112 113 115 116 118 119 121 122 124 125 127 127 127 127 127 127 127 127 127 127 127 127 127 127 127 127 127 127 127 127 127 127 127 127 127 127 127 127 127 127 127 127 127 127 0 0 0 0 0 0 0 0 0 0 0 0 0 0 0 0 0 0 0 0 0 0 0 0 0 0 0 0 0 0 0 0 0 0 0 0 0 0 0 0 0 0 0 0 0 0 0 0 0 0 0 0 0 0 0 0 0 0 0 0 0 127 127 127 127 127 127 127 127 127 127 127 127 127 127 127 127 127 127 127 127 127 127 127 127 127 127 127 127 127 127 127 127 127 127 127 127 131 133 134 136 137 139 140 142 143 145 146 147 149 150 151 153 154 155 157 158 159 161 162 163 164 165 167 168 169 169 166 151 135 129 128 128 128 128 128 128 128 128 128 128 128 128 128 128 128 128 128 128 128 128 128 128 128 128 128 128 128 128 128 128 128 128 128 128 128 128 128 128 128 128 128 128 128 128 128 128 128 128 128 128 128 128 128 128 128 128 128 128 128 128 128 128 128 128 128 128 128 128 128 128 128 128 128 128 128 128 128 128 128 128 128 128 128 128 128 128 128 128 128 128 128 128 128 130 131 133 134 136 137 139 140 142 143 145 146 147 149 150 151 153 154 155 157 158 159 161 162 163 164 165 167 168 169 169 166 151 135 129 128 128 128 128 128 128 128 128 128 128 128 128 128 128 128 128 128 128 128 128 128 128 128 128 128 128 128 128
128 128 128 128 128 128 128 128 128 128 128 128 128 128 128 128 128 128 128 128 128 128 128 128 128 128 128 128 122 95 82 83 84 86 87 88 89 90 91 92 94 95 96 98 99 100 102 103 105 106 108 109 110 112 113 115 116 118 119 121 122 124 125 127 143 240 241 241 241 241 240 240 240 240 239 239 239 238 238 238 237 237 237 236 236 235 235 234 234 233 233 232 232 231 230 230 229 228 227 226 225 224 223 222 221 220 218 217 215 213 211 209 207 204 201 198 195 191 187 183 178 173 167 160 154 147 139 131 128 128 128 128 128 128 128 128 128 128 128 128 128 128 128 128 128 128 128 128 128 128 128 128 128 128 128 128 122 95 82 83 84 86 87 88 89 90 91 92 94 95 96 98 99 100 102 103 105 106 108 109 110 112 113 115 116 118 119 121 122 124 125 127 127 127 127 127 127 127 127 127 127 127 127 127 127 127 127 127 127 127 127 127 127 127 127 127 127 127 127 127 127 127 127 127 127 0 0 0 0 0 0 0 0 0 0 0 0 0 0 0 0 0 0 0 0 0 0 0 0 0 0 0 0 0 0 0 0 0 0 0 0 0 0 0 0 0 0 0 0 0 0 0 0 0 0 0 0 0 0 0 0 0 0 0 0 0 127 127 127 127 127 127 127 127 127 127 127 127 127 127 127 127 127 127 127 127 127 127 127 127 127 127 127 127 127 127 127 127 127 127 127 127 131 133 134 136 137 139 140 142 143 145 146 148 149 150 152 153 155 156 157 159 160 161 162 164 165 166 167 168 170 171 172 171 163 143 131 128 128 128 128 128 128 128 128 128 128 128 128 128 128 128 128 128 128 128 128 128 128 128 128 128 128 128 128 128 128 128 128 128 128 128 128 128 128 128 128 128 128 128 128 128 128 128 128 128 128 128 128 128 128 128 128 128 128 128 128 128 128 128 128 128 128 128 128 128 128 128 128 128 128 128 128 128 128 128 128 128 128 128 128 128 128 128 128 128 128 128 128 130 131 133 134 136 137 139 140 142 143 145 146 148 149 150 152 153 155 156 157 159 160 161 162 164 165 166 167 168 170 171 172 171 163 143 131 128 128 128 128 128 128 128 128 128 128 128 128 128 128 128 128 128 128 128 128 128 128 128 128 128 128 128
128 128 128 128 128 128 128 128 128 128 128 128 128 128 128 128 128 128 128 128 128 128 128 128 128 128 128 110 82 80 81 83 84 85 86 87 88 89 91 92 93 95 96 97 99 100 101 103 104 106 107 109 110 111 113 115 116 117 119 120 122 124 125 127 131 232 240 240 239 239 239 239 238 238 238 238 237 237 237 236 236 235 235 234 234 234 233 233 232 231 231 230 229 229 228 227 227 226 225 224 223 222 220 219 218 217 215 213 212 210 208 205 203 201 198 195 191 187 183 179 174 169 164 158 152 145 138 131 128 128 128 128 128 128 128 128 128 128 128 128 128 128 128 128 128 128 128 128 128 128 128 128 128 128 128 110 82 80 81 83 84 85 86 87 88 89 91 92 93 95 96 97 99 100 101 103 104 106 107 109 110 111 113 115 116 117 119 120 122 124 125 127 127 127 127 127 127 127 127 127 127 127 127 127 127 127 127 127 127 127 127 127 127 127 127 127 127 127 127 127 127 127 127 127 127 0 0 0 0 0 0 0 0 0 0 0 0 0 0 0 0 0 0 0 0 0 0 0 0 0 0 0 0 0 0 0 0 0 0 0 0 0 0 0 0 0 0 0 0 0 0 0 0 0 0 0 0 0 0 0 0 0 0 0 0 0 127 127 127 127 127 127 127 127 127 127 127 127 127 127 127 127 127 127 127 127 127 127 127 127 127 127 127 127 127 127 127 127 127 127 127 127 131 133 135 136 138 139 140 142 144 145 146 148 149 151 152 154 155 156 158 159 160 162 163 164 165 167 168 169 170 171 173 173 174 171 155 135 129 128 128 128 128 128 128 128 128 128 128 128 128 128 128 128 128 128 128 128 128 128 128 128 128 128 128 128 128 128 128 128 128 128 128 128 128 128 128 128 128 128 128 128 128 128 128 128 128 128 128 128 128 128 128 128 128 128 128 128 128 128 128 128 128 128 128 128 128 128 128 128 128 128 128 128 128 128 128 128 128 128 128 128 128 128 128 128 128 128 128 130 131 133 135 136 138 139 140 142 144 145 146 148 149 151 152 154 155 156 158 159 160 162 163 164 165 167 168 169 170 171 173 173 174 171 155 135 129 128 128 128 128 128 128 128 128 128 128 128 128 128 128 128 128 128 128 128 128 128 128 128 128 128
128 128 128 128 128 128 128 128 128 128 128 128 128 128 128 128 128 128 128 128 128 128 128 128 128 125 95 77 79 80 81 82 83 84 85 87 88 89 90 91 93 94 95 97 98 100 101 102 104 105 107 108 110 111 113 114 116 117 119 120 122 123 125 127 128 216 239 238 238 238 238 237 237 237 236 236 236 235 235 235 234 234 233 233 232 232 231 231 230 229 229 228 228 227 226 225 224 223 222 221 220 219 218 217 215 214 212 211 209 207 205 202 200 197 195 191 188 184 180 176 171 166 161 156 150 144 137 131 128 128 128 128 128 128 128 128 128 128 128 128 128 128 128 128 128 128 128 128 128 128 128 128 128 125 95 77 79 80 81 82 83 84 85 87 88 89 90 91 93 94 95 97 98 100 101 102 104 105 107 108 110 111 113 114 116 117 119 120 122 123 125 127 127 127 127 127 127 127 127 127 127 127 127 127 127 127 127 127 127 127 127 127 127 127 127 127 127 127 127 127 127 127 127 127 127 0 0 0 0 0 0 0 0 0 0 0 0 0 0 0 0 0 0 0 0 0 0 0 0 0 0 0 0 0 0 0 0 0 0 0 0 0 0 0 0 0 0 0 0 0 0 0 0 0 0 0 0 0 0 0 0 0 0 0 0 0 127 127 127 127 127 127 127 127 127 127 127 127 127 127 127 127 127 127 127 127 127 127 127 127 127 127 127 127 127 127 127 127 127 127 127 127 131 133 135 136 138 139 141 142 144 145 147 148 150 151 153 154 156 157 158 160 161 162 164 165 166 167 169 170 171 172 173 174 175 176 175 165 141 130 128 128 128 128 128 128 128 128 128 128 128 128 128 128 128 128 128 128 128 128 128 128 128 128 128 128 128 128 128 128 128 128 128 128 128 128 128 128 128 128 128 128 128 128 128 128 128 128 128 128 128 128 128 128 128 128 128 128 128 128 128 128 128 128 128 128 128 128 128 128 128 128 128 128 128 128 128 128 128 128 128 128 128 128 128 128 128 128 128 130 131 133 135 136 138 139 141 142 144 145 147 148 150 151 153 154 156 157 158 160 161 162 164 165 166 167 169 170 171 172 173 174 175 176 175 165 141 130 128 128 128 128 128 128 128 128 128 128 128 128 128 128 128 128 128 128 128 128 128 128 128 128
128 128 128 128 128 128 128 128 128 128 128 128 128 128 128 128 128 128 128 128 128 128 128 128 119 83 76 77 78 79 80 81 82 84 85 86 87 88 90 91 92 93 95 96 98 99 100 102 103 105 106 108 110 111 112 114 115 117 119 120 122 123 125 127 128 194 237 237 237 237 236 236 236 235 235 234 234 234 233 233 232 232 231 231 231 230 229 229 228 228 227 226 226 225 224 223 222 221 220 219 218 217 216 214 213 211 210 208 206 204 202 199 197 194 191 188 185 181 177 173 169 164 159 154 148 142 137 131 128 128 128 128 128 128 128 128 128 128 128 128 128 128 128 128 128 128 128 128 128 128 128 128 119 83 76 77 78 79 80 81 82 84 85 86 87 88 90 91 92 93 95 96 98 99 100 102 103 105 106 108 110 111 112 114 115 117 119 120 122 123 125 127 127 127 127 127 127 127 127 127 127 127 127 127 127 127 127 127 127 127 127 127 127 127 127 127 127 127 127 127 127 127 127 127 127 0 0 0 0 0 0 0 0 0 0 0 0 0 0 0 0 0 0 0 0 0 0 0 0 0 0 0 0 0 0 0 0 0 0 0 0 0 0 0 0 0 0 0 0 0 0 0 0 0 0 0 0 0 0 0 0 0 0 0 0 0 127 127 127 127 127 127 127 127 127 127 127 127 127 127 127 127 127 127 127 127 127 127 127 127 127 127 127 127 127 127 127 127 127 127 127 127 132 133 135 136 138 140 141 143 144 145 147 149 150 152 153 155 156 157 159 160 161 163 164 166 167 168 169 171 172 173 174 175 176 177 178 178 173 149 132 128 128 128 128 128 128 128 128 128 128 128 128 128 128 128 128 128 128 128 128 128 128 128 128 128 128 128 128 128 128 128 128 128 128 128 128 128 128 128 128 128 128 128 128 128 128 128 128 128 128 128 128 128 128 128 128 128 128 128 128 128 128 128 128 128 128 128 128 128 128 128 128 128 128 128 128 128 128 128 128 128 128 128 128 128 128 128 128 130 132 133 135 136 138 140 141 143 144 145 147 149 150 152 153 155 156 157 159 160 161 163 164 166 167 168 169 171 172 173 174 175 176 177 178 178 173 149 132 128 128 128 128 128 128 128 128 128 128 128 128 128 128 128 128 128 128 128 128 128 128 128
128 128 128 128 128 128 128 128 128 128 128 128 128 128 128 128 128 128 128 128 128 128 128 111 75 74 75 76 77 78 79 80 81 83 84 85 86 88 89 90 91 93 94 96 97 99 100 101 103 104 106 107 109 110 112 114 115 117 119 120 122 123 125 127 128 169 236 236 236 235 235 235 234 234 234 233 233 232 232 231 231 231 230 229 229 228 228 227 226 226 225 224 224 223 222 221 220 219 218 217 216 214 213 212 210 209 207 205 203 201 199 197 194 191 188 185 182 178 174 170 166 162 157 152 147 141 136 130 128 128 128 128 128 128 128 128 128 128 128 128 128 128 128 128 128 128 128 128 128 128 128 111 75 74 75 76 77 78 79 80 81 83 84 85 86 88 89 90 91 93 94 96 97 99 100 101 103 104 106 107 109 110 112 114 115 117 119 120 122 123 125 127 127 127 127 127 127 127 127 127 127 127 127 127 127 127 127 127 127 127 127 127 127 127 127 127 127 127 127 127 127 127 127 127 127 0 0 0 0 0 0 0 0 0 0 0 0 0 0 0 0 0 0 0 0 0 0 0 0 0 0 0 0 0 0 0 0 0 0 0 0 0 0 0 0 0 0 0 0 0 0 0 0 0 0 0 0 0 0 0 0 0 0 0 0 0 127 127 127 127 127 127 127 127 127 127 127 127 127 127 127 127 127 127 127 127 127 127 127 127 127 127 127 127 127 127 127 127 127 127 127 127 132 133 135 137 138 140 141 143 144 146 148 149 151 152 154 155 156 158 159 161 162 164 165 166 167 169 170 171 172 174 175 176 177 178 179 180 181 177 157 135 129 128 128 128 128 128 128 128 128 128 128 128 128 128 128 128 128 128 128 128 128 128 128 128 128 128 128 128 128 128 128 128 128 128 128 128 128 128 128 128 128 128 128 128 128 128 128 128 128 128 128 128 128 128 128 128 128 128 128 128 128 128 128 128 128 128 128 128 128 128 128 128 128 128 128 128 128 128 128 128 128 128 128 128 128 128 128 130 132 133 135 137 138 140 141 143 144 146 148 149 151 152 154 155 156 158 159 161 162 164 165 166 167 169 170 171 172 174 175 176 177 178 179 180 181 177 157 135 129 128 128 128 128 128 128 128 128 128 128 128 128 128 128 128 128 128 128 128 128 128
128 128 128 128 128 128 128 128 128 128 128 128 128 128 128 128 128 128 128 128 128 128 101 72 72 73 74 75 76 77 79 80 81 82 83 84 86 87 88 89 91 92 94 95 96 98 99 101 102 104 105 107 109 110 112 114 115 117 118 120 122 123 125 127 128 139 233 235 234 234 234 233 233 232 232 232 231 231 230 230 229 229 228 228 227 227 226 225 225 224 223 222 222 221 220 219 218 217 216 214 213 212 211 209 208 206 204 202 200 198 196 194 191 189 186 183 179 176 172 168 164 160 155 151 146 140 135 130 128 128 128 128 128 128 128 128 128 128 128 128 128 128 128 128 128 128 128 128 128 128 101 72 72 73 74 75 76 77 79 80 81 82 83 84 86 87 88 89 91 92 94 95 96 98 99 101 102 104 105 107 109 110 112 114 115 117 118 120 122 123 125 127 127 127 127 127 127 127 127 127 127 127 127 127 127 127 127 127 127 127 127 127 127 127 127 127 127 127 127 127 127 127 127 127 127 0 0 0 0 0 0 0 0 0 0 0 0 0 0 0 0 0 0 0 0 0 0 0 0 0 0 0 0 0 0 0 0 0 0 0 0 0 0 0 0 0 0 0 0 0 0 0 0 0 0 0 0 0 0 0 0 0 0 0 0 0 127 127 127 127 127 127 127 127 127 127 127 127 127 127 127 127 127 127 127 127 127 127 127 127 127 127 127 127 127 127 127 127 127 127 127 127 131 133 135 137 138 140 142 143 145 146 148 150 151 153 154 156 157 159 160 161 163 164 165 167 168 169 171 172 173 174 175 177 178 179 180 181 182 183 181 165 137 129 128 128 128 128 128 128 128 128 128 128 128 128 128 128 128 128 128 128 128 128 128 128 128 128 128 128 128 128 128 128 128 128 128 128 128 128 128 128 128 128 128 128 128 128 128 128 128 128 128 128 128 128 128 128 128 128 128 128 128 128 128 128 128 128 128 128 128 128 128 128 128 128 128 128 128 128 128 128 128 128 128 128 128 128 128 130 131 133 135 137 138 140 142 143 145 146 148 150 151 153 154 156 157 159 160 161 163 164 165 167 168 169 171 172 173 174 175 177 178 179 180 181 182 183 181 165 137 129 128 128 128 128 128 128 128 128 128 128 128 128 128 128 128 128 128 128 128 128
128 128 128 128 128 128 128 128 128 128 128 128 128 128 128 128 128 128 128 128 127 96 69 70 71 72 73 74 75 76 77 79 80 81 82 84 85 86 88 89 90 92 93 94 96 97 99 100 102 103 105 107 108 110 112 113 115 117 118 120 122 123 125 127 128 129 216 233 233 232 232 232 231 231 231 230 230 229 229 228 228 227 227 226 226 225 224 224 223 222 221 221 220 219 218 217 216 215 214 212 211 210 209 207 205 204 202 200 198 196 194 191 189 186 183 180 177 173 170 166 162 158 154 149 144 140 135 130 128 128 128 128 128 128 128 128 128 128 128 128 128 128 128 128 128 128 128 128 127 96 69 70 71 72 73 74 75 76 77 79 80 81 82 84 85 86 88 89 90 92 93 94 96 97 99 100 102 103 105 107 108 110 112 113 115 117 118 120 122 123 125 127 127 127 127 127 127 127 127 127 127 127 127 127 127 127 127 127 127 127 127 127 127 127 127 127 127 127 127 127 127 127 127 127 127 0 0 0 0 0 0 0 0 0 0 0 0 0 0 0 0 0 0 0 0 0 0 0 0 0 0 0 0 0 0 0 0 0 0 0 0 0 0 0 0 0 0 0 0 0 0 0 0 0 0 0 0 0 0 0 0 0 0 0 0 0 127 127 127 127 127 127 127 127 127 127 127 127 127 127 127 127 127 127 127 127 127 127 127 127 127 127 127 127 127 127 127 127 127 127 127 127 132 133 135 137 138 140 142 144 145 147 148 150 152 153 155 156 158 159 161 162 163 165 166 167 169 170 171 173 174 175 176 177 179 180 181 182 183 184 185 184 170 140 129 128 128 128 128 128 128 128 128 128 128 128 128 128 128 128 128 128 128 128 128 128 128 128 128 128 128 128 128 128 128 128 128 128 128 128 128 128 128 128 128 128 128 128 128 128 128 128 128 128 128 128 128 128 128 128 128 128 128 128 128 128 128 128 128 128 128 128 128 128 128 128 128 128 128 128 128 128 128 128 128 128 128 128 128 130 132 133 135 137 138 140 142 144 145 147 148 150 152 153 155 156 158 159 161 162 163 165 166 167 169 170 171 173 174 175 176 177 179 180 181 182 183 184 185 184 170 140 129 128 128 128 128 128 128 128 128 128 128 128 128 128 128 128 128 128 128 128
128 128 128 128 128 128 128 128 128 128 128 128 128 128 128 128 128 128 128 125 89 67 68 69 70 71 72 73 74 75 77 78 79 80 82 83 84 86 87 88 90 91 92 94 95 97 98 100 101 103 105 106 108 110 111 113 114 116 118 120 121 123 125 127 128 128 191 232 232 231 231 231 230 230 229 229 229 228 228 227 226 226 225 225 224 223 223 222 221 220 220 219 218 217 216 215 214 213 212 210 209 208 206 205 203 201 200 198 196 193 191 189 186 184 181 178 175 172 168 164 160 156 152 148 144 139 134 130 128 128 128 128 128 128 128 128 128 128 128 128 128 128 128 128 128 128 128 125 89 67 68 69 70 71 72 73 74 75 77 78 79 80 82 83 84 86 87 88 90 91 92 94 95 97 98 100 101 103 105 106 108 110 111 113 114 116 118 120 121 123 125 127 127 127 127 127 127 127 127 127 127 127 127 127 127 127 127 127 127 127 127 127 127 127 127 127 127 127 127 127 127 127 127 127 127 0 0 0 0 0 0 0 0 0 0 0 0 0 0 0 0 0 0 0 0 0 0 0 0 0 0 0 0 0 0 0 0 0 0 0 0 0 0 0 0 0 0 0 0 0 0 0 0 0 0 0 0 0 0 0 0 0 0 0 0 0 127 127 127 127 127 127 127 127 127 127 127 127 127 127 127 127 127 127 127 127 127 127 127 127 127 127 127 127 127 127 127 127 127 127 127 127 132 133 135 137 139 140 142 144 146 147 149 150 152 154 155 157 158 160 161 163 164 166 167 168 169 171 172 173 175 176 177 178 179 180 182 183 184 185 186 187 186 174 142 130 128 128 128 128 128 128 128 128 128 128 128 128 128 128 128 128 128 128 128 128 128 128 128 128 128 128 128 128 128 128 128 128 128 128 128 128 128 128 128 128 128 128 128 128 128 128 128 128 128 128 128 128 128 128 128 128 128 128 128 128 128 128 128 128 128 128 128 128 128 128 128 128 128 128 128 128 128 128 128 128 128 128 128 130 132 133 135 137 139 140 142 144 146 147 149 150 152 154 155 157 158 160 161 163 164 166 167 168 169 171 172 173 175 176 177 178 179 180 182 183 184 185 186 187 186 174 142 130 128 128 128 128 128 128 128 128 128 128 128 128 128 128 128 128 128 128
128 128 128 128 128 128 128 128 128 128 128 128 128 128 128 128 128 128 125 83 66 66 68 68 70 71 72 73 74 75 76 77 78 80 81 82 83 85 86 87 89 90 92 93 95 96 98 99 101 102 104 106 107 109 111 113 114 116 118 120 121 123 125 127 128 128 158 231 231 230 230 229 229 229 228 227 227 227 226 225 225 224 224 223 222 222 221 220 220 219 218 217 216 215 214 213 212 211 209 208 207 205 204 202 201 199 197 196 193 191 189 187 184 182 179 176 173 169 166 163 159 155 151 147 143 139 134 130 128 128 128 128 128 128 128 128 128 128 128 128 128 128 128 128 128 128 125 83 66 66 68 68 70 71 72 73 74 75 76 77 78 80 81 82 83 85 86 87 89 90 92 93 95 96 98 99 101 102 104 106 107 109 111 113 114 116 118 120 121 123 125 127 127 127 127 127 127 127 127 127 127 127 127 127 127 127 127 127 127 127 127 127 127 127 127 127 127 127 127 127 127 127 127 127 127 0 0 0 0 0 0 0 0 0 0 0 0 0 0 0 0 0 0 0 0 0 0 0 0 0 0 0 0 0 0 0 0 0 0 0 0 0 0 0 0 0 0 0 0 0 0 0 0 0 0 0 0 0 0 0 0 0 0 0 0 0 127 127 127 127 127 127 127 127 127 127 127 127 127 127 127 127 127 127 127 127 127 127 127 127 127 127 127 127 127 127 127 127 127 127 127 127 132 134 135 137 139 141 142 144 146 147 149 151 152 154 156 157 159 160 162 163 165 166 168 169 170 172 173 174 175 177 178 179 180 181 182 183 184 185 187 187 188 188 177 143 130 128 128 128 128 128 128 128 128 128 128 128 128 128 128 128 128 128 128 128 128 128 128 128 128 128 128 128 128 128 128 128 128 128 128 128 128 128 128 128 128 128 128 128 128 128 128 128 128 128 128 128 128 128 128 128 128 128 128 128 128 128 128 128 128 128 128 128 128 128 128 128 128 128 128 128 128 128 128 128 128 128 129 130 132 134 135 137 139 141 142 144 146 147 149 151 152 154 156 157 159 160 162 163 165 166 168 169 170 172 173 174 175 177 178 179 180 181 182 183 184 185 187 187 188 188 177 143 130 128 128 128 128 128 128 128 128 128 128 128 128 128 128 128 128 128
128 128 128 128 128 128 128 128 128 128 128 128 128 128 128 128 128 125 82 64 65 66 67 68 68 70 71 72 73 74 75 76 78 79 80 81 83 84 85 87 88 89 91 93 94 95 97 99 100 102 104 105 107 109 110 112 114 116 117 119 121 123 125 126 128 128 131 221 229 229 229 228 228 227 227 226 226 225 224 224 223 223 222 221 221 220 219 219 218 217 216 215 214 213 212 211 210 209 208 206 205 204 202 200 199 197 195 193 191 189 187 184 182 180 177 174 171 168 164 161 157 154 150 146 142 138 134 130 128 128 128 128 128 128 128 128 128 128 128 128 128 128 128 128 128 125 82 64 65 66 67 68 68 70 71 72 73 74 75 76 78 79 80 81 83 84 85 87 88 89 91 93 94 95 97 99 100 102 104 105 107 109 110 112 114 116 117 119 121 123 125 126 127 127 127 127 127 127 127 127 127 127 127 127 127 127 127 127 127 127 127 127 127 127 127 127 127 127 127 127 127 127 127 127 127 0 0 0 0 0 0 0 0 0 0 0 0 0 0 0 0 0 0 0 0 0 0 0 0 0 0 0 0 0 0 0 0 0 0 0 0 0 0 0 0 0 0 0 0 0 0 0 0 0 0 0 0 0 0 0 0 0 0 0 0 0 127 127 127 127 127 127 127 127 127 127 127 127 127 127 127 127 127 127 127 127 127 127 127 127 127 127 127 127 127 127 127 127 127 127 127 127 132 134 136 138 139 141 143 145 146 148 150 151 153 155 156 158 160 161 163 164 165 167 168 170 171 172 174 175 176 177 179 180 181 182 183 184 185 186 187 188 189 190 190 178 143 129 128 128 128 128 128 128 128 128 128 128 128 128 128 128 128 128 128 128 128 128 128 128 128 128 128 128 128 128 128 128 128 128 128 128 128 128 128 128 128 128 128 128 128 128 128 128 128 128 128 128 128 128 128 128 128 128 128 128 128 128 128 128 128 128 128 128 128 128 128 128 128 128 128 128 128 128 128 128 128 128 128 130 132 134 136 138 139 141 143 145 146 148 150 151 153 155 156 158 160 161 163 164 165 167 168 170 171 172 174 175 176 177 179 180 181 182 183 184 185 186 187 188 189 190 190 178 143 129 128 128 128 128 128 128 128 128 128 128 128 128 128 128 128 128
128 128 128 128 128 128 128 128 128 128 128 128 128 128 128 128 127 87 62 63 64 64 66 67 68 69 70 71 72 73 74 76 77 78 79 80 82 83 84 86 87 89 90 92 93 95 96 98 100 101 103 105 107 108 110 112 114 115 117 119 121 123 125 127 128 128 128 195 228 228 227 227 226 226 225 225 224 224 223 222 222 221 221 220 219 219 218 217 216 215 214 213 213 211 210 209 208 207 206 204 203 202 200 199 197 195 193 191 189 187 185 182 180 177 175 172 169 166 163 159 156 152 149 145 141 137 134 129 128 128 128 128 128 128 128 128 128 128 128 128 128 128 128 128 127 87 62 63 64 64 66 67 68 69 70 71 72 73 74 76 77 78 79 80 82 83 84 86 87 89 90 92 93 95 96 98 100 101 103 105 107 108 110 112 114 115 117 119 121 123 125 127 127 127 127 127 127 127 127 127 127 127 127 127 127 127 127 127 127 127 127 127 127 127 127 127 127 127 127 127 127 127 127 127 127 0 0 0 0 0 0 0 0 0 0 0 0 0 0 0 0 0 0 0 0 0 0 0 0 0 0 0 0 0 0 0 0 0 0 0 0 0 0 0 0 0 0 0 0 0 0 0 0 0 0 0 0 0 0 0 0 0 0 0 0 0 127 127 127 127 127 127 127 127 127 127 127 127 127 127 127 127 127 127 127 127 127 127 127 127 127 127 127 127 127 127 127 127 127 127 127 127 132 134 136 138 140 141 143 145 147 148 150 152 154 155 157 159 160 162 163 165 166 168 169 170 172 173 175 176 177 178 180 181 182 183 184 185 186 187 188 189 190 191 192 191 179 142 129 128 128 128 128 128 128 128 128 128 128 128 128 128 128 128 128 128 128 128 128 128 128 128 128 128 128 128 128 128 128 128 128 128 128 128 128 128 128 128 128 128 128 128 128 128 128 128 128 128 128 128 128 128 128 128 128 128 128 128 128 128 128 128 128 128 128 128 128 128 128 128 128 128 128 128 128 128 128 128 129 130 132 134 136 138 140 141 143 145 147 148 150 152 154 155 157 159 160 162 163 165 166 168 169 170 172 173 175 176 177 178 180 181 182 183 184 185 186 187 188 189 190 191 192 191 179 142 129 128 128 128 128 128 128 128 128 128 128 128 128 128 128 128
128 128 128 128 128 128 128 128 128 128 128 128 128 128 128 128 93 60 61 62 63 64 65 66 67 68 69 70 71 72 73 74 76 77 78 80 81 82 84 85 87 88 89 91 93 94 96 98 99 101 102 104 106 108 110 112 113 115 117 119 121 123 125 127 128 128 128 158 226 227 226 226 225 224 224 223 223 222 222 221 220 220 219 219 218 217 216 215 215 214 213 212 211 210 209 208 206 205 204 203 201 200 198 196 195 193 191 189 187 185 183 181 178 176 173 170 167 164 161 158 155 151 148 144 141 137 133 129 128 128 128 128 128 128 128 128 128 128 128 128 128 128 128 128 93 60 61 62 63 64 65 66 67 68 69 70 71 72 73 74 76 77 78 80 81 82 84 85 87 88 89 91 93 94 96 98 99 101 102 104 106 108 110 112 113 115 117 119 121 123 125 127 127 127 127 127 127 127 127 127 127 127 127 127 127 127 127 127 127 127 127 127 127 127 127 127 127 127 127 127 127 127 127 127 127 0 0 0 0 0 0 0 0 0 0 0 0 0 0 0 0 0 0 0 0 0 0 0 0 0 0 0 0 0 0 0 0 0 0 0 0 0 0 0 0 0 0 0 0 0 0 0 0 0 0 0 0 0 0 0 0 0 0 0 0 0 127 127 127 127 127 127 127 127 127 127 127 127 127 127 127 127 127 127 127 127 127 127 127 127 127 127 127 127 127 127 127 127 127 127 127 127 132 134 136 138 140 142 143 145 147 149 151 153 154 156 158 159 161 162 164 165 167 169 170 171 173 174 175 177 178 179 180 182 183 184 185 186 187 188 189 190 191 192 193 194 193 177 139 129 128 128 128 128 128 128 128 128 128 128 128 128 128 128 128 128 128 128 128 128 128 128 128 128 128 128 128 128 128 128 128 128 128 128 128 128 128 128 128 128 128 128 128 128 128 128 128 128 128 128 128 128 128 128 128 128 128 128 128 128 128 128 128 128 128 128 128 128 128 128 128 128 128 128 128 128 128 128 128 130 132 134 136 138 140 142 143 145 147 149 151 153 154 156 158 159 161 162 164 165 167 169 170 171 173 174 175 177 178 179 180 182 183 184 185 186 187 188 189 190 191 192 193 194 193 177 139 129 128 128 128 128 128 128 128 128 128 128 128 128 128 128
128 128 128 128 128 128 128 128 128 128 128 128 128 128 128 97 58 59 60 61 62 63 64 65 66 67 68 69 70 71 73 74 75 76 77 79 80 81 83 84 86 87 89 90 92 93 95 97 98 100 102 104 105 107 109 111 113 115 117 119 121 123 125 127 128 128 128 130 215 225 225 224 224 223 223 222 222 221 220 220 219 218 218 217 216 216 215 214 213 212 211 210 209 208 207 206 205 203 202 201 199 198 196 195 193 191 189 187 185 183 181 179 176 174 171 169 166 163 160 157 154 150 147 144 140 136 133 129 128 128 128 128 128 128 128 128 128 128 128 128 128 128 128 97 58 59 60 61 62 63 64 65 66 67 68 69 70 71 73 74 75 76 77 79 80 81 83 84 86 87 89 90 92 93 95 97 98 100 102 104 105 107 109 111 113 115 117 119 121 123 125 127 127 127 127 127 127 127 127 127 127 127 127 127 127 127 127 127 127 127 127 127 127 127 127 127 127 127 127 127 127 127 127 127 127 0 0 0 0 0 0 0 0 0 0 0 0 0 0 0 0 0 0 0 0 0 0 0 0 0 0 0 0 0 0 0 0 0 0 0 0 0 0 0 0 0 0 0 0 0 0 0 0 0 0 0 0 0 0 0 0 0 0 0 0 0 127 127 127 127 127 127 127 127 127 127 127 127 127 127 127 127 127 127 127 127 127 127 127 127 127 127 127 127 127 127 127 127 127 127 127 127 133 134 136 138 140 142 144 146 148 149 151 153 155 156 158 160 162 163 165 166 168 169 171 172 174 175 176 178 179 180 181 183 184 185 186 187 188 189 190 191 192 193 194 195 196 194 174 136 128 128 128 128 128 128 128 128 128 128 128 128 128 128 128 128 128 128 128 128 128 128 128 128 128 128 128 128 128 128 128 128 128 128 128 128 128 128 128 128 128 128 128 128 128 128 128 128 128 128 128 128 128 128 128 128 128 128 128 128 128 128 128 128 128 128 128 128 128 128 128 128 128 128 128 128 128 128 129 130 133 134 136 138 140 142 144 146 148 149 151 153 155 156 158 160 162 163 165 166 168 169 171 172 174 175 176 178 179 180 181 183 184 185 186 187 188 189 190 191 192 193 194 195 196 194 174 136 128 128 128 128 128 128 128 128 128 128 128 128 128 128
128 128 128 128 128 128 128 128 128 128 128 128 128 128 108 58 57 58 59 60 61 62 63 64 65 66 67 68 69 70 71 73 74 75 76 78 79 80 82 83 85 86 88 89 91 93 94 96 98 100 101 103 105 107 109 111 113 115 117 119 121 123 124 127 128 128 128 128 182 224 224 223 222 222 221 221 220 220 219 218 218 217 216 215 215 214 213 212 212 211 209 209 207 207 205 204 203 202 200 199 197 196 194 193 191 189 188 186 184 182 179 177 175 172 170 167 164 161 159 156 153 149 146 143 139 136 133 129 128 128 128 128 128 128 128 128 128 128 128 128 128 128 108 58 57 58 59 60 61 62 63 64 65 66 67 68 69 70 71 73 74 75 76 78 79 80 82 83 85 86 88 89 91 93 94 96 98 100 101 103 105 107 109 111 113 115 117 119 121 123 124 127 127 127 127 127 127 127 127 127 127 127 127 127 127 127 127 127 127 127 127 127 127 127 127 127 127 127 127 127 127 127 127 127 127 0 0 0 0 0 0 0 0 0 0 0 0 0 0 0 0 0 0 0 0 0 0 0 0 0 0 0 0 0 0 0 0 0 0 0 0 0 0 0 0 0 0 0 0 0 0 0 0 0 0 0 0 0 0 0 0 0 0 0 0 0 127 127 127 127 127 127 127 127 127 127 127 127 127 127 127 127 127 127 127 127 127 127 127 127 127 127 127 127 127 127 127 127 127 127 127 127 133 134 137 139 140 142 144 146 148 150 152 154 156 157 159 161 162 164 166 167 169 170 171 173 175 176 177 179 180 181 182 184 185 186 187 188 189 190 191 192 193 194 195 196 197 198 194 167 134 128 128 128 128 128 128 128 128 128 128 128 128 128 128 128 128 128 128 128 128 128 128 128 128 128 128 128 128 128 128 128 128 128 128 128 128 128 128 128 128 128 128 128 128 128 128 128 128 128 128 128 128 128 128 128 128 128 128 128 128 128 128 128 128 128 128 128 128 128 128 128 128 128 128 128 128 128 129 130 133 134 137 139 140 142 144 146 148 150 152 154 156 157 159 161 162 164 166 167 169 170 171 173 175 176 177 179 180 181 182 184 185 186 187 188 189 190 191 192 193 194 195 196 197 198 194 167 134 128 128 128 128 128 128 128 128 128 128 128 128 128
128 128 128 128 128 128 128 128 128 128 128 128 128 118 59 56 56 57 58 59 60 61 62 63 64 65 66 67 68 69 70 72 73 74 75 77 78 80 81 82 84 85 87 89 90 92 94 95 97 99 101 103 105 106 108 110 112 114 116 118 120 122 124 127 128 128 128 128 142 220 222 222 221 221 220 220 219 218 218 217 216 216 215 214 213 213 212 211 210 209 208 207 206 205 204 203 201 200 199 197 196 194 193 191 190 188 186 184 182 180 178 176 173 171 169 166 163 160 157 155 152 149 145 142 139 136 133 129 128 128 128 128 128 128 128 128 128 128 128 128 128 118 59 56 56 57 58 59 60 61 62 63 64 65 66 67 68 69 70 72 73 74 75 77 78 80 81 82 84 85 87 89 90 92 94 95 97 99 101 103 105 106 108 110 112 114 116 118 120 122 124 127 127 127 127 127 127 127 127 127 127 127 127 127 127 127 127 127 127 127 127 127 127 127 127 127 127 127 127 127 127 127 127 127 127 0 0 0 0 0 0 0 0 0 0 0 0 0 0 0 0 0 0 0 0 0 0 0 0 0 0 0 0 0 0 0 0 0 0 0 0 0 0 0 0 0 0 0 0 0 0 0 0 0 0 0 0 0 0 0 0 0 0 0 0 0 127 127 127 127 127 127 127 127 127 127 127 127 127 127 127 127 127 127 127 127 127 127 127 127 127 127 127 127 127 127 127 127 127 127 127 127 133 135 137 139 141 143 145 147 149 151 152 154 156 158 160 161 163 165 166 168 169 171 172 174 175 177 178 180 181 182 183 185 186 187 188 189 190 191 192 193 194 195 196 197 198 199 199 194 158 132 128 128 128 128 128 128 128 128 128 128 128 128 128 128 128 128 128 128 128 128 128 128 128 128 128 128 128 128 128 128 128 128 128 128 128 128 128 128 128 128 128 128 128 128 128 128 128 128 128 128 128 128 128 128 128 128 128 128 128 128 128 128 128 128 128 128 128 128 128 128 128 128 128 128 128 128 129 131 133 135 137 139 141 143 145 147 149 151 152 154 156 158 160 161 163 165 166 168 169 171 172 174 175 177 178 180 181 182 183 185 186 187 188 189 190 191 192 193 194 195 196 197 198 199 199 194 158 132 128 128 128 128 128 128 128 128 128 128 128 128
128 128 128 128 128 128 128 128 128 128 128 128 125 67 54 54 55 56 57 58 59 60 61 62 63 64 65 66 67 68 69 70 72 73 75 76 77 79 80 81 83 85 86 88 89 91 93 95 97 98 100 102 104 106 108 110 112 114 116 118 120 122 124 127 128 128 128 128 128 195 221 221 220 219 219 218 218 217 216 216 215 214 213 213 212 211 210 209 208 208 206 205 204 203 202 201 200 199 197 196 194 193 191 190 188 186 184 183 181 178 176 174 172 169 167 164 162 159 157 154 151 148 145 142 139 136 132 129 128 128 128 128 128 128 128 128 128 128 128 128 125 67 54 54 55 56 57 58 59 60 61 62 63 64 65 66 67 68 69 70 72 73 75 76 77 79 80 81 83 85 86 88 89 91 93 95 97 98 100 102 104 106 108 110 112 114 116 118 120 122 124 127 127 127 127 127 127 127 127 127 127 127 127 127 127 127 127 127 127 127 127 127 127 127 127 127 127 127 127 127 127 127 127 127 127 0 0 0 0 0 0 0 0 0 0 0 0 0 0 0 0 0 0 0 0 0 0 0 0 0 0 0 0 0 0 0 0 0 0 0 0 0 0 0 0 0 0 0 0 0 0 0 0 0 0 0 0 0 0 0 0 0 0 0 0 0 127 127 127 127 127 127 127 127 127 127 127 127 127 127 127 127 127 127 127 127 127 127 127 127 127 127 127 127 127 127 127 127 127 127 127 127 133 135 137 139 141 143 145 147 149 151 153 155 157 159 160 162 164 166 167 169 171 172 173 175 176 178 179 181 182 183 184 186 187 188 189 190 191 192 194 194 195 196 197 198 199 200 201 200 192 149 130 128 128 128 128 128 128 128 128 128 128 128 128 128 128 128 128 128 128 128 128 128 128 128 128 128 128 128 128 128 128 128 128 128 128 128 128 128 128 128 128 128 128 128 128 128 128 128 128 128 128 128 128 128 128 128 128 128 128 128 128 128 128 128 128 128 128 128 128 128 128 128 128 128 128 128 129 131 133 135 137 139 141 143 145 147 149 151 153 155 157 159 160 162 164 166 167 169 171 172 173 175 176 178 179 181 182 183 184 186 187 188 189 190 191 192 194 194 195 196 197 198 199 200 201 200 192 149 130 128 128 128 128 128 128 128 128 128 128 128
128 128 128 128 128 128 128 128 128 128 128 128 85 52 53 54 54 55 56 57 58 59 60 61 62 63 64 65 66 67 68 69 71 72 73 75 76 78 79 81 82 84 85 87 89 91 92 94 96 98 99 101 103 105 107 109 111 114 116 118 120 122 124 126 128 128 128 128 128 153 219 219 219 218 218 217 216 216 215 214 214 213 212 211 211 210 209 208 207 206 205 204 203 202 201 200 198 197 196 194 193 191 190 188 186 185 183 181 179 177 175 173 170 168 166 163 161 158 155 153 150 147 144 141 138 135 132 129 128 128 128 128 128 128 128 128 128 128 128 128 85 52 53 54 54 55 56 57 58 59 60 61 62 63 64 65 66 67 68 69 71 72 73 75 76 78 79 81 82 84 85 87 89 91 92 94 96 98 99 101 103 105 107 109 111 114 116 118 120 122 124 126 127 127 127 127 127 127 127 127 127 127 127 127 127 127 127 127 127 127 127 127 127 127 127 127 127 127 127 127 127 127 127 127 127 0 0 0 0 0 0 0 0 0 0 0 0 0 0 0 0 0 0 0 0 0 0 0 0 0 0 0 0 0 0 0 0 0 0 0 0 0 0 0 0 0 0 0 0 0 0 0 0 0 0 0 0 0 0 0 0 0 0 0 0 0 127 127 127 127 127 127 127 127 127 127 127 127 127 127 127 127 127 127 127 127 127 127 127 127 127 127 127 127 127 127 127 127 127 127 127 127 133 135 137 139 141 143 146 148 150 152 154 156 158 159 161 163 165 166 168 170 171 173 174 176 178 179 180 182 183 184 185 187 188 189 190 191 192 193 194 195 196 197 198 199 200 201 202 202 201 185 140 129 128 128 128 128 128 128 128 128 128 128 128 128 128 128 128 128 128 128 128 128 128 128 128 128 128 128 128 128 128 128 128 128 128 128 128 128 128 128 128 128 128 128 128 128 128 128 128 128 128 128 128 128 128 128 128 128 128 128 128 128 128 128 128 128 128 128 128 128 128 128 128 128 128 128 129 131 133 135 137 139 141 143 146 148 150 152 154 156 158 159 161 163 165 166 168 170 171 173 174 176 178 179 180 182 183 184 185 187 188 189 190 191 192 193 194 195 196 197 198 199 200 201 202 202 201 185 140 129 128 128 128 128 128 128 128 128 128 128
128 128 128 128 128 128 128 128 128 128 128 104 50 51 52 53 53 54 55 56 57 58 59 59 61 62 63 64 65 66 67 68 70 71 72 74 75 77 78 80 81 83 84 86 88 89 91 93 95 97 99 101 103 105 107 109 111 113 115 117 120 122 124 126 128 128 128 128 128 129 199 218 218 217 217 216 215 215 214 213 212 212 211 210 209 208 208 207 206 205 203 203 202 200 199 198 197 195 194 193 191 190 188 187 185 183 181 180 177 175 174 171 169 167 164 162 160 157 154 152 149 146 144 141 138 135 132 129 128 128 128 128 128 128 128 128 128 128 128 104 50 51 52 53 53 54 55 56 57 58 59 59 61 62 63 64 65 66 67 68 70 71 72 74 75 77 78 80 81 83 84 86 88 89 91 93 95 97 99 101 103 105 107 109 111 113 115 117 120 122 124 126 127 127 127 127 127 127 127 127 127 127 127 127 127 127 127 127 127 127 127 127 127 127 127 127 127 127 127 127 127 127 127 127 127 0 0 0 0 0 0 0 0 0 0 0 0 0 0 0 0 0 0 0 0 0 0 0 0 0 0 0 0 0 0 0 0 0 0 0 0 0 0 0 0 0 0 0 0 0 0 0 0 0 0 0 0 0 0 0 0 0 0 0 0 0 127 127 127 127 127 127 127 127 127 127 127 127 127 127 127 127 127 127 127 127 127 127 127 127 127 127 127 127 127 127 127 127 127 127 127 127 133 135 138 140 142 144 146 148 150 152 154 156 158 160 162 164 166 167 169 171 172 174 176 177 179 180 181 183 184 185 186 188 189 190 191 192 193 194 196 196 197 198 199 200 201 202 203 203 204 201 173 134 128 128 128 128 128 128 128 128 128 128 128 128 128 128 128 128 128 128 128 128 128 128 128 128 128 128 128 128 128 128 128 128 128 128 128 128 128 128 128 128 128 128 128 128 128 128 128 128 128 128 128 128 128 128 128 128 128 128 128 128 128 128 128 128 128 128 128 128 128 128 128 128 128 128 129 131 133 135 138 140 142 144 146 148 150 152 154 156 158 160 162 164 166 167 169 171 172 174 176 177 179 180 181 183 184 185 186 188 189 190 191 192 193 194 196 196 197 198 199 200 201 202 203 203 204 201 173 134 128 128 128 128 128 128 128 128 128 128
128 128 128 128 128 128 128 128 128 128 121 57 49 50 51 51 52 53 54 55 56 57 57 58 59 60 61 63 64 65 66 67 69 70 71 73 74 76 77 79 80 82 83 85 87 88 90 92 94 96 98 100 102 104 106 108 111 113 115 117 120 122 124 126 128 128 128 128 128 128 157 217 216 216 215 215 214 213 213 212 211 210 210 209 208 207 206 205 204 203 202 201 200 199 198 197 195 194 193 191 190 188 187 185 183 182 180 178 176 174 172 170 168 166 163 161 159 156 154 151 148 146 143 140 137 135 132 129 128 128 128 128 128 128 128 128 128 128 121 57 49 50 51 51 52 53 54 55 56 57 57 58 59 60 61 63 64 65 66 67 69 70 71 73 74 76 77 79 80 82 83 85 87 88 90 92 94 96 98 100 102 104 106 108 111 113 115 117 120 122 124 126 127 127 127 127 127 127 127 127 127 127 127 127 127 127 127 127 127 127 127 127 127 127 127 127 127 127 127 127 127 127 127 127 127 0 0 0 0 0 0 0 0 0 0 0 0 0 0 0 0 0 0 0 0 0 0 0 0 0 0 0 0 0 0 0 0 0 0 0 0 0 0 0 0 0 0 0 0 0 0 0 0 0 0 0 0 0 0 0 0 0 0 0 0 0 127 127 127 127 127 127 127 127 127 127 127 127 127 127 127 127 127 127 127 127 127 127 127 127 127 127 127 127 127 127 127 127 127 127 127 127 133 135 138 140 142 144 147 149 151 153 155 157 159 161 163 165 166 168 170 172 173 175 176 178 179 181 182 184 185 187 188 189 190 191 192 193 194 195 197 198 199 199 200 201 202 203 204 205 205 206 200 155 130 128 128 128 128 128 128 128 128 128 128 128 128 128 128 128 128 128 128 128 128 128 128 128 128 128 128 128 128 128 128 128 128 128 128 128 128 128 128 128 128 128 128 128 128 128 128 128 128 128 128 128 128 128 128 128 128 128 128 128 128 128 128 128 128 128 128 128 128 128 128 128 128 128 129 131 133 135 138 140 142 144 147 149 151 153 155 157 159 161 163 165 166 168 170 172 173 175 176 178 179 181 182 184 185 187 188 189 190 191 192 193 194 195 197 198 199 199 200 201 202 203 204 205 205 206 200 155 130 128 128 128 128 128 128 128 128 128
128 128 128 128 128 128 128 128 128 128 79 47 48 49 50 50 51 52 53 54 54 55 56 57 58 59 61 61 63 64 65 66 67 69 70 71 73 74 76 77 79 81 82 84 86 87 89 91 93 95 97 99 101 104 106 108 110 112 115 117 119 122 124 126 128 128 128 128 128 128 129 197 215 215 214 214 213 212 211 211 210 209 208 208 207 206 205 204 203 202 201 200 199 198 196 195 194 192 191 190 188 187 185 184 182 180 179 177 175 173 171 169 167 165 162 160 157 155 153 150 148 145 142 140 137 134 132 129 128 128 128 128 128 128 128 128 128 128 79 47 48 49 50 50 51 52 53 54 54 55 56 57 58 59 61 61 63 64 65 66 67 69 70 71 73 74 76 77 79 81 82 84 86 87 89 91 93 95 97 99 101 104 106 108 110 112 115 117 119 122 124 126 127 127 127 127 127 127 127 127 127 127 127 127 127 127 127 127 127 127 127 127 127 127 127 127 127 127 127 127 127 127 127 127 127 0 0 0 0 0 0 0 0 0 0 0 0 0 0 0 0 0 0 0 0 0 0 0 0 0 0 0 0 0 0 0 0 0 0 0 0 0 0 0 0 0 0 0 0 0 0 0 0 0 0 0 0 0 0 0 0 0 0 0 0 0 127 127 127 127 127 127 127 127 127 127 127 127 127 127 127 127 127 127 127 127 127 127 127 127 127 127 127 127 127 127 127 127 127 127 127 127 133 136 138 140 143 145 147 149 151 154 156 158 160 162 164 166 167 169 171 173 174 176 178 179 181 182 184 185 186 188 188 190 191 192 194 195 196 197 198 199 200 201 201 203 203 204 205 206 206 207 207 191 141 129 128 128 128 128 128 128 128 128 128 128 128 128 128 128 128 128 128 128 128 128 128 128 128 128 128 128 128 128 128 128 128 128 128 128 128 128 128 128 128 128 128 128 128 128 128 128 128 128 128 128 128 128 128 128 128 128 128 128 128 128 128 128 128 128 128 128 128 128 128 128 128 128 129 131 133 136 138 140 143 145 147 149 151 154 156 158 160 162 164 166 167 169 171 173 174 176 178 179 181 182 184 185 186 188 188 190 191 192 194 195 196 197 198 199 200 201 201 203 203 204 205 206 206 207 207 191 141 129 128 128 128 128 128 128 128 128
128 128 128 128 128 128 128 128 128 106 45 46 47 47 48 49 50 51 51 52 53 54 55 56 57 58 59 60 61 63 64 65 66 68 69 70 72 73 75 76 78 79 81 83 85 87 88 90 92 94 96 99 101 103 105 107 110 112 114 117 119 121 124 126 128 128 128 128 128 128 128 152 214 214 213 212 212 211 210 210 209 208 207 206 205 204 203 203 202 201 199 199 197 196 195 194 192 191 190 188 187 185 184 182 181 179 177 175 174 172 170 168 166 164 161 159 157 154 152 150 147 145 142 139 137 134 131 129 128 128 128 128 128 128 128 128 128 106 45 46 47 47 48 49 50 51 51 52 53 54 55 56 57 58 59 60 61 63 64 65 66 68 69 70 72 73 75 76 78 79 81 83 85 87 88 90 92 94 96 99 101 103 105 107 110 112 114 117 119 121 124 126 127 127 127 127 127 127 127 127 127 127 127 127 127 127 127 127 127 127 127 127 127 127 127 127 127 127 127 127 127 127 127 127 127 0 0 0 0 0 0 0 0 0 0 0 0 0 0 0 0 0 0 0 0 0 0 0 0 0 0 0 0 0 0 0 0 0 0 0 0 0 0 0 0 0 0 0 0 0 0 0 0 0 0 0 0 0 0 0 0 0 0 0 0 0 127 127 127 127 127 127 127 127 127 127 127 127 127 127 127 127 127 127 127 127 127 127 127 127 127 127 127 127 127 127 127 127 127 127 127 127 134 136 138 141 143 145 148 150 152 154 157 159 161 163 165 167 168 170 172 174 175 177 179 180 182 183 185 186 187 189 190 191 192 193 195 196 197 198 199 200 201 202 202 203 204 205 206 207 207 208 209 206 174 134 128 128 128 128 128 128 128 128 128 128 128 128 128 128 128 128 128 128 128 128 128 128 128 128 128 128 128 128 128 128 128 128 128 128 128 128 128 128 128 128 128 128 128 128 128 128 128 128 128 128 128 128 128 128 128 128 128 128 128 128 128 128 128 128 128 128 128 128 128 128 128 128 129 131 134 136 138 141 143 145 148 150 152 154 157 159 161 163 165 167 168 170 172 174 175 177 179 180 182 183 185 186 187 189 190 191 192 193 195 196 197 198 199 200 201 202 202 203 204 205 206 207 207 208 209 206 174 134 128 128 128 128 128 128 128 128
128 128 128 128 128 128 128 128 125 57 44 45 46 47 47 48 49 50 50 51 52 53 54 55 56 57 58 59 60 61 63 64 65 66 68 69 71 72 73 75 77 78 80 82 84 86 87 89 91 93 95 98 100 102 105 107 109 111 114 116 119 121 124 126 128 128 128 128 128 128 128 128 189 213 212 211 211 210 209 208 207 207 206 205 204 203 202 201 200 199 198 197 196 195 194 192 191 190 189 187 186 184 183 181 179 178 176 174 172 170 169 167 165 163 160 158 156 154 151 149 146 144 141 139 136 134 131 129 128 128 128 128 128 128 128 128 125 57 44 45 46 47 47 48 49 50 50 51 52 53 54 55 56 57 58 59 60 61 63 64 65 66 68 69 71 72 73 75 77 78 80 82 84 86 87 89 91 93 95 98 100 102 105 107 109 111 114 116 119 121 124 126 127 127 127 127 127 127 127 127 127 127 127 127 127 127 127 127 127 127 127 127 127 127 127 127 127 127 127 127 127 127 127 127 127 0 0 0 0 0 0 0 0 0 0 0 0 0 0 0 0 0 0 0 0 0 0 0 0 0 0 0 0 0 0 0 0 0 0 0 0 0 0 0 0 0 0 0 0 0 0 0 0 0 0 0 0 0 0 0 0 0 0 0 0 0 127 127 127 127 127 127 127 127 127 127 127 127 127 127 127 127 127 127 127 127 127 127 127 127 127 127 127 127 127 127 127 127 127 127 127 127 134 136 139 141 144 146 148 151 153 155 157 160 161 164 166 168 169 171 173 175 176 178 180 182 183 184 186 187 189 190 191 192 194 195 196 197 198 199 200 201 202 203 204 205 206 206 207 208 209 209 210 210 202 151 130 128 128 128 128 128 128 128 128 128 128 128 128 128 128 128 128 128 128 128 128 128 128 128 128 128 128 128 128 128 128 128 128 128 128 128 128 128 128 128 128 128 128 128 128 128 128 128 128 128 128 128 128 128 128 128 128 128 128 128 128 128 128 128 128 128 128 128 128 128 128 128 129 131 134 136 139 141 144 146 148 151 153 155 157 160 161 164 166 168 169 171 173 175 176 178 180 182 183 184 186 187 189 190 191 192 194 195 196 197 198 199 200 201 202 203 204 205 206 206 207 208 209 209 210 210 202 151 130 128 128 128 128 128 128 128
128 128 128 128 128 128 128 128 94 42 43 44 45 45 46 47 47 48 49 50 51 52 53 54 55 56 57 58 59 60 61 63 64 65 66 68 69 71 72 74 76 77 79 81 83 84 86 88 90 92 95 97 99 102 104 106 109 111 113 116 118 121 124 126 128 128 128 128 128 128 128 128 142 208 210 210 209 209 208 207 206 206 205 204 203 202 201 200 199 198 197 196 195 194 192 191 190 189 187 186 184 183 182 180 178 176 175 173 171 169 168 166 164 161 160 157 155 153 151 148 146 144 141 139 136 134 131 129 128 128 128 128 128 128 128 128 94 42 43 44 45 45 46 47 47 48 49 50 51 52 53 54 55 56 57 58 59 60 61 63 64 65 66 68 69 71 72 74 76 77 79 81 83 84 86 88 90 92 95 97 99 102 104 106 109 111 113 116 118 121 124 126 127 127 127 127 127 127 127 127 127 127 127 127 127 127 127 127 127 127 127 127 127 127 127 127 127 127 127 127 127 127 127 127 127 0 0 0 0 0 0 0 0 0 0 0 0 0 0 0 0 0 0 0 0 0 0 0 0 0 0 0 0 0 0 0 0 0 0 0 0 0 0 0 0 0 0 0 0 0 0 0 0 0 0 0 0 0 0 0 0 0 0 0 0 0 127 127 127 127 127 127 127 127 127 127 127 127 127 127 127 127 127 127 127 127 127 127 127 127 127 127 127 127 127 127 127 127 127 127 127 127 134 136 139 141 144 146 149 151 154 156 158 160 163 165 167 169 170 172 174 176 178 179 181 183 184 186 187 189 190 191 192 194 195 196 197 198 199 200 201 202 203 204 205 206 207 207 208 209 210 211 211 212 211 186 136 128 128 128 128 128 128 128 128 128 128 128 128 128 128 128 128 128 128 128 128 128 128 128 128 128 128 128 128 128 128 128 128 128 128 128 128 128 128 128 128 128 128 128 128 128 128 128 128 128 128 128 128 128 128 128 128 128 128 128 128 128 128 128 128 128 128 128 128 128 128 128 129 131 134 136 139 141 144 146 149 151 154 156 158 160 163 165 167 169 170 172 174 176 178 179 181 183 184 186 187 189 190 191 192 194 195 196 197 198 199 200 201 202 203 204 205 206 207 207 208 209 210 211 211 212 211 186 136 128 128 128 128 128 128 128
128 128 128 128 128 128 128 121 44 41 42 43 43 44 45 46 46 47 48 49 50 50 52 52 53 54 56 56 58 59 60 61 63 64 65 67 68 69 71 73 74 76 78 79 81 83 85 87 89 91 94 96 98 101 103 105 108 111 113 116 118 121 123 126 128 128 128 128 128 128 128 128 128 173 210 209 208 207 207 206 205 204 203 202 202 201 200 199 198 197 196 195 193 192 191 190 189 187 186 185 183 182 180 179 177 175 174 172 170 168 167 165 163 161 159 157 154 152 150 148 145 143 141 138 136 134 131 129 128 128 128 128 128 128 128 121 44 41 42 43 43 44 45 46 46 47 48 49 50 50 52 52 53 54 56 56 58 59 60 61 63 64 65 67 68 69 71 73 74 76 78 79 81 83 85 87 89 91 94 96 98 101 103 105 108 111 113 116 118 121 123 126 127 127 127 127 127 127 127 127 127 127 127 127 127 127 127 127 127 127 127 127 127 127 127 127 127 127 127 127 127 127 127 127 127 0 0 0 0 0 0 0 0 0 0 0 0 0 0 0 0 0 0 0 0 0 0 0 0 0 0 0 0 0 0 0 0 0 0 0 0 0 0 0 0 0 0 0 0 0 0 0 0 0 0 0 0 0 0 0 0 0 0 0 0 0 127 127 127 127 127 127 127 127 127 127 127 127 127 127 127 127 127 127 127 127 127 127 127 127 127 127 127 127 127 127 127 127 127 127 127 127 134 137 139 142 145 147 150 152 154 157 159 161 164 166 168 170 172 174 175 177 179 181 182 184 185 187 188 190 191 192 194 195 196 197 199 199 201 202 203 203 204 205 206 207 208 209 210 210 211 212 212 213 214 208 159 131 128 128 128 128 128 128 128 128 128 128 128 128 128 128 128 128 128 128 128 128 128 128 128 128 128 128 128 128 128 128 128 128 128 128 128 128 128 128 128 128 128 128 128 128 128 128 128 128 128 128 128 128 128 128 128 128 128 128 128 128 128 128 128 128 128 128 128 128 128 128 129 131 134 137 139 142 145 147 150 152 154 157 159 161 164 166 168 170 172 174 175 177 179 181 182 184 185 187 188 190 191 192 194 195 196 197 199 199 201 202 203 203 204 205 206 207 208 209 210 210 211 212 212 213 214 208 159 131 128 128 128 128 128 128
128 128 128 128 128 128 128 86 40 40 41 42 42 43 44 44 45 46 47 47 49 49 50 51 52 53 54 55 56 57 59 60 61 62 64 65 67 68 70 71 73 75 76 78 80 82 84 86 88 90 93 95 97 100 102 105 107 110 113 115 118 121 124 126 128 128 128 128 128 128 128 128 128 131 196 208 207 206 206 205 204 203 203 201 201 200 199 198 197 196 195 194 192 191 190 188 188 186 185 184 182 181 179 178 176 174 173 171 169 167 166 164 162 160 158 156 154 151 149 147 145 143 140 138 136 133 131 129 128 128 128 128 128 128 128 86 40 40 41 42 42 43 44 44 45 46 47 47 49 49 50 51 52 53 54 55 56 57 59 60 61 62 64 65 67 68 70 71 73 75 76 78 80 82 84 86 88 90 93 95 97 100 102 105 107 110 113 115 118 121 124 126 127 127 127 127 127 127 127 127 127 127 127 127 127 127 127 127 127 127 127 127 127 127 127 127 127 127 127 127 127 127 127 127 127 0 0 0 0 0 0 0 0 0 0 0 0 0 0 0 0 0 0 0 0 0 0 0 0 0 0 0 0 0 0 0 0 0 0 0 0 0 0 0 0 0 0 0 0 0 0 0 0 0 0 0 0 0 0 0 0 0 0 0 0 0 127 127 127 127 127 127 127 127 127 127 127 127 127 127 127 127 127 127 127 127 127 127 127 127 127 127 127 127 127 127 127 127 127 127 127 127 134 137 140 142 145 148 150 153 155 157 160 162 165 167 169 171 173 175 177 179 180 182 184 185 187 188 190 191 192 194 195 196 198 199 200 201 202 203 204 205 206 207 208 208 209 210 211 211 212 213 214 214 215 213 193 138 128 128 128 128 128 128 128 128 128 128 128 128 128 128 128 128 128 128 128 128 128 128 128 128 128 128 128 128 128 128 128 128 128 128 128 128 128 128 128 128 128 128 128 128 128 128 128 128 128 128 128 128 128 128 128 128 128 128 128 128 128 128 128 128 128 128 128 128 128 128 129 132 134 137 140 142 145 148 150 153 155 157 160 162 165 167 169 171 173 175 177 179 180 182 184 185 187 188 190 191 192 194 195 196 198 199 200 201 202 203 204 205 206 207 208 208 209 210 211 211 212 213 214 214 215 213 193 138 128 128 128 128 128 128
128 128 128 128 128 128 120 41 38 39 40 40 41 42 42 43 44 45 45 46 47 48 49 50 51 52 53 54 55 56 57 58 60 61 62 64 65 67 68 70 72 73 75 77 79 81 83 85 87 89 92 94 96 99 101 104 107 109 112 115 118 120 123 126 128 128 128 128 128 128 128 128 128 128 149 205 206 205 205 204 203 202 201 200 199 199 198 197 195 194 193 192 191 190 189 188 187 185 184 182 181 179 178 176 175 173 172 170 168 166 165 163 161 159 157 155 153 151 149 147 144 142 140 138 135 133 131 129 128 128 128 128 128 128 120 41 38 39 40 40 41 42 42 43 44 45 45 46 47 48 49 50 51 52 53 54 55 56 57 58 60 61 62 64 65 67 68 70 72 73 75 77 79 81 83 85 87 89 92 94 96 99 101 104 107 109 112 115 118 120 123 126 127 127 127 127 127 127 127 127 127 127 127 127 127 127 127 127 127 127 127 127 127 127 127 127 127 127 127 127 127 127 127 127 127 0 0 0 0 0 0 0 0 0 0 0 0 0 0 0 0 0 0 0 0 0 0 0 0 0 0 0 0 0 0 0 0 0 0 0 0 0 0 0 0 0 0 0 0 0 0 0 0 0 0 0 0 0 0 0 0 0 0 0 0 0 127 127 127 127 127 127 127 127 127 127 127 127 127 127 127 127 127 127 127 127 127 127 127 127 127 127 127 127 127 127 127 127 127 127 127 127 135 137 140 143 146 148 151 154 156 159 161 163 166 168 170 172 174 176 178 180 182 183 185 187 188 190 191 193 194 195 197 198 199 200 201 202 203 204 205 206 207 208 209 210 210 211 212 213 213 214 215 215 216 216 212 163 131 128 128 128 128 128 128 128 128 128 128 128 128 128 128 128 128 128 128 128 128 128 128 128 128 128 128 128 128 128 128 128 128 128 128 128 128 128 128 128 128 128 128 128 128 128 128 128 128 128 128 128 128 128 128 128 128 128 128 128 128 128 128 128 128 128 128 128 128 128 129 132 135 137 140 143 146 148 151 154 156 159 161 163 166 168 170 172 174 176 178 180 182 183 185 187 188 190 191 193 194 195 197 198 199 200 201 202 203 204 205 206 207 208 209 210 210 211 212 213 213 214 215 215 216 216 212 163 131 128 128 128 128 128
128 128 128 128 128 128 86 37 37 38 39 39 40 40 41 42 43 43 44 45 46 47 48 48 49 50 51 52 54 55 56 57 58 60 61 62 64 65 67 68 70 72 74 75 77 80 81 84 86 88 90 93 95 98 100 103 106 109 112 114 117 120 123 126 128 128 128 128 128 128 128 128 128 128 128 173 205 204 203 203 202 201 200 199 198 197 196 196 194 193 192 191 190 189 188 186 185 184 183 181 180 179 177 176 174 172 171 169 167 166 164 162 160 158 156 154 152 150 148 146 144 142 140 138 135 133 131 129 128 128 128 128 128 128 86 37 37 38 39 39 40 40 41 42 43 43 44 45 46 47 48 48 49 50 51 52 54 55 56 57 58 60 61 62 64 65 67 68 70 72 74 75 77 80 81 84 86 88 90 93 95 98 100 103 106 109 112 114 117 120 123 126 127 127 127 127 127 127 127 127 127 127 127 127 127 127 127 127 127 127 127 127 127 127 127 127 127 127 127 127 127 127 127 127 127 0 0 0 0 0 0 0 0 0 0 0 0 0 0 0 0 0 0 0 0 0 0 0 0 0 0 0 0 0 0 0 0 0 0 0 0 0 0 0 0 0 0 0 0 0 0 0 0 0 0 0 0 0 0 0 0 0 0 0 0 0 127 127 127 127 127 127 127 127 127 127 127 127 127 127 127 127 127 127 127 127 127 127 127 127 127 127 127 127 127 127 127 127 127 127 127 127 135 138 141 144 146 149 152 154 157 160 162 164 167 169 171 174 175 177 180 181 183 185 187 188 190 191 193 194 195 197 198 199 200 202 203 203 205 206 207 208 208 209 210 211 212 212 213 214 215 215 216 217 217 218 216 195 138 128 128 128 128 128 128 128 128 128 128 128 128 128 128 128 128 128 128 128 128 128 128 128 128 128 128 128 128 128 128 128 128 128 128 128 128 128 128 128 128 128 128 128 128 128 128 128 128 128 128 128 128 128 128 128 128 128 128 128 128 128 128 128 128 128 128 128 128 128 129 132 135 138 141 144 146 149 152 154 157 160 162 164 167 169 171 174 175 177 180 181 183 185 187 188 190 191 193 194 195 197 198 199 200 202 203 203 205 206 207 208 208 209 210 211 212 212 213 214 215 215 216 217 217 218 216 195 138 128 128 128 128 128
128 128 128 128 128 122 39 36 36 37 37 38 39 39 40 41 41 42 43 44 44 45 46 47 48 49 50 51 52 53 54 56 57 58 59 61 62 64 65 67 69 70 72 74 76 78 80 82 85 87 89 92 94 97 100 102 105 108 111 114 117 120 123 126 128 128 128 128 128 128 128 128 128 128 128 131 189 203 202 202 201 200 199 198 197 196 195 194 193 192 191 190 189 188 187 185 184 183 182 180 179 178 176 174 173 171 170 168 166 165 163 161 159 158 156 154 152 150 148 146 143 141 139 137 135 133 131 129 128 128 128 128 128 122 39 36 36 37 37 38 39 39 40 41 41 42 43 44 44 45 46 47 48 49 50 51 52 53 54 56 57 58 59 61 62 64 65 67 69 70 72 74 76 78 80 82 85 87 89 92 94 97 100 102 105 108 111 114 117 120 123 126 127 127 127 127 127 127 127 127 127 127 127 127 127 127 127 127 127 127 127 127 127 127 127 127 127 127 127 127 127 127 127 127 127 0 0 0 0 0 0 0 0 0 0 0 0 0 0 0 0 0 0 0 0 0 0 0 0 0 0 0 0 0 0 0 0 0 0 0 0 0 0 0 0 0 0 0 0 0 0 0 0 0 0 0 0 0 0 0 0 0 0 0 0 0 127 127 127 127 127 127 127 127 127 127 127 127 127 127 127 127 127 127 127 127 127 127 127 127 127 127 127 127 127 127 127 127 127 127 127 127 135 138 141 144 147 150 153 155 158 161 163 166 168 170 173 175 177 179 181 183 185 186 188 190 191 193 194 196 197 198 200 201 202 203 204 205 206 207 208 209 210 211 211 212 213 214 214 215 216 216 217 218 218 219 219 213 160 131 128 128 128 128 128 128 128 128 128 128 128 128 128 128 128 128 128 128 128 128 128 128 128 128 128 128 128 128 128 128 128 128 128 128 128 128 128 128 128 128 128 128 128 128 128 128 128 128 128 128 128 128 128 128 128 128 128 128 128 128 128 128 128 128 128 128 128 128 129 132 135 138 141 144 147 150 153 155 158 161 163 166 168 170 173 175 177 179 181 183 185 186 188 190 191 193 194 196 197 198 200 201 202 203 204 205 206 207 208 209 210 211 211 212 213 214 214 215 216 216 217 218 218 219 219 213 160 131 128 128 128 128
128 128 128 128 128 91 34 35 35 36 36 37 37 38 38 39 40 41 41 42 43 44 45 46 46 47 48 50 51 52 53 54 55 57 58 59 61 62 64 65 67 69 71 73 74 77 79 81 83 86 88 91 93 96 98 101 104 107 110 113 116 120 123 126 128 128 128 128 128 128 128 128 128 128 128 128 141 198 201 201 200 199 198 197 196 195 194 194 192 191 190 189 188 187 186 184 183 182 181 179 178 176 175 173 172 171 169 167 166 164 162 160 159 157 155 153 151 149 147 145 143 141 139 137 135 133 131 129 128 128 128 128 128 91 34 35 35 36 36 37 37 38 38 39 40 41 41 42 43 44 45 46 46 47 48 50 51 52 53 54 55 57 58 59 61 62 64 65 67 69 71 73 74 77 79 81 83 86 88 91 93 96 98 101 104 107 110 113 116 120 123 126 127 127 127 127 127 127 127 127 127 127 127 127 127 127 127 127 127 127 127 127 127 127 127 127 127 127 127 127 127 127 127 127 127 0 0 0 0 0 0 0 0 0 0 0 0 0 0 0 0 0 0 0 0 0 0 0 0 0 0 0 0 0 0 0 0 0 0 0 0 0 0 0 0 0 0 0 0 0 0 0 0 0 0 0 0 0 0 0 0 0 0 0 0 0 127 127 127 127 127 127 127 127 127 127 127 127 127 127 127 127 127 127 127 127 127 127 127 127 127 127 127 127 127 127 127 127 127 127 127 127 136 139 142 145 148 151 154 157 159 162 164 167 169 172 174 176 178 181 183 184 186 188 190 191 193 194 196 197 199 200 201 202 203 204 205 206 208 208 209 210 211 212 213 213 214 215 216 216 217 218 218 219 219 220 221 219 192 136 128 128 128 128 128 128 128 128 128 128 128 128 128 128 128 128 128 128 128 128 128 128 128 128 128 128 128 128 128 128 128 128 128 128 128 128 128 128 128 128 128 128 128 128 128 128 128 128 128 128 128 128 128 128 128 128 128 128 128 128 128 128 128 128 128 128 128 128 129 132 136 139 142 145 148 151 154 157 159 162 164 167 169 172 174 176 178 181 183 184 186 188 190 191 193 194 196 197 199 200 201 202 203 204 205 206 208 208 209 210 211 212 213 213 214 215 216 216 217 218 218 219 219 220 221 219 192 136 128 128 128 128
128 128 128 128 125 48 33 33 34 34 35 35 36 37 37 38 39 39 40 41 42 42 43 44 45 46 47 48 49 50 51 52 54 55 56 58 59 60 62 64 65 67 69 71 73 75 77 79 82 84 86 89 92 95 97 100 104 106 109 113 116 119 122 126 128 128 128 128 128 128 128 128 128 128 128 128 128 154 199 199 199 198 197 196 195 194 193 192 191 190 189 188 187 186 185 183 182 181 180 178 177 175 174 172 171 169 168 166 165 163 161 160 158 156 154 152 151 149 147 145 143 141 139 137 135 133 131 129 128 128 128 128 125 48 33 33 34 34 35 35 36 37 37 38 39 39 40 41 42 42 43 44 45 46 47 48 49 50 51 52 54 55 56 58 59 60 62 64 65 67 69 71 73 75 77 79 82 84 86 89 92 95 97 100 104 106 109 113 116 119 122 126 127 127 127 127 127 127 127 127 127 127 127 127 127 127 127 127 127 127 127 127 127 127 127 127 127 127 127 127 127 127 127 127 127 0 0 0 0 0 0 0 0 0 0 0 0 0 0 0 0 0 0 0 0 0 0 0 0 0 0 0 0 0 0 0 0 0 0 0 0 0 0 0 0 0 0 0 0 0 0 0 0 0 0 0 0 0 0 0 0 0 0 0 0 0 127 127 127 127 127 127 127 127 127 127 127 127 127 127 127 127 127 127 127 127 127 127 127 127 127 127 127 127 127 127 127 127 127 127 127 127 136 139 142 145 149 152 155 157 160 163 166 169 171 173 176 178 180 182 184 186 188 190 191 193 194 196 197 199 200 201 203 204 205 206 207 208 209 210 211 212 213 213 214 215 216 216 217 218 218 219 220 220 221 221 222 222 214 152 130 128 128 128 128 128 128 128 128 128 128 128 128 128 128 128 128 128 128 128 128 128 128 128 128 128 128 128 128 128 128 128 128 128 128 128 128 128 128 128 128 128 128 128 128 128 128 128 128 128 128 128 128 128 128 128 128 128 128 128 128 128 128 128 128 128 128 128 129 133 136 139 142 145 149 152 155 157 160 163 166 169 171 173 176 178 180 182 184 186 188 190 191 193 194 196 197 199 200 201 203 204 205 206 207 208 209 210 211 212 213 213 214 215 216 216 217 218 218 219 220 220 221 221 222 222 214 152 130 128 128 128
128 128 128 128 106 31 31 32 32 33 34 34 35 35 36 37 37 38 39 39 40 41 42 43 44 45 46 46 48 48 50 51 52 53 55 56 57 59 61 62 64 66 67 69 71 73 76 78 80 83 85 88 91 93 96 99 102 106 109 112 116 119 122 126 128 128 128 128 128 128 128 128 128 128 128 128 128 128 167 198 198 197 196 195 194 193 192 191 190 189 188 187 186 185 184 182 181 180 179 177 176 175 173 171 170 169 167 166 164 162 161 159 157 156 154 152 150 148 146 144 142 140 139 137 134 133 130 129 128 128 128 128 106 31 31 32 32 33 34 34 35 35 36 37 37 38 39 39 40 41 42 43 44 45 46 46 48 48 50 51 52 53 55 56 57 59 61 62 64 66 67 69 71 73 76 78 80 83 85 88 91 93 96 99 102 106 109 112 116 119 122 126 127 127 127 127 127 127 127 127 127 127 127 127 127 127 127 127 127 127 127 127 127 127 127 127 127 127 127 127 127 127 127 127 127 0 0 0 0 0 0 0 0 0 0 0 0 0 0 0 0 0 0 0 0 0 0 0 0 0 0 0 0 0 0 0 0 0 0 0 0 0 0 0 0 0 0 0 0 0 0 0 0 0 0 0 0 0 0 0 0 0 0 0 0 0 127 127 127 127 127 127 127 127 127 127 127 127 127 127 127 127 127 127 127 127 127 127 127 127 127 127 127 127 127 127 127 127 127 127 127 127 136 139 143 146 149 153 156 159 161 164 167 170 172 175 177 179 182 184 186 188 189 191 193 194 196 197 199 200 202 203 204 205 207 207 209 209 211 212 212 213 214 215 215 216 217 218 218 219 220 220 221 221 222 222 223 224 221 183 134 128 128 128 128 128 128 128 128 128 128 128 128 128 128 128 128 128 128 128 128 128 128 128 128 128 128 128 128 128 128 128 128 128 128 128 128 128 128 128 128 128 128 128 128 128 128 128 128 128 128 128 128 128 128 128 128 128 128 128 128 128 128 128 128 128 128 128 129 133 136 139 143 146 149 153 156 159 161 164 167 170 172 175 177 179 182 184 186 188 189 191 193 194 196 197 199 200 202 203 204 205 207 207 209 209 211 212 212 213 214 215 215 216 217 218 218 219 220 220 221 221 222 222 223 224 221 183 134 128 128 128
128 128 128 128 67 30 30 31 31 32 32 33 33 34 35 35 36 37 37 38 39 40 40 41 42 43 44 45 46 47 48 49 50 52 53 54 56 57 59 60 62 64 66 68 70 72 74 76 79 81 84 86 89 92 95 98 101 105 108 111 115 119 122 126 128 128 128 128 128 128 128 128 128 128 128 128 128 128 129 176 197 196 195 194 193 192 191 190 189 188 187 186 185 184 183 181 180 179 178 176 175 174 172 171 169 168 166 165 163 162 160 158 156 155 153 151 149 148 146 144 142 140 138 136 134 133 130 129 128 128 128 128 67 30 30 31 31 32 32 33 33 34 35 35 36 37 37 38 39 40 40 41 42 43 44 45 46 47 48 49 50 52 53 54 56 57 59 60 62 64 66 68 70 72 74 76 79 81 84 86 89 92 95 98 101 105 108 111 115 119 122 126 127 127 127 127 127 127 127 127 127 127 127 127 127 127 127 127 127 127 127 127 127 127 127 127 127 127 127 127 127 127 127 127 127 0 0 0 0 0 0 0 0 0 0 0 0 0 0 0 0 0 0 0 0 0 0 0 0 0 0 0 0 0 0 0 0 0 0 0 0 0 0 0 0 0 0 0 0 0 0 0 0 0 0 0 0 0 0 0 0 0 0 0 0 0 127 127 127 127 127 127 127 127 127 127 127 127 127 127 127 127 127 127 127 127 127 127 127 127 127 127 127 127 127 127 127 127 127 127 127 127 136 140 144 147 150 154 157 160 163 166 169 171 174 176 179 181 183 185 187 189 191 193 195 196 198 199 201 202 203 205 206 207 208 209 210 211 212 213 214 215 216 216 217 218 218 219 220 220 221 222 222 223 223 224 224 225 224 209 141 128 128 128 128 128 128 128 128 128 128 128 128 128 128 128 128 128 128 128 128 128 128 128 128 128 128 128 128 128 128 128 128 128 128 128 128 128 128 128 128 128 128 128 128 128 128 128 128 128 128 128 128 128 128 128 128 128 128 128 128 128 128 128 128 128 128 128 129 133 136 140 144 147 150 154 157 160 163 166 169 171 174 176 179 181 183 185 187 189 191 193 195 196 198 199 201 202 203 205 206 207 208 209 210 211 212 213 214 215 216 216 217 218 218 219 220 220 221 222 222 223 223 224 224 225 224 209 141 128 128 128
128 128 128 121 31 29 29 30 30 30 31 31 32 33 33 34 35 35 36 37 37 38 39 40 40 41 42 43 44 45 46 48 49 50 51 52 54 55 57 59 60 62 64 66 68 70 72 74 77 79 82 85 88 91 94 97 100 104 107 111 114 118 122 126 128 128 128 128 128 128 128 128 128 128 128 128 128 128 128 131 180 195 194 193 192 191 190 189 188 187 186 185 184 183 182 180 179 178 177 175 174 173 171 170 169 167 165 164 162 161 159 158 156 154 153 151 149 147 145 143 142 140 138 136 134 132 130 128 128 128 128 121 31 29 29 30 30 30 31 31 32 33 33 34 35 35 36 37 37 38 39 40 40 41 42 43 44 45 46 48 49 50 51 52 54 55 57 59 60 62 64 66 68 70 72 74 77 79 82 85 88 91 94 97 100 104 107 111 114 118 122 126 127 127 127 127 127 127 127 127 127 127 127 127 127 127 127 127 127 127 127 127 127 127 127 127 127 127 127 127 127 127 127 127 127 0 0 0 0 0 0 0 0 0 0 0 0 0 0 0 0 0 0 0 0 0 0 0 0 0 0 0 0 0 0 0 0 0 0 0 0 0 0 0 0 0 0 0 0 0 0 0 0 0 0 0 0 0 0 0 0 0 0 0 0 0 127 127 127 127 127 127 127 127 127 127 127 127 127 127 127 127 127 127 127 127 127 127 127 127 127 127 127 127 127 127 127 127 127 127 127 127 137 141 144 148 151 155 158 161 164 167 170 173 176 178 181 183 185 187 189 191 193 195 196 198 200 201 203 204 205 206 208 209 210 211 212 213 214 215 215 216 217 218 219 219 220 220 221 222 222 223 223 224 224 225 226 226 227 221 164 131 128 128 128 128 128 128 128 128 128 128 128 128 128 128 128 128 128 128 128 128 128 128 128 128 128 128 128 128 128 128 128 128 128 128 128 128 128 128 128 128 128 128 128 128 128 128 128 128 128 128 128 128 128 128 128 128 128 128 128 128 128 128 128 128 128 128 129 133 137 141 144 148 151 155 158 161 164 167 170 173 176 178 181 183 185 187 189 191 193 195 196 198 200 201 203 204 205 206 208 209 210 211 212 213 214 215 215 216 217 218 219 219 220 220 221 222 222 223 223 224 224 225 226 226 227 221 164 131 128 128
128 128 128 96 27 27 28 28 28 29 30 30 31 31 32 32 33 34 34 35 36 36 37 38 39 40 41 42 43 44 45 46 47 48 49 51 52 53 55 57 58 60 62 64 66 68 70 73 75 78 80 83 86 89 92 96 99 103 106 110 114 118 122 126 128 128 128 128 128 128 128 128 128 128 128 128 128 128 128 128 134 183 193 192 191 190 189 188 187 186 185 184 183 182 181 180 178 177 176 175 173 172 170 169 168 166 165 163 162 160 159 157 155 154 152 150 148 147 145 143 141 140 138 136 134 132 130 129 128 128 128 96 27 27 28 28 28 29 30 30 31 31 32 32 33 34 34 35 36 36 37 38 39 40 41 42 43 44 45 46 47 48 49 51 52 53 55 57 58 60 62 64 66 68 70 73 75 78 80 83 86 89 92 96 99 103 106 110 114 118 122 126 127 127 127 127 127 127 127 127 127 127 127 127 127 127 127 127 127 127 127 127 127 127 127 127 127 127 127 127 127 127 127 127 127 0 0 0 0 0 0 0 0 0 0 0 0 0 0 0 0 0 0 0 0 0 0 0 0 0 0 0 0 0 0 0 0 0 0 0 0 0 0 0 0 0 0 0 0 0 0 0 0 0 0 0 0 0 0 0 0 0 0 0 0 0 127 127 127 127 127 127 127 127 127 127 127 127 127 127 127 127 127 127 127 127 127 127 127 127 127 127 127 127 127 127 127 127 127 127 127 127 137 141 145 149 152 156 159 163 166 169 172 175 177 180 182 185 187 189 191 193 195 197 199 200 202 203 204 206 207 208 209 210 211 213 213 214 215 216 217 218 219 219 220 221 221 222 222 223 224 224 225 225 226 226 227 227 228 225 193 135 128 128 128 128 128 128 128 128 128 128 128 128 128 128 128 128 128 128 128 128 128 128 128 128 128 128 128 128 128 128 128 128 128 128 128 128 128 128 128 128 128 128 128 128 128 128 128 128 128 128 128 128 128 128 128 128 128 128 128 128 128 128 128 128 128 128 129 134 137 141 145 149 152 156 159 163 166 169 172 175 177 180 182 185 187 189 191 193 195 197 199 200 202 203 204 206 207 208 209 210 211 213 213 214 215 216 217 218 219 219 220 221 221 222 222 223 224 224 225 225 226 226 227 227 228 225 193 135 128 128
128 128 128 62 26 26 27 27 27 28 28 29 29 30 31 31 32 32 33 33 34 35 36 36 37 38 39 40 41 42 43 44 45 46 47 49 50 52 53 55 56 58 60 62 64 66 68 70 73 76 78 81 84 88 91 94 98 102 105 109 113 117 121 125 128 128 128 128 128 128 128 128 128 128 128 128 128 128 128 128 128 136 183 191 190 189 188 187 186 185 184 183 182 181 180 179 177 176 175 174 172 171 170 168 167 165 164 163 161 160 158 156 155 153 151 150 148 146 145 143 141 139 138 136 134 132 130 128 128 128 128 62 26 26 27 27 27 28 28 29 29 30 31 31 32 32 33 33 34 35 36 36 37 38 39 40 41 42 43 44 45 46 47 49 50 52 53 55 56 58 60 62 64 66 68 70 73 76 78 81 84 88 91 94 98 102 105 109 113 117 121 125 127 127 127 127 127 127 127 127 127 127 127 127 127 127 127 127 127 127 127 127 127 127 127 127 127 127 127 127 127 127 127 127 127 0 0 0 0 0 0 0 0 0 0 0 0 0 0 0 0 0 0 0 0 0 0 0 0 0 0 0 0 0 0 0 0 0 0 0 0 0 0 0 0 0 0 0 0 0 0 0 0 0 0 0 0 0 0 0 0 0 0 0 0 0 127 127 127 127 127 127 127 127 127 127 127 127 127 127 127 127 127 127 127 127 127 127 127 127 127 127 127 127 127 127 127 127 127 127 127 127 138 142 146 150 154 157 161 164 168 171 174 177 180 182 184 187 189 191 193 195 197 199 200 202 204 205 206 208 209 210 211 212 213 214 215 216 217 218 219 219 220 221 221 222 223 223 224 224 225 226 226 227 227 228 228 229 229 228 215 143 128 128 128 128 128 128 128 128 128 128 128 128 128 128 128 128 128 128 128 128 128 128 128 128 128 128 128 128 128 128 128 128 128 128 128 128 128 128 128 128 128 128 128 128 128 128 128 128 128 128 128 128 128 128 128 128 128 128 128 128 128 128 128 128 128 128 130 134 138 142 146 150 154 157 161 164 168 171 174 177 180 182 184 187 189 191 193 195 197 199 200 202 204 205 206 208 209 210 211 212 213 214 215 216 217 218 219 219 220 221 221 222 223 223 224 224 225 226 226 227 227 228 228 229 229 228 215 143 128 128
128 128 121 28 24 25 25 26 26 27 27 28 28 28 29 29 30 31 31 32 33 33 34 35 36 36 37 38 39 40 41 42 43 44 46 47 48 49 51 52 54 56 58 60 62 64 66 68 71 74 76 79 82 86 89 92 96 100 104 108 112 117 121 125 128 128 128 128 128 128 128 128 128 128 128 128 128 128 128 128 128 128 136 182 190 188 187 187 185 184 183 182 181 180 179 178 177 175 174 173 172 170 169 168 166 165 163 162 160 159 157 156 154 152 151 149 147 146 144 142 141 139 137 135 134 132 130 129 128 128 121 28 24 25 25 26 26 27 27 28 28 28 29 29 30 31 31 32 33 33 34 35 36 36 37 38 39 40 41 42 43 44 46 47 48 49 51 52 54 56 58 60 62 64 66 68 71 74 76 79 82 86 89 92 96 100 104 108 112 117 121 125 127 127 127 127 127 127 127 127 127 127 127 127 127 127 127 127 127 127 127 127 127 127 127 127 127 127 127 127 127 127 127 127 127 0 0 0 0 0 0 0 0 0 0 0 0 0 0 0 0 0 0 0 0 0 0 0 0 0 0 0 0 0 0 0 0 0 0 0 0 0 0 0 0 0 0 0 0 0 0 0 0 0 0 0 0 0 0 0 0 0 0 0 0 0 127 127 127 127 127 127 127 127 127 127 127 127 127 127 127 127 127 127 127 127 127 127 127 127 127 127 127 127 127 127 127 127 127 127 127 127 139 143 147 151 155 159 163 166 169 173 176 179 182 184 187 189 191 193 196 197 199 201 202 204 205 207 208 209 211 212 213 214 215 216 217 218 219 220 220 221 222 222 223 224 224 225 225 226 227 227 227 228 229 229 229 230 230 231 225 164 131 128 128 128 128 128 128 128 128 128 128 128 128 128 128 128 128 128 128 128 128 128 128 128 128 128 128 128 128 128 128 128 128 128 128 128 128 128 128 128 128 128 128 128 128 128 128 128 128 128 128 128 128 128 128 128 128 128 128 128 128 128 128 128 128 128 130 134 139 143 147 151 155 159 163 166 169 173 176 179 182 184 187 189 191 193 196 197 199 201 202 204 205 207 208 209 211 212 213 214 215 216 217 218 219 220 220 221 222 222 223 224 224 225 225 226 227 227 227 228 229 229 229 230 230 231 225 164 131 128
128 128 102 23 23 24 24 24 25 25 26 26 27 27 28 28 29 29 30 30 31 32 32 33 34 35 35 36 37 38 39 40 41 42 44 45 46 47 49 50 52 54 55 57 59 62 64 66 69 71 74 77 80 84 87 91 95 99 103 107 112 116 120 125 128 128 128 128 128 128 128 128 128 128 128 128 128 128 128 128 128 128 128 135 178 188 187 186 185 184 183 182 180 179 178 177 176 175 173 172 171 169 168 167 166 164 163 161 160 158 157 155 154 152 150 149 147 146 144 142 140 139 137 135 133 132 130 128 128 128 102 23 23 24 24 24 25 25 26 26 27 27 28 28 29 29 30 30 31 32 32 33 34 35 35 36 37 38 39 40 41 42 44 45 46 47 49 50 52 54 55 57 59 62 64 66 69 71 74 77 80 84 87 91 95 99 103 107 112 116 120 125 127 127 127 127 127 127 127 127 127 127 127 127 127 127 127 127 127 127 127 127 127 127 127 127 127 127 127 127 127 127 127 127 127 0 0 0 0 0 0 0 0 0 0 0 0 0 0 0 0 0 0 0 0 0 0 0 0 0 0 0 0 0 0 0 0 0 0 0 0 0 0 0 0 0 0 0 0 0 0 0 0 0 0 0 0 0 0 0 0 0 0 0 0 0 127 127 127 127 127 127 127 127 127 127 127 127 127 127 127 127 127 127 127 127 127 127 127 127 127 127 127 127 127 127 127 127 127 127 127 127 139 144 148 152 156 160 164 168 172 175 178 181 184 186 189 191 193 196 198 200 201 203 205 206 208 209 210 212 213 214 215 216 217 218 219 220 220 221 222 223 223 224 225 225 226 226 227 228 228 229 229 229 230 230 231 231 231 232 229 191 135 128 128 128 128 128 128 128 128 128 128 128 128 128 128 128 128 128 128 128 128 128 128 128 128 128 128 128 128 128 128 128 128 128 128 128 128 128 128 128 128 128 128 128 128 128 128 128 128 128 128 128 128 128 128 128 128 128 128 128 128 128 128 128 128 128 130 134 139 144 148 152 156 160 164 168 172 175 178 181 184 186 189 191 193 196 198 200 201 203 205 206 208 209 210 212 213 214 215 216 217 218 219 220 220 221 222 223 223 224 225 225 226 226 227 228 228 229 229 229 230 230 231 231 231 232 229 191 135 128
128 128 77 22 22 22 23 23 23 24 24 25 25 25 26 27 27 28 28 29 29 30 31 32 32 33 34 35 35 36 37 38 39 40 41 43 44 45 47 48 50 51 53 55 57 59 61 64 66 69 72 75 78 82 85 89 93 97 101 106 110 115 120 125 128 128 128 128 128 128 128 128 128 128 128 128 128 128 128 128 128 128 128 128 133 173 186 185 184 183 182 181 180 179 177 176 175 174 173 171 170 169 167 166 165 163 162 161 159 158 156 155 153 152 150 148 147 145 144 142 140 138 137 135 133 132 130 128 128 128 77 22 22 22 23 23 23 24 24 25 25 25 26 27 27 28 28 29 29 30 31 32 32 33 34 35 35 36 37 38 39 40 41 43 44 45 47 48 50 51 53 55 57 59 61 64 66 69 72 75 78 82 85 89 93 97 101 106 110 115 120 125 127 127 127 127 127 127 127 127 127 127 127 127 127 127 127 127 127 127 127 127 127 127 127 127 127 127 127 127 127 127 127 127 127 0 0 0 0 0 0 0 0 0 0 0 0 0 0 0 0 0 0 0 0 0 0 0 0 0 0 0 0 0 0 0 0 0 0 0 0 0 0 0 0 0 0 0 0 0 0 0 0 0 0 0 0 0 0 0 0 0 0 0 0 0 127 127 127 127 127 127 127 127 127 127 127 127 127 127 127 127 127 127 127 127 127 127 127 127 127 127 127 127 127 127 127 127 127 127 127 127 140 144 149 154 158 162 166 170 173 177 180 183 186 189 191 194 196 198 200 202 204 205 207 209 210 211 212 214 215 216 217 218 219 220 221 221 222 223 224 224 225 226 226 227 227 228 228 229 229 230 230 231 231 231 232 232 232 233 232 212 140 128 128 128 128 128 128 128 128 128 128 128 128 128 128 128 128 128 128 128 128 128 128 128 128 128 128 128 128 128 128 128 128 128 128 128 128 128 128 128 128 128 128 128 128 128 128 128 128 128 128 128 128 128 128 128 128 128 128 128 128 128 128 128 128 128 130 135 140 144 149 154 158 162 166 170 173 177 180 183 186 189 191 194 196 198 200 202 204 205 207 209 210 211 212 214 215 216 217 218 219 220 221 221 222 223 224 224 225 226 226 227 227 228 228 229 229 230 230 231 231 231 232 232 232 233 232 212 140 128
128 129 34 20 21 21 21 22 22 22 23 23 24 24 25 25 25 26 27 27 28 28 29 29 30 31 32 33 34 34 35 36 37 38 39 40 42 43 44 46 47 49 51 53 55 56 59 61 64 66 69 72 76 79 83 87 91 95 100 104 109 115 120 125 128 128 128 128 128 128 128 128 128 128 128 128 128 128 128 128 128 128 128 128 128 131 167 184 183 182 181 180 179 178 177 175 174 173 172 171 169 168 167 165 164 163 161 160 159 157 156 154 153 151 150 148 146 145 143 142 140 138 137 135 133 131 130 128 128 129 34 20 21 21 21 22 22 22 23 23 24 24 25 25 25 26 27 27 28 28 29 29 30 31 32 33 34 34 35 36 37 38 39 40 42 43 44 46 47 49 51 53 55 56 59 61 64 66 69 72 76 79 83 87 91 95 100 104 109 115 120 125 127 127 127 127 127 127 127 127 127 127 127 127 127 127 127 127 127 127 127 127 127 127 127 127 127 127 127 127 127 127 127 127 127 0 0 0 0 0 0 0 0 0 0 0 0 0 0 0 0 0 0 0 0 0 0 0 0 0 0 0 0 0 0 0 0 0 0 0 0 0 0 0 0 0 0 0 0 0 0 0 0 0 0 0 0 0 0 0 0 0 0 0 0 0 127 127 127 127 127 127 127 127 127 127 127 127 127 127 127 127 127 127 127 127 127 127 127 127 127 127 127 127 127 127 127 127 127 127 127 127 140 146 151 155 160 164 168 172 176 179 183 186 189 191 194 196 198 200 202 204 206 208 209 211 212 213 214 216 217 218 219 220 221 222 222 223 224 225 225 226 227 227 228 228 229 229 230 230 231 231 232 232 232 233 233 234 234 234 235 226 151 129 128 128 128 128 128 128 128 128 128 128 128 128 128 128 128 128 128 128 128 128 128 128 128 128 128 128 128 128 128 128 128 128 128 128 128 128 128 128 128 128 128 128 128 128 128 128 128 128 128 128 128 128 128 128 128 128 128 128 128 128 128 128 128 128 130 135 140 146 151 155 160 164 168 172 176 179 183 186 189 191 194 196 198 200 202 204 206 208 209 211 212 213 214 216 217 218 219 220 221 222 222 223 224 225 225 226 227 227 228 228 229 229 230 230 231 231 232 232 232 233 233 234 234 234 235 226 151 129
128 116 20 19 20 20 20 20 21 21 21 22 22 23 23 24 24 25 25 26 26 27 27 28 29 29 30 31 32 32 33 34 35 36 37 38 39 41 42 44 45 46 48 50 52 54 56 59 61 64 67 70 73 77 80 85 89 93 98 103 108 114 119 125 128 128 128 128 128 128 128 128 128 128 128 128 128 128 128 128 128 128 128 128 128 128 129 157 181 181 180 179 178 177 176 175 174 172 171 170 169 167 166 165 164 162 161 159 158 156 155 154 152 151 149 148 146 144 143 141 140 138 137 135 133 132 130 128 128 116 20 19 20 20 20 20 21 21 21 22 22 23 23 24 24 25 25 26 26 27 27 28 29 29 30 31 32 32 33 34 35 36 37 38 39 41 42 44 45 46 48 50 52 54 56 59 61 64 67 70 73 77 80 85 89 93 98 103 108 114 119 125 127 127 127 127 127 127 127 127 127 127 127 127 127 127 127 127 127 127 127 127 127 127 127 127 127 127 127 127 127 127 127 127 127 0 0 0 0 0 0 0 0 0 0 0 0 0 0 0 0 0 0 0 0 0 0 0 0 0 0 0 0 0 0 0 0 0 0 0 0 0 0 0 0 0 0 0 0 0 0 0 0 0 0 0 0 0 0 0 0 0 0 0 0 0 127 127 127 127 127 127 127 127 127 127 127 127 127 127 127 127 127 127 127 127 127 127 127 127 127 127 127 127 127 127 127 127 127 127 127 127 141 147 152 157 162 166 170 174 178 182 185 188 191 194 197 199 201 203 205 207 209 210 212 213 214 216 217 218 219 220 221 222 223 224 224 225 226 226 227 228 228 229 229 230 231 231 231 232 232 233 233 234 234 234 235 235 235 236 236 231 173 132 128 128 128 128 128 128 128 128 128 128 128 128 128 128 128 128 128 128 128 128 128 128 128 128 128 128 128 128 128 128 128 128 128 128 128 128 128 128 128 128 128 128 128 128 128 128 128 128 128 128 128 128 128 128 128 128 128 128 128 128 128 128 128 128 130 136 141 147 152 157 162 166 170 174 178 182 185 188 191 194 197 199 201 203 205 207 209 210 212 213 214 216 217 218 219 220 221 222 223 224 224 225 226 226 227 228 228 229 229 230 231 231 231 232 232 233 233 234 234 234 235 235 235 236 236 231 173 132
128 100 18 18 18 18 19 19 19 20 20 21 21 21 22 22 22 23 23 24 24 25 26 26 27 28 28 29 30 30 31 32 33 34 35 36 37 38 40 41 42 44 45 47 49 51 53 56 58 61 63 67 70 74 78 82 86 91 96 101 107 113 119 125 128 128 128 128 128 128 128 128 128 128 128 128 128 128 128 128 128 128 128 128 128 128 128 128 146 177 179 178 177 176 175 174 173 172 171 169 168 167 166 164 163 161 160 159 157 156 155 153 152 150 149 147 145 144 143 141 140 138 136 135 133 132 130 128 128 100 18 18 18 18 19 19 19 20 20 21 21 21 22 22 22 23 23 24 24 25 26 26 27 28 28 29 30 30 31 32 33 34 35 36 37 38 40 41 42 44 45 47 49 51 53 56 58 61 63 67 70 74 78 82 86 91 96 101 107 113 119 125 127 127 127 127 127 127 127 127 127 127 127 127 127 127 127 127 127 127 127 127 127 127 127 127 127 127 127 127 127 127 127 127 127 0 0 0 0 0 0 0 0 0 0 0 0 0 0 0 0 0 0 0 0 0 0 0 0 0 0 0 0 0 0 0 0 0 0 0 0 0 0 0 0 0 0 0 0 0 0 0 0 0 0 0 0 0 0 0 0 0 0 0 0 0 127 127 127 127 127 127 127 127 127 127 127 127 127 127 127 127 127 127 127 127 127 127 127 127 127 127 127 127 127 127 127 127 127 127 127 127 142 148 154 159 164 169 173 177 181 185 188 191 194 197 199 202 204 206 208 210 211 213 214 216 217 218 219 220 221 222 223 224 225 226 226 227 228 228 229 229 230 231 231 231 232 232 233 233 234 234 234 235 235 236 236 236 237 237 237 234 194 135 128 128 128 128 128 128 128 128 128 128 128 128 128 128 128 128 128 128 128 128 128 128 128 128 128 128 128 128 128 128 128 128 128 128 128 128 128 128 128 128 128 128 128 128 128 128 128 128 128 128 128 128 128 128 128 128 128 128 128 128 128 128 128 128 131 137 142 148 154 159 164 169 173 177 181 185 188 191 194 197 199 202 204 206 208 210 211 213 214 216 217 218 219 220 221 222 223 224 225 226 226 227 228 228 229 229 230 231 231 231 232 232 233 233 234 234 234 235 235 236 236 236 237 237 237 234 194 136
128 81 16 16 17 17 17 18 18 18 19 19 19 20 20 20 21 21 22 22 23 23 24 24 25 25 26 27 28 28 29 30 31 31 33 34 35 36 37 38 40 41 43 44 46 48 51 53 55 58 61 64 67 71 75 79 84 89 94 99 105 111 118 124 128 128 128 128 128 128 128 128 128 128 128 128 128 128 128 128 128 128 128 128 128 128 128 128 128 136 168 178 176 175 174 173 172 171 170 169 167 166 165 164 162 161 160 158 157 156 154 153 151 150 148 147 145 144 142 141 139 138 136 135 133 131 130 128 128 81 16 16 17 17 17 18 18 18 19 19 19 20 20 20 21 21 22 22 23 23 24 24 25 25 26 27 28 28 29 30 31 31 33 34 35 36 37 38 40 41 43 44 46 48 51 53 55 58 61 64 67 71 75 79 84 89 94 99 105 111 118 124 127 127 127 127 127 127 127 127 127 127 127 127 127 127 127 127 127 127 127 127 127 127 127 127 127 127 127 127 127 127 127 127 127 0 0 0 0 0 0 0 0 0 0 0 0 0 0 0 0 0 0 0 0 0 0 0 0 0 0 0 0 0 0 0 0 0 0 0 0 0 0 0 0 0 0 0 0 0 0 0 0 0 0 0 0 0 0 0 0 0 0 0 0 0 127 127 127 127 127 127 127 127 127 127 127 127 127 127 127 127 127 127 127 127 127 127 127 127 127 127 127 127 127 127 127 127 127 127 127 127 144 150 156 161 166 171 176 180 184 188 191 195 197 200 202 205 207 209 211 212 214 215 217 218 219 220 221 222 223 224 225 226 227 228 228 229 229 230 231 231 232 232 233 233 234 234 235 235 235 236 236 236 237 237 237 238 238 238 238 237 212 139 128 128 128 128 128 128 128 128 128 128 128 128 128 128 128 128 128 128 128 128 128 128 128 128 128 128 128 128 128 128 128 128 128 128 128 128 128 128 128 128 128 128 128 128 128 128 128 128 128 128 128 128 128 128 128 128 128 128 128 128 128 128 128 128 131 137 144 150 156 161 166 171 176 180 184 188 191 195 197 200 202 205 207 209 211 212 214 215 217 218 219 220 221 222 223 224 225 226 227 228 228 229 229 230 231 231 232 232 233 233 234 234 235 235 235 236 236 236 237 237 237 238 238 238 238 237 212 139
128 63 15 15 15 16 16 16 17 17 17 18 18 18 18 19 19 20 20 20 21 22 22 23 23 24 24 25 25 26 27 28 29 29 30 31 32 33 34 36 37 38 40 42 43 45 47 49 52 54 57 60 64 67 72 76 81 86 91 97 104 110 117 124 128 128 128 128 128 128 128 128 128 128 128 128 128 128 128 128 128 128 128 128 128 128 128 128 128 128 130 155 175 175 173 173 171 170 169 168 167 165 164 163 162 160 159 158 156 155 154 152 151 149 148 146 145 144 142 140 139 138 136 135 133 131 130 128 128 63 15 15 15 16 16 16 17 17 17 18 18 18 18 19 19 20 20 20 21 22 22 23 23 24 24 25 25 26 27 28 29 29 30 31 32 33 34 36 37 38 40 42 43 45 47 49 52 54 57 60 64 67 72 76 81 86 91 97 104 110 117 124 127 127 127 127 127 127 127 127 127 127 127 127 127 127 127 127 127 127 127 127 127 127 127 127 127 127 127 127 127 127 127 127 127 0 0 0 0 0 0 0 0 0 0 0 0 0 0 0 0 0 0 0 0 0 0 0 0 0 0 0 0 0 0 0 0 0 0 0 0 0 0 0 0 0 0 0 0 0 0 0 0 0 0 0 0 0 0 0 0 0 0 0 0 0 127 127 127 127 127 127 127 127 127 127 127 127 127 127 127 127 127 127 127 127 127 127 127 127 127 127 127 127 127 127 127 127 127 127 127 127 145 152 158 164 169 174 179 183 187 191 195 198 201 203 205 208 210 212 213 215 217 218 219 220 222 223 224 225 226 227 227 228 229 229 230 231 231 232 233 233 234 234 234 235 235 236 236 237 237 237 238 238 238 238 239 239 239 239 240 239 226 144 128 128 128 128 128 128 128 128 128 128 128 128 128 128 128 128 128 128 128 128 128 128 128 128 128 128 128 128 128 128 128 128 128 128 128 128 128 128 128 128 128 128 128 128 128 128 128 128 128 128 128 128 128 128 128 128 128 128 128 128 128 128 128 128 131 138 145 152 158 164 169 174 179 183 187 191 195 198 201 203 205 208 210 212 213 215 217 218 219 220 222 223 224 225 226 227 227 228 229 229 230 231 231 232 233 233 234 234 234 235 235 236 236 237 237 237 238 238 238 238 239 239 239 239 240 239 226 145
130 25 14 14 14 14 15 15 15 16 16 16 16 17 17 17 18 18 19 19 19 20 20 20 21 22 22 23 23 24 25 25 26 27 28 29 30 31 32 33 34 36 37 39 40 42 44 46 48 51 54 57 60 64 68 72 77 83 88 95 101 109 116 124 128 128 128 128 128 128 128 128 128 128 128 128 128 128 128 128 128 128 128 128 128 128 128 128 128 128 128 128 140 166 173 172 171 170 168 167 166 165 164 162 161 160 159 157 156 155 153 152 150 149 148 146 145 143 142 140 139 137 136 134 133 131 130 128 130 25 14 14 14 14 15 15 15 16 16 16 16 17 17 17 18 18 19 19 19 20 20 20 21 22 22 23 23 24 25 25 26 27 28 29 30 31 32 33 34 36 37 39 40 42 44 46 48 51 54 57 60 64 68 72 77 83 88 95 101 109 116 124 127 127 127 127 127 127 127 127 127 127 127 127 127 127 127 127 127 127 127 127 127 127 127 127 127 127 127 127 127 127 127 127 127 0 0 0 0 0 0 0 0 0 0 0 0 0 0 0 0 0 0 0 0 0 0 0 0 0 0 0 0 0 0 0 0 0 0 0 0 0 0 0 0 0 0 0 0 0 0 0 0 0 0 0 0 0 0 0 0 0 0 0 0 0 127 127 127 127 127 127 127 127 127 127 127 127 127 127 127 127 127 127 127 127 127 127 127 127 127 127 127 127 127 127 127 127 127 127 127 127 147 154 160 167 173 178 183 187 191 195 198 201 204 207 209 211 213 215 217 218 220 221 222 223 224 225 226 227 228 229 230 230 231 232 232 233 233 234 234 235 235 236 236 237 237 237 238 238 238 239 239 239 240 240 240 240 241 241 241 241 234 154 129 128 128 128 128 128 128 128 128 128 128 128 128 128 128 128 128 128 128 128 128 128 128 128 128 128 128 128 128 128 128 128 128 128 128 128 128 128 128 128 128 128 128 128 128 128 128 128 128 128 128 128 128 128 128 128 128 128 128 128 128 128 128 128 132 139 147 154 160 167 173 178 183 187 191 195 198 201 204 207 209 211 213 215 217 218 220 221 222 223 224 225 226 227 228 229 230 230 231 232 232 233 233 234 234 235 235 236 236 237 237 237 238 238 238 239 239 239 240 240 240 240 241 241 241 241 234 157
116 14 12 13 13 13 13 14 14 14 14 15 15 15 16 16 16 16 17 17 17 18 18 19 19 19 20 21 21 22 22 23 24 24 25 26 27 28 29 30 31 32 34 35 37 39 40 42 45 47 50 53 56 60 64 68 73 79 85 92 99 106 115 123 128 128 128 128 128 128 128 128 128 128 128 128 128 128 128 128 128 128 128 128 128 128 128 128 128 128 128 128 128 130 151 169 170 169 168 167 165 164 163 162 161 159 158 157 155 154 153 151 150 149 147 146 145 143 142 140 139 137 136 134 133 131 130 128 116 14 12 13 13 13 13 14 14 14 14 15 15 15 16 16 16 16 17 17 17 18 18 19 19 19 20 21 21 22 22 23 24 24 25 26 27 28 29 30 31 32 34 35 37 39 40 42 45 47 50 53 56 60 64 68 73 79 85 92 99 106 115 123 127 127 127 127 127 127 127 127 127 127 127 127 127 127 127 127 127 127 127 127 127 127 127 127 127 127 127 127 127 127 127 127 127 0 0 0 0 0 0 0 0 0 0 0 0 0 0 0 0 0 0 0 0 0 0 0 0 0 0 0 0 0 0 0 0 0 0 0 0 0 0 0 0 0 0 0 0 0 0 0 0 0 0 0 0 0 0 0 0 0 0 0 0 0 127 127 127 127 127 127 127 127 127 127 127 127 127 127 127 127 127 127 127 127 127 127 127 127 127 127 127 127 127 127 127 127 127 127 127 127 148 156 163 170 176 182 187 191 195 199 202 205 208 210 213 215 216 218 220 221 222 224 225 226 227 228 229 230 231 231 232 233 233 234 234 235 236 236 236 237 237 238 238 238 239 239 239 240 240 240 241 241 241 241 241 242 242 242 242 243 238 173 132 128 128 128 128 128 128 128 128 128 128 128 128 128 128 128 128 128 128 128 128 128 128 128 128 128 128 128 128 128 128 128 128 128 128 128 128 128 128 128 128 128 128 128 128 128 128 128 128 128 128 128 128 128 128 128 128 128 128 128 128 128 128 128 132 140 148 156 163 170 176 182 187 191 195 199 202 205 208 210 213 215 216 218 220 221 222 224 225 226 227 228 229 230 231 231 232 233 233 234 234 235 236 236 236 237 237 238 238 238 239 239 239 240 240 240 241 241 241 241 241 242 242 242 242 243 238 176
114 11 11 12 12 12 12 12 12 13 13 13 13 14 14 14 14 15 15 15 16 16 17 17 17 18 18 19 19 20 20 21 22 22 23 24 24 25 26 27 28 29 31 32 33 35 37 39 41 43 46 48 52 55 59 64 69 75 81 88 96 104 113 123 128 128 128 128 128 128 128 128 128 128 128 128 128 128 128 128 128 128 128 128 128 128 128 128 128 128 128 128 128 128 128 134 156 168 167 166 165 164 163 161 160 159 157 156 155 154 152 151 150 148 147 145 144 143 141 140 138 137 136 134 132 131 130 128 114 11 11 12 12 12 12 12 12 13 13 13 13 14 14 14 14 15 15 15 16 16 17 17 17 18 18 19 19 20 20 21 22 22 23 24 24 25 26 27 28 29 31 32 33 35 37 39 41 43 46 48 52 55 59 64 69 75 81 88 96 104 113 123 127 127 127 127 127 127 127 127 127 127 127 127 127 127 127 127 127 127 127 127 127 127 127 127 127 127 127 127 127 127 127 127 127 0 0 0 0 0 0 0 0 0 0 0 0 0 0 0 0 0 0 0 0 0 0 0 0 0 0 0 0 0 0 0 0 0 0 0 0 0 0 0 0 0 0 0 0 0 0 0 0 0 0 0 0 0 0 0 0 0 0 0 0 0 127 127 127 127 127 127 127 127 127 127 127 127 127 127 127 127 127 127 127 127 127 127 127 127 127 127 127 127 127 127 127 127 127 127 127 127 151 159 167 174 180 186 191 196 200 203 206 209 212 214 216 218 220 222 223 224 226 227 228 229 230 231 231 232 233 234 234 235 235 236 236 237 237 238 238 239 239 239 240 240 240 241 241 241 241 242 242 242 242 243 243 243 243 243 244 244 240 187 134 128 128 128 128 128 128 128 128 128 128 128 128 128 128 128 128 128 128 128 128 128 128 128 128 128 128 128 128 128 128 128 128 128 128 128 128 128 128 128 128 128 128 128 128 128 128 128 128 128 128 128 128 128 128 128 128 128 128 128 128 128 128 128 133 142 151 159 167 174 180 186 191 196 200 203 206 209 212 214 216 218 220 222 223 224 226 227 228 229 230 231 231 232 233 234 234 235 235 236 236 237 237 238 238 239 239 239 240 240 240 241 241 241 241 242 242 242 242 243 243 243 243 243 244 244 240 192
95 10 10 10 10 10 11 11 11 11 11 11 12 12 12 13 13 13 13 13 14 14 15 15 15 16 16 16 17 17 18 18 19 20 20 21 22 22 23 24 25 26 27 28 30 31 33 35 36 39 41 44 47 50 54 59 64 70 76 84 92 102 111 122 128 128 128 128 128 128 128 128 128 128 128 128 128 128 128 128 128 128 128 128 128 128 128 128 128 128 128 128 128 128 128 128 128 138 157 165 164 163 162 161 159 158 157 156 154 153 152 151 149 148 146 145 144 142 141 140 138 137 135 134 132 131 130 128 96 10 10 10 10 10 11 11 11 11 11 11 12 12 12 13 13 13 13 13 14 14 15 15 15 16 16 16 17 17 18 18 19 20 20 21 22 22 23 24 25 26 27 28 30 31 33 35 36 39 41 44 47 50 54 59 64 70 76 84 92 102 111 122 127 127 127 127 127 127 127 127 127 127 127 127 127 127 127 127 127 127 127 127 127 127 127 127 127 127 127 127 127 127 127 127 127 0 0 0 0 0 0 0 0 0 0 0 0 0 0 0 0 0 0 0 0 0 0 0 0 0 0 0 0 0 0 0 0 0 0 0 0 0 0 0 0 0 0 0 0 0 0 0 0 0 0 0 0 0 0 0 0 0 0 0 0 0 127 127 127 127 127 127 127 127 127 127 127 127 127 127 127 127 127 127 127 127 127 127 127 127 127 127 127 127 127 127 127 127 127 127 127 127 154 163 171 179 185 191 196 201 205 208 211 214 216 218 220 222 224 225 227 228 229 230 231 232 232 233 234 235 235 236 237 237 238 238 239 239 239 240 240 240 241 241 241 242 242 242 243 243 243 243 244 244 244 244 244 244 245 245 245 245 242 200 136 128 128 128 128 128 128 128 128 128 128 128 128 128 128 128 128 128 128 128 128 128 128 128 128 128 128 128 128 128 128 128 128 128 128 128 128 128 128 128 128 128 128 128 128 128 128 128 128 128 128 128 128 128 128 128 128 128 128 128 128 128 128 128 134 144 154 163 171 179 185 191 196 201 205 208 211 214 216 218 220 222 224 225 227 228 229 230 231 232 232 233 234 235 235 236 237 237 238 238 239 239 239 240 240 240 241 241 241 242 242 242 243 243 243 243 244 244 244 244 244 244 245 245 245 245 242 205
98 8 9 9 9 9 9 9 9 10 10 10 10 10 11 11 11 11 11 12 12 12 13 13 13 14 14 14 15 15 16 16 17 17 18 18 19 19 20 21 22 23 24 25 26 27 29 31 32 34 36 39 42 45 49 53 58 64 71 78 87 98 109 121 128 128 128 128 128 128 128 128 128 128 128 128 128 128 128 128 128 128 128 128 128 128 128 128 128 128 128 128 128 128 128 128 128 128 128 138 155 162 161 160 159 158 157 155 154 153 152 150 149 148 146 145 143 142 141 139 138 137 135 134 132 131 130 128 99 8 9 9 9 9 9 9 9 10 10 10 10 10 11 11 11 11 11 12 12 12 13 13 13 14 14 14 15 15 16 16 17 17 18 18 19 19 20 21 22 23 24 25 26 27 29 31 32 34 36 39 42 45 49 53 58 64 71 78 87 98 109 121 127 127 127 127 127 127 127 127 127 127 127 127 127 127 127 127 127 127 127 127 127 127 127 127 127 127 127 127 127 127 127 127 127 0 0 0 0 0 0 0 0 0 0 0 0 0 0 0 0 0 0 0 0 0 0 0 0 0 0 0 0 0 0 0 0 0 0 0 0 0 0 0 0 0 0 0 0 0 0 0 0 0 0 0 0 0 0 0 0 0 0 0 0 0 127 127 127 127 127 127 127 127 127 127 127 127 127 127 127 127 127 127 127 127 127 127 127 127 127 127 127 127 127 127 127 127 127 127 127 127 157 168 177 184 191 197 202 206 210 213 216 219 221 223 224 226 228 229 230 231 232 233 234 235 235 236 237 237 238 238 239 239 240 240 241 241 241 242 242 242 243 243 243 244 244 244 244 244 245 245 245 245 245 246 246 246 246 246 246 247 244 210 138 128 128 128 128 128 128 128 128 128 128 128 128 128 128 128 128 128 128 128 128 128 128 128 128 128 128 128 128 128 128 128 128 128 128 128 128 128 128 128 128 128 128 128 128 128 128 128 128 128 128 128 128 128 128 128 128 128 128 128 128 128 128 129 135 146 157 168 177 184 191 197 202 206 210 213 216 219 221 223 224 226 228 229 230 231 232 233 234 235 235 236 237 237 238 238 239 239 240 240 241 241 241 242 242 242 243 243 243 244 244 244 244 244 245 245 245 245 245 246 246 246 246 246 246 247 244 216
71 7 7 7 8 8 8 8 8 8 8 8 9 9 9 9 9 10 10 10 10 11 11 11 11 12 12 12 12 13 13 14 14 14 15 16 16 17 17 18 19 19 20 21 22 23 25 26 28 30 32 34 36 39 43 47 51 57 64 72 82 93 106 120 128 128 128 128 128 128 128 128 128 128 128 128 128 128 128 128 128 128 128 128 128 128 128 128 128 128 128 128 128 128 128 128 128 128 128 128 128 136 150 159 159 157 156 155 154 152 151 150 148 147 146 145 143 142 140 139 138 136 135 134 132 131 130 128 73 7 7 7 8 8 8 8 8 8 8 8 9 9 9 9 9 10 10 10 10 11 11 11 11 12 12 12 12 13 13 14 14 14 15 16 16 17 17 18 19 19 20 21 22 23 25 26 28 30 32 34 36 39 43 47 51 57 64 72 82 93 106 120 127 127 127 127 127 127 127 127 127 127 127 127 127 127 127 127 127 127 127 127 127 127 127 127 127 127 127 127 127 127 127 127 127 0 0 0 0 0 0 0 0 0 0 0 0 0 0 0 0 0 0 0 0 0 0 0 0 0 0 0 0 0 0 0 0 0 0 0 0 0 0 0 0 0 0 0 0 0 0 0 0 0 0 0 0 0 0 0 0 0 0 0 0 0 127 127 127 127 127 127 127 127 127 127 127 127 127 127 127 127 127 127 127 127 127 127 127 127 127 127 127 127 127 127 127 127 127 127 127 127 162 174 183 191 198 204 209 213 216 219 222 224 226 227 229 230 231 233 234 235 236 236 237 238 238 239 240 240 240 241 241 242 242 243 243 243 244 244 244 244 245 245 245 245 245 246 246 246 246 246 246 247 247 247 247 247 247 248 248 248 246 221 140 128 128 128 128 128 128 128 128 128 128 128 128 128 128 128 128 128 128 128 128 128 128 128 128 128 128 128 128 128 128 128 128 128 128 128 128 128 128 128 128 128 128 128 128 128 128 128 128 128 128 128 128 128 128 128 128 128 128 128 128 128 128 129 136 149 162 174 183 191 198 204 209 213 216 219 222 224 226 227 229 230 231 233 234 235 236 236 237 238 238 239 240 240 240 241 241 242 242 243 243 243 244 244 244 244 245 245 245 245 245 246 246 246 246 246 246 247 247 247 247 247 247 248 248 248 246 228
71 6 6 6 6 6 6 6 7 7 7 7 7 7 8 8 8 8 8 8 9 8 9 9 9 10 10 10 10 11 11 11 12 12 12 13 13 13 14 15 15 16 17 18 19 19 21 22 23 25 26 28 30 33 36 40 44 49 56 64 74 86 101 119 128 128 128 128 128 128 128 128 128 128 128 128 128 128 128 128 128 128 128 128 128 128 128 128 128 128 128 128 128 128 128 128 128 128 128 128 128 128 128 132 143 153 156 154 153 152 151 150 148 147 146 144 143 142 140 139 138 136 135 134 132 131 129 128 73 6 6 6 6 6 6 6 7 7 7 7 7 7 8 8 8 8 8 8 9 8 9 9 9 10 10 10 10 11 11 11 12 12 12 13 13 13 14 15 15 16 17 18 19 19 21 22 23 25 26 28 30 33 36 40 44 49 56 64 74 86 101 119 127 127 127 127 127 127 127 127 127 127 127 127 127 127 127 127 127 127 127 127 127 127 127 127 127 127 127 127 127 127 127 127 127 0 0 0 0 0 0 0 0 0 0 0 0 0 0 0 0 0 0 0 0 0 0 0 0 0 0 0 0 0 0 0 0 0 0 0 0 0 0 0 0 0 0 0 0 0 0 0 0 0 0 0 0 0 0 0 0 0 0 0 0 0 127 127 127 127 127 127 127 127 127 127 127 127 127 127 127 127 127 127 127 127 127 127 127 127 127 127 127 127 127 127 127 127 127 127 127 127 169 181 191 199 206 211 215 219 222 225 227 229 231 232 233 235 236 237 237 238 239 240 240 241 241 242 242 243 243 244 244 244 245 245 245 245 246 246 246 246 247 247 247 247 247 247 248 248 248 248 248 248 248 248 249 249 249 249 249 249 248 226 141 128 128 128 128 128 128 128 128 128 128 128 128 128 128 128 128 128 128 128 128 128 128 128 128 128 128 128 128 128 128 128 128 128 128 128 128 128 128 128 128 128 128 128 128 128 128 128 128 128 128 128 128 128 128 128 128 128 128 128 128 128 128 129 137 154 169 181 191 199 206 211 215 219 222 225 227 229 231 232 233 235 236 237 237 238 239 240 240 241 241 242 242 243 243 244 244 244 245 245 245 245 246 246 246 246 247 247 247 247 247 247 248 248 248 248 248 248 248 248 249 249 249 249 249 249 248 233
76 4 5 5 5 5 5 5 5 5 5 5 5 6 6 6 6 6 6 6 6 7 7 7 7 7 8 8 8 8 8 9 9 9 10 10 10 11 11 12 12 13 13 14 14 15 16 17 18 19 21 22 24 26 29 32 36 40 46 54 64 77 95 116 128 128 128 128 128 128 128 128 128 128 128 128 128 128 128 128 128 128 128 128 128 128 128 128 128 128 128 128 128 128 128 128 128 128 128 128 128 128 128 128 128 128 135 144 150 152 150 149 148 146 145 144 143 141 140 139 138 136 135 133 132 131 130 128 77 4 5 5 5 5 5 5 5 5 5 5 5 6 6 6 6 6 6 6 6 7 7 7 7 7 8 8 8 8 8 9 9 9 10 10 10 11 11 12 12 13 13 14 14 15 16 17 18 19 21 22 24 26 29 32 36 40 46 54 64 77 95 116 127 127 127 127 127 127 127 127 127 127 127 127 127 127 127 127 127 127 127 127 127 127 127 127 127 127 127 127 127 127 127 127 127 0 0 0 0 0 0 0 0 0 0 0 0 0 0 0 0 0 0 0 0 0 0 0 0 0 0 0 0 0 0 0 0 0 0 0 0 0 0 0 0 0 0 0 0 0 0 0 0 0 0 0 0 0 0 0 0 0 0 0 0 0 127 127 127 127 127 127 127 127 127 127 127 127 127 127 127 127 127 127 127 127 127 127 127 127 127 127 127 127 127 127 127 127 127 127 127 127 178 191 201 209 215 220 223 226 229 231 233 234 236 237 238 239 240 241 241 242 242 243 244 244 244 245 245 246 246 246 247 246 247 247 247 247 247 248 248 248 248 249 249 249 249 249 249 249 249 249 250 250 250 250 250 250 250 250 250 251 249 232 142 128 128 128 128 128 128 128 128 128 128 128 128 128 128 128 128 128 128 128 128 128 128 128 128 128 128 128 128 128 128 128 128 128 128 128 128 128 128 128 128 128 128 128 128 128 128 128 128 128 128 128 128 128 128 128 128 128 128 128 128 128 128 129 140 161 178 191 201 209 215 220 223 226 229 231 233 234 236 237 238 239 240 241 241 242 242 243 244 244 244 245 245 246 246 246 247 246 247 247 247 247 247 248 248 248 248 249 249 249 249 249 249 249 249 249 250 250 250 250 250 250 250 250 250 251 249 238
70 3 3 3 3 3 4 4 4 4 4 4 4 4 4 4 4 4 4 5 5 5 5 5 5 5 5 6 6 6 6 6 6 7 7 7 7 8 8 8 9 9 9 10 10 11 12 12 13 14 15 16 17 19 21 23 26 30 35 41 51 64 84 112 128 128 128 128 128 128 128 128 128 128 128 128 128 128 128 128 128 128 128 128 128 128 128 128 128 128 128 128 128 128 128 128 128 128 128 128 128 128 128 128 128 128 128 128 128 134 140 145 147 146 145 144 142 141 140 139 137 136 135 133 132 131 129 128 72 3 3 3 3 3 4 4 4 4 4 4 4 4 4 4 4 4 4 5 5 5 5 5 5 5 5 6 6 6 6 6 6 7 7 7 7 8 8 8 9 9 9 10 10 11 12 12 13 14 15 16 17 19 21 23 26 30 35 41 51 64 84 112 127 127 127 127 127 127 127 127 127 127 127 127 127 127 127 127 127 127 127 127 127 127 127 127 127 127 127 127 127 127 127 127 127 0 0 0 0 0 0 0 0 0 0 0 0 0 0 0 0 0 0 0 0 0 0 0 0 0 0 0 0 0 0 0 0 0 0 0 0 0 0 0 0 0 0 0 0 0 0 0 0 0 0 0 0 0 0 0 0 0 0 0 0 0 127 127 127 127 127 127 127 127 127 127 127 127 127 127 127 127 127 127 127 127 127 127 127 127 127 127 127 127 127 127 127 127 127 127 127 127 192 205 214 220 225 229 232 234 236 238 239 240 241 242 243 244 244 245 245 246 246 246 247 247 247 248 248 248 248 249 249 249 249 249 249 250 250 250 250 250 250 250 251 250 251 251 251 251 251 251 251 251 251 251 251 252 252 252 252 252 251 238 143 128 128 128 128 128 128 128 128 128 128 128 128 128 128 128 128 128 128 128 128 128 128 128 128 128 128 128 128 128 128 128 128 128 128 128 128 128 128 128 128 128 128 128 128 128 128 128 128 128 128 128 128 128 128 128 128 128 128 128 128 128 128 129 146 172 192 205 214 220 225 229 232 234 236 238 239 240 241 242 243 244 244 245 245 246 246 246 247 247 247 248 248 248 248 249 249 249 249 249 249 250 250 250 250 250 250 250 251 250 251 251 251 251 251 251 251 251 251 251 251 252 252 252 252 252 251 245
50 2 2 2 2 2 2 2 2 2 2 2 2 3 2 2 3 3 3 3 3 3 3 3 3 3 3 3 4 4 4 4 4 4 4 4 5 5 5 5 5 5 6 6 6 7 7 7 8 8 9 10 10 12 13 14 16 19 22 27 34 45 65 103 128 128 128 128 128 128 128 128 128 128 128 128 128 128 128 128 128 128 128 128 128 128 128 128 128 128 128 128 128 128 128 128 128 128 128 128 128 128 128 128 128 128 128 128 128 128 128 128 129 133 137 139 141 141 140 138 137 136 135 133 132 131 129 128 53 2 2 2 2 2 2 2 2 2 2 2 2 3 2 2 3 3 3 3 3 3 3 3 3 3 3 3 4 4 4 4 4 4 4 4 5 5 5 5 5 5 6 6 6 7 7 7 8 8 9 10 10 12 13 14 16 19 22 27 34 45 65 103 127 127 127 127 127 127 127 127 127 127 127 127 127 127 127 127 127 127 127 127 127 127 127 127 127 127 127 127 127 127 127 127 127 0 0 0 0 0 0 0 0 0 0 0 0 0 0 0 0 0 0 0 0 0 0 0 0 0 0 0 0 0 0 0 0 0 0 0 0 0 0 0 0 0 0 0 0 0 0 0 0 0 0 0 0 0 0 0 0 0 0 0 0 0 127 127 127 127 127 127 127 127 127 127 127 127 127 127 127 127 127 127 127 127 127 127 127 127 127 127 127 127 127 127 127 127 127 127 127 127 211 222 229 234 236 239 241 242 244 244 245 246 247 247 248 248 248 249 249 249 250 250 250 250 250 251 251 251 251 251 251 251 252 252 252 252 252 252 252 252 252 252 252 252 252 252 252 253 253 253 253 253 253 253 253 253 253 253 253 253 253 243 144 128 128 128 128 128 128 128 128 128 128 128 128 128 128 128 128 128 128 128 128 128 128 128 128 128 128 128 128 128 128 128 128 128 128 128 128 128 128 128 128 128 128 128 128 128 128 128 128 128 128 128 128 128 128 128 128 128 128 128 128 128 128 131 159 193 211 222 229 234 236 239 241 242 244 244 245 246 247 247 248 248 248 249 249 249 250 250 250 250 250 251 251 251 251 251 251 251 252 252 252 252 252 252 252 252 252 252 252 252 252 252 252 253 253 253 253 253 253 253 253 253 253 253 253 253 253 250
45 40 40 40 40 40 40 40 40 40 40 40 40 40 40 40 40 40 40 40 40 40 40 40 40 40 40 40 40 40 40 40 40 40 40 40 40 40 40 40 40 40 40 40 40 40 40 40 40 40 41 41 41 41 41 41 41 41 42 42 43 45 51 81 128 128 128 128 128 128 128 128 128 128 128 128 128 128 128 128 128 128 128 128 128 128 128 128 128 128 128 128 128 128 128 128 128 128 128 128 128 128 128 128 128 128 128 128 128 128 128 128 128 128 128 128 128 129 131 132 133 133 133 132 131 130 129 128 48 40 40 40 40 40 40 40 40 40 40 40 40 40 40 40 40 40 40 40 40 40 40 40 40 40 40 40 40 40 40 40 40 40 40 40 40 40 40 40 40 40 40 40 40 40 40 40 40 40 41 41 41 41 41 41 41 41 42 42 43 45 51 81 127 127 127 127 127 127 127 127 127 127 127 127 127 127 127 127 127 127 127 127 127 127 127 127 127 127 127 127 127 127 127 127 127 0 0 0 0 0 0 0 0 0 0 0 0 0 0 0 0 0 0 0 0 0 0 0 0 0 0 0 0 0 0 0 0 0 0 0 0 0 0 0 0 0 0 0 0 0 0 0 0 0 0 0 0 0 0 0 0 0 0 0 0 0 127 127 127 127 127 127 127 127 127 127 127 127 127 127 127 127 127 127 127 127 127 127 127 127 127 127 127 127 127 127 127 127 127 127 127 127 226 231 234 235 236 237 238 238 239 239 240 240 241 241 241 241 241 241 242 242 242 242 242 242 242 242 242 242 242 242 242 243 242 242 243 243 243 243 243 243 243 243 243 243 243 243 243 243 243 243 243 243 243 243 243 243 243 243 243 243 243 236 142 128 128 128 128 128 128 128 128 128 128 128 128 128 128 128 128 128 128 128 128 128 128 128 128 128 128 128 128 128 128 128 128 128 128 128 128 128 128 128 128 128 128 128 128 128 128 128 128 128 128 128 128 128 128 128 128 128 128 128 128 128 128 134 182 214 226 231 234 235 236 237 238 238 239 239 240 240 241 241 241 241 241 241 242 242 242 242 242 242 242 242 242 242 242 242 242 243 242 242 243 243 243 243 243 243 243 243 243 243 243 243 243 243 243 243 243 243 243 243 243 243 243 243 243 243 243 243
252 252 252 252 252 252 252 252 252 252 252 252 252 252 252 252 252 252 252 252 252 252 252 252 252 252 252 252 251 251 252 251 251 251 251 251 251 251 251 251 251 251 251 251 250 250 250 250 250 250 250 249 249 249 248 248 247 246 245 244 241 237 227 192 128 128 128 128 128 128 128 128 128 128 128 128 128 128 128 128 128 128 128 128 128 128 128 128 128 128 128 128 128 128 128 128 128 128 128 128 128 128 128 128 128 128 128 128 128 128 128 128 128 128 128 128 128 127 125 124 123 123 123 123 124 125 126 127 250 252 252 252 252 252 252 252 252 252 252 252 252 252 252 252 252 252 252 252 252 252 252 252 252 252 252 252 251 251 252 251 251 251 251 251 251 251 251 251 251 251 251 251 250 250 250 250 250 250 250 249 249 249 248 248 247 246 245 244 241 237 227 192 127 127 127 127 127 127 127 127 127 127 127 127 127 127 127 127 127 127 127 127 127 127 127 127 127 127 127 127 127 127 127 127 127 0 0 0 0 0 0 0 0 0 0 0 0 0 0 0 0 0 0 0 0 0 0 0 0 0 0 0 0 0 0 0 0 0 0 0 0 0 0 0 0 0 0 0 0 0 0 0 0 0 0 0 0 0 0 0 0 0 0 0 0 0 127 127 127 127 127 127 127 127 127 127 127 127 127 127 127 127 127 127 127 127 127 127 127 127 127 127 127 127 127 127 127 127 127 127 127 127 87 87 87 87 87 87 88 88 88 88 88 88 88 88 88 88 88 88 88 88 88 88 88 88 88 88 88 88 88 88 88 89 88 88 89 89 89 89 89 89 89 89 89 89 89 89 89 89 89 89 89 89 89 89 89 89 89 89 89 89 89 95 126 129 130 131 132 133 133 133 132 131 130 129 129 129 128 128 128 128 128 128 128 128 128 128 128 128 128 128 128 128 128 128 128 128 128 128 128 128 128 128 128 128 128 128 128 128 128 128 128 128 128 128 128 128 128 128 128 128 128 128 128 128 128 126 101 88 87 87 87 87 87 87 88 88 88 88 88 88 88 88 88 88 88 88 88 88 88 88 88 88 88 88 88 88 88 88 88 89 88 88 89 89 89 89 89 89 89 89 89 89 89 89 89 89 89 89 89 89 89 89 89 89 89 89 89 89 89 91
250 253 253 253 253 253 253 253 253 253 253 253 253 253 253 252 252 252 252 252 252 252 252 252 252 252 252 252 252 252 251 251 251 251 251 251 251 250 250 250 250 250 249 249 249 248 248 248 247 247 246 245 244 244 242 241 239 236 234 229 222 211 192 155 128 128 128 128 128 128 128 128 128 128 128 128 128 128 128 128 128 128 128 128 128 128 128 128 128 128 128 128 128 128 128 128 128 128 128 128 128 128 128 128 128 128 128 128 128 128 128 128 127 124 120 117 115 114 115 117 118 119 120 122 123 124 125 127 248 253 253 253 253 253 253 253 253 253 253 253 253 253 253 252 252 252 252 252 252 252 252 252 252 252 252 252 252 252 251 251 251 251 251 251 251 250 250 250 250 250 249 249 249 248 248 248 247 247 246 245 244 244 242 241 239 236 234 229 222 211 192 155 127 127 127 127 127 127 127 127 127 127 127 127 127 127 127 127 127 127 127 127 127 127 127 127 127 127 127 127 127 127 127 127 127 0 0 0 0 0 0 0 0 0 0 0 0 0 0 0 0 0 0 0 0 0 0 0 0 0 0 0 0 0 0 0 0 0 0 0 0 0 0 0 0 0 0 0 0 0 0 0 0 0 0 0 0 0 0 0 0 0 0 0 0 0 127 127 127 127 127 127 127 127 127 127 127 127 127 127 127 127 127 127 127 127 127 127 127 127 127 127 127 127 127 127 127 127 127 127 127 127 48 37 30 26 23 20 18 18 17 15 15 14 13 13 13 12 12 12 12 11 11 11 11 11 11 11 10 10 10 10 10 10 10 10 9 9 9 9 9 9 9 9 9 9 9 9 8 8 9 8 8 8 8 8 8 8 8 8 8 8 16 63 124 129 131 132 133 135 136 137 138 139 140 140 139 137 134 131 130 129 129 128 128 128 128 128 128 128 128 128 128 128 128 128 128 128 128 128 128 128 128 128 128 128 128 128 128 128 128 128 128 128 128 128 128 128 128 128 128 128 128 128 128 128 128 126 102 68 48 37 30 26 23 20 18 18 17 15 15 14 13 13 13 12 12 12 12 11 11 11 11 11 11 11 10 10 10 10 10 10 10 10 9 9 9 9 9 9 9 9 9 9 9 9 8 8 9 8 8 8 8 8 8 8 8 8 8 8 15 49
244 252 252 252 252 252 252 251 251 251 251 251 251 251 251 251 251 251 250 251 250 250 250 250 250 250 250 249 249 249 249 249 249 248 248 248 248 247 247 247 246 246 246 245 245 244 244 243 242 241 240 239 238 236 234 232 229 225 220 214 205 192 172 144 128 128 128 128 128 128 128 128 128 128 128 128 128 128 128 128 128 128 128 128 128 128 128 128 128 128 128 128 128 128 128 128 128 128 128 128 128 128 128 128 128 128 128 128 128 124 118 113 108 109 110 111 112 114 115 116 117 119 120 122 123 124 126 127 242 252 252 252 252 252 252 251 251 251 251 251 251 251 251 251 251 251 250 251 250 250 250 250 250 250 250 249 249 249 249 249 249 248 248 248 248 247 247 247 246 246 246 245 245 244 244 243 242 241 240 239 238 236 234 232 229 225 220 214 205 192 172 144 127 127 127 127 127 127 127 127 127 127 127 127 127 127 127 127 127 127 127 127 127 127 127 127 127 127 127 127 127 127 127 127 127 0 0 0 0 0 0 0 0 0 0 0 0 0 0 0 0 0 0 0 0 0 0 0 0 0 0 0 0 0 0 0 0 0 0 0 0 0 0 0 0 0 0 0 0 0 0 0 0 0 0 0 0 0 0 0 0 0 0 0 0 0 127 127 127 127 127 127 127 127 127 127 127 127 127 127 127 127 127 127 127 127 127 127 127 127 127 127 127 127 127 127 127 127 127 127 127 127 65 52 42 35 30 26 23 21 19 17 16 15 14 13 12 12 11 10 10 9 9 9 8 8 8 7 7 7 7 6 6 6 6 6 6 5 5 5 5 5 5 5 5 4 4 4 4 4 4 4 4 4 4 4 4 4 3 3 3 3 18 75 125 129 131 132 133 135 136 137 139 140 141 142 144 144 145 145 144 140 135 130 129 129 128 128 128 128 128 128 128 128 128 128 128 128 128 128 128 128 128 128 128 128 128 128 128 128 128 128 128 128 128 128 128 128 128 128 128 128 128 128 128 128 128 127 111 85 65 52 42 35 30 26 23 21 19 17 16 15 14 13 12 12 11 10 10 9 9 9 8 8 8 7 7 7 7 6 6 6 6 6 6 5 5 5 5 5 5 5 5 4 4 4 4 4 4 4 4 4 4 4 4 4 3 3 3 3 17 66
237 250 251 250 250 250 250 250 250 250 250 250 249 249 249 249 249 249 249 249 249 248 248 248 248 247 247 247 247 247 246 247 246 246 246 245 245 244 244 244 243 242 242 241 241 240 239 238 237 236 234 233 231 229 226 223 220 215 209 201 191 178 160 139 128 128 128 128 128 128 128 128 128 128 128 128 128 128 128 128 128 128 128 128 128 128 128 128 128 128 128 128 128 128 128 128 128 128 128 128 128 128 128 128 128 128 124 114 107 104 105 106 107 108 110 111 112 113 115 116 117 119 120 121 123 124 126 127 235 250 251 250 250 250 250 250 250 250 250 250 249 249 249 249 249 249 249 249 249 248 248 248 248 247 247 247 247 247 246 247 246 246 246 245 245 244 244 244 243 242 242 241 241 240 239 238 237 236 234 233 231 229 226 223 220 215 209 201 191 178 160 139 127 127 127 127 127 127 127 127 127 127 127 127 127 127 127 127 127 127 127 127 127 127 127 127 127 127 127 127 127 127 127 127 127 0 0 0 0 0 0 0 0 0 0 0 0 0 0 0 0 0 0 0 0 0 0 0 0 0 0 0 0 0 0 0 0 0 0 0 0 0 0 0 0 0 0 0 0 0 0 0 0 0 0 0 0 0 0 0 0 0 0 0 0 0 127 127 127 127 127 127 127 127 127 127 127 127 127 127 127 127 127 127 127 127 127 127 127 127 127 127 127 127 127 127 127 127 127 127 127 127 78 64 54 46 40 36 32 29 26 24 22 21 19 18 17 16 15 14 14 13 13 12 12 11 11 10 10 10 9 9 9 8 8 8 8 8 7 7 7 7 7 6 6 6 6 6 6 6 6 5 5 5 5 5 5 5 5 5 5 5 20 79 125 130 131 132 133 135 136 138 139 140 141 143 144 145 146 148 149 149 150 148 143 136 131 129 128 128 128 128 128 128 128 128 128 128 128 128 128 128 128 128 128 128 128 128 128 128 128 128 128 128 128 128 128 128 128 128 128 128 128 128 128 128 128 127 115 95 78 64 54 46 40 36 32 29 26 24 22 21 19 18 17 16 15 14 14 13 13 12 12 11 11 10 10 10 9 9 9 8 8 8 8 8 7 7 7 7 7 6 6 6 6 6 6 6 6 5 5 5 5 5 5 5 5 5 5 5 20 72
231 249 249 249 249 249 249 249 248 248 248 248 248 248 248 248 247 247 247 247 247 247 246 246 246 246 245 245 245 245 244 244 244 243 243 242 242 241 241 240 240 239 238 237 237 236 235 233 232 231 229 227 225 222 219 215 211 206 199 191 181 169 154 136 128 128 128 128 128 128 128 128 128 128 128 128 128 128 128 128 128 128 128 128 128 128 128 128 128 128 128 128 128 128 128 128 128 128 128 128 128 128 128 126 116 104 100 101 102 103 104 106 107 108 109 111 112 113 115 116 117 119 120 121 123 124 125 127 230 249 249 249 249 249 249 249 248 248 248 248 248 248 248 248 247 247 247 247 247 247 246 246 246 246 245 245 245 245 244 244 244 243 243 242 242 241 241 240 240 239 238 237 237 236 235 233 232 231 229 227 225 222 219 215 211 206 199 191 181 169 154 136 127 127 127 127 127 127 127 127 127 127 127 127 127 127 127 127 127 127 127 127 127 127 127 127 127 127 127 127 127 127 127 127 127 0 0 0 0 0 0 0 0 0 0 0 0 0 0 0 0 0 0 0 0 0 0 0 0 0 0 0 0 0 0 0 0 0 0 0 0 0 0 0 0 0 0 0 0 0 0 0 0 0 0 0 0 0 0 0 0 0 0 0 0 0 127 127 127 127 127 127 127 127 127 127 127 127 127 127 127 127 127 127 127 127 127 127 127 127 127 127 127 127 127 127 127 127 127 127 127 127 86 74 64 56 49 44 40 36 33 30 28 26 25 23 22 21 19 19 18 17 16 15 15 14 13 13 13 12 12 12 11 11 11 10 10 10 10 9 9 9 8 9 8 8 8 8 8 8 7 7 7 7 7 7 6 6 6 6 6 6 21 77 125 129 131 132 134 135 136 138 139 140 142 143 144 146 147 148 150 151 152 153 153 154 151 143 135 130 129 128 128 128 128 128 128 128 128 128 128 128 128 128 128 128 128 128 128 128 128 128 128 128 128 128 128 128 128 128 128 128 128 128 128 128 128 127 118 101 86 74 64 56 49 44 40 36 33 30 28 26 25 23 22 21 19 19 18 17 16 15 15 14 13 13 13 12 12 12 11 11 11 10 10 10 10 9 9 9 8 9 8 8 8 8 8 8 7 7 7 7 7 7 6 6 6 6 6 6 20 68
226 248 248 248 248 247 247 247 247 247 247 246 246 246 246 246 246 245 245 245 245 245 244 244 244 244 243 243 243 242 242 241 241 240 240 240 239 238 238 237 236 236 235 234 233 231 230 229 227 226 224 222 219 216 213 209 204 198 191 183 174 162 149 135 128 128 128 128 128 128 128 128 128 128 128 128 128 128 128 128 128 128 128 128 128 128 128 128 128 128 128 128 128 128 128 128 128 128 128 128 128 124 109 97 97 98 99 100 101 102 104 105 106 108 109 111 112 113 114 116 117 118 120 121 123 124 125 127 225 248 248 248 248 247 247 247 247 247 247 246 246 246 246 246 246 245 245 245 245 245 244 244 244 244 243 243 243 242 242 241 241 240 240 240 239 238 238 237 236 236 235 234 233 231 230 229 227 226 224 222 219 216 213 209 204 198 191 183 174 162 149 135 127 127 127 127 127 127 127 127 127 127 127 127 127 127 127 127 127 127 127 127 127 127 127 127 127 127 127 127 127 127 127 127 127 0 0 0 0 0 0 0 0 0 0 0 0 0 0 0 0 0 0 0 0 0 0 0 0 0 0 0 0 0 0 0 0 0 0 0 0 0 0 0 0 0 0 0 0 0 0 0 0 0 0 0 0 0 0 0 0 0 0 0 0 0 127 127 127 127 127 127 127 127 127 127 127 127 127 127 127 127 127 127 127 127 127 127 127 127 127 127 127 127 127 127 127 127 127 127 127 127 93 82 72 64 57 51 47 43 39 36 34 32 30 28 26 25 23 22 21 20 19 19 18 17 17 16 16 15 14 14 14 13 13 12 12 12 12 11 11 11 11 10 10 10 10 9 9 9 9 9 8 8 8 8 8 8 8 8 7 7 22 79 125 130 131 132 134 135 136 138 139 140 142 143 145 146 147 148 150 151 152 154 155 156 157 158 156 149 138 131 129 128 128 128 128 128 128 128 128 128 128 128 128 128 128 128 128 128 128 128 128 128 128 128 128 128 128 128 128 128 128 128 128 128 128 127 120 106 93 82 72 64 57 51 47 43 39 36 34 32 30 28 26 25 23 22 21 20 19 19 18 17 17 16 16 15 14 14 14 13 13 12 12 12 12 11 11 11 11 10 10 10 10 9 9 9 9 9 8 8 8 8 8 8 8 8 7 7 21 70
212 247 247 246 246 246 246 246 246 245 245 245 245 245 244 244 244 244 244 243 243 243 242 242 242 241 241 241 240 240 239 239 238 238 237 237 236 235 235 234 233 232 231 230 229 228 226 224 223 221 219 216 213 210 206 202 197 191 184 177 168 157 146 134 128 128 128 128 128 128 128 128 128 128 128 128 128 128 128 128 128 128 128 128 128 128 128 128 128 128 128 128 128 128 128 128 128 128 128 122 105 93 94 95 96 97 98 100 101 102 103 105 106 107 109 110 112 113 114 116 117 118 120 121 123 124 125 127 211 247 247 246 246 246 246 246 246 245 245 245 245 245 244 244 244 244 244 243 243 243 242 242 242 241 241 241 240 240 239 239 238 238 237 237 236 235 235 234 233 232 231 230 229 228 226 224 223 221 219 216 213 210 206 202 197 191 184 177 168 157 146 134 127 127 127 127 127 127 127 127 127 127 127 127 127 127 127 127 127 127 127 127 127 127 127 127 127 127 127 127 127 127 127 127 127 0 0 0 0 0 0 0 0 0 0 0 0 0 0 0 0 0 0 0 0 0 0 0 0 0 0 0 0 0 0 0 0 0 0 0 0 0 0 0 0 0 0 0 0 0 0 0 0 0 0 0 0 0 0 0 0 0 0 0 0 0 127 127 127 127 127 127 127 127 127 127 127 127 127 127 127 127 127 127 127 127 127 127 127 127 127 127 127 127 127 127 127 127 127 127 127 127 98 87 78 71 64 58 53 49 45 42 39 36 34 32 31 29 27 26 25 24 23 22 21 20 19 19 18 18 17 17 16 16 15 15 14 14 14 13 13 13 12 12 12 11 11 11 11 11 10 10 10 10 10 9 9 9 9 9 9 9 29 96 126 130 131 132 134 135 137 138 139 141 142 143 145 146 148 149 150 152 153 154 155 157 158 159 160 160 160 153 140 131 129 128 128 128 128 128 128 128 128 128 128 128 128 128 128 128 128 128 128 128 128 128 128 128 128 128 128 128 128 128 128 128 128 127 121 109 98 87 78 71 64 58 53 49 45 42 39 36 34 32 31 29 27 26 25 24 23 22 21 20 19 19 18 18 17 17 16 16 15 15 14 14 14 13 13 13 12 12 12 11 11 11 11 11 10 10 10 10 10 9 9 9 9 9 9 9 28 92
201 245 245 245 245 245 244 244 244 244 244 244 243 243 243 243 242 242 242 241 241 241 240 240 240 239 239 239 238 238 237 237 236 235 235 234 233 232 232 231 230 229 228 227 225 224 222 220 218 216 214 211 208 205 201 196 191 185 179 171 163 154 144 133 128 128 128 128 128 128 128 128 128 128 128 128 128 128 128 128 128 128 128 128 128 128 128 128 128 128 128 128 128 128 128 128 128 123 104 90 91 92 93 94 96 97 98 99 100 102 103 104 106 107 108 110 111 113 114 115 117 118 120 121 123 124 125 127 200 245 245 245 245 245 244 244 244 244 244 244 243 243 243 243 242 242 242 241 241 241 240 240 240 239 239 239 238 238 237 237 236 235 235 234 233 232 232 231 230 229 228 227 225 224 222 220 218 216 214 211 208 205 201 196 191 185 179 171 163 154 144 133 127 127 127 127 127 127 127 127 127 127 127 127 127 127 127 127 127 127 127 127 127 127 127 127 127 127 127 127 127 127 127 127 127 0 0 0 0 0 0 0 0 0 0 0 0 0 0 0 0 0 0 0 0 0 0 0 0 0 0 0 0 0 0 0 0 0 0 0 0 0 0 0 0 0 0 0 0 0 0 0 0 0 0 0 0 0 0 0 0 0 0 0 0 0 127 127 127 127 127 127 127 127 127 127 127 127 127 127 127 127 127 127 127 127 127 127 127 127 127 127 127 127 127 127 127 127 127 127 127 127 102 92 84 76 70 64 59 54 50 47 44 41 39 36 35 33 31 30 28 27 26 25 24 23 22 22 21 20 20 19 18 18 17 17 16 16 16 15 15 15 14 14 13 13 13 13 13 12 12 12 11 11 11 11 11 11 10 10 10 10 30 97 126 130 131 132 134 135 137 138 140 141 142 144 145 146 148 149 151 152 153 154 156 157 158 159 161 162 163 163 162 155 141 131 129 128 128 128 128 128 128 128 128 128 128 128 128 128 128 128 128 128 128 128 128 128 128 128 128 128 128 128 128 128 128 128 122 111 102 92 84 76 70 64 59 54 50 47 44 41 39 36 35 33 31 30 28 27 26 25 24 23 22 22 21 20 20 19 18 18 17 17 16 16 16 15 15 15 14 14 13 13 13 13 13 12 12 12 11 11 11 11 11 11 10 10 10 10 29 93
185 244 244 244 243 243 243 243 243 242 242 242 242 241 241 241 241 240 240 240 239 239 239 238 238 237 237 236 236 235 235 234 234 233 232 231 231 230 229 228 227 226 224 223 222 220 218 216 214 212 209 206 203 200 196 191 186 180 174 167 159 151 142 132 128 128 128 128 128 128 128 128 128 128 128 128 128 128 128 128 128 128 128 128 128 128 128 128 128 128 128 128 128 128 128 125 106 88 88 89 90 91 93 94 95 96 97 99 100 101 103 104 105 107 108 109 111 112 114 115 117 118 120 121 122 124 125 127 184 244 244 244 243 243 243 243 243 242 242 242 242 241 241 241 241 240 240 240 239 239 239 238 238 237 237 236 236 235 235 234 234 233 232 231 231 230 229 228 227 226 224 223 222 220 218 216 214 212 209 206 203 200 196 191 186 180 174 167 159 151 142 132 127 127 127 127 127 127 127 127 127 127 127 127 127 127 127 127 127 127 127 127 127 127 127 127 127 127 127 127 127 127 127 127 127 0 0 0 0 0 0 0 0 0 0 0 0 0 0 0 0 0 0 0 0 0 0 0 0 0 0 0 0 0 0 0 0 0 0 0 0 0 0 0 0 0 0 0 0 0 0 0 0 0 0 0 0 0 0 0 0 0 0 0 0 0 127 127 127 127 127 127 127 127 127 127 127 127 127 127 127 127 127 127 127 127 127 127 127 127 127 127 127 127 127 127 127 127 127 127 127 127 104 96 88 81 75 69 64 59 55 52 48 46 43 41 39 37 35 33 32 31 29 28 27 26 25 24 24 23 22 22 21 20 20 19 19 18 18 17 17 17 16 16 15 15 15 14 14 14 14 13 13 13 13 12 12 12 12 12 12 11 35 110 127 130 131 132 134 136 137 138 140 141 143 144 145 147 148 150 151 152 154 155 156 157 159 160 161 163 164 165 166 166 165 155 138 131 128 128 128 128 128 128 128 128 128 128 128 128 128 128 128 128 128 128 128 128 128 128 128 128 128 128 128 128 128 128 123 113 104 96 88 81 75 69 64 59 55 52 48 46 43 41 39 37 35 33 32 31 29 28 27 26 25 24 24 23 22 22 21 20 20 19 19 18 18 17 17 17 16 16 15 15 15 14 14 14 14 13 13 13 13 12 12 12 12 12 12 11 35 108
168 243 243 242 242 242 242 241 241 241 241 241 240 240 240 239 239 239 238 238 238 237 237 236 236 236 235 234 234 233 233 232 231 231 230 229 228 227 226 225 224 222 221 220 218 216 215 213 210 208 205 202 199 195 191 187 182 176 170 163 156 148 140 132 128 128 128 128 128 128 128 128 128 128 128 128 128 128 128 128 128 128 128 128 128 128 128 128 128 128 128 128 128 128 112 88 85 86 87 89 90 91 92 93 94 96 97 98 100 101 102 104 105 106 108 109 111 112 113 115 116 118 119 121 122 124 125 127 167 243 243 242 242 242 242 241 241 241 241 241 240 240 240 239 239 239 238 238 238 237 237 236 236 236 235 234 234 233 233 232 231 231 230 229 228 227 226 225 224 222 221 220 218 216 215 213 210 208 205 202 199 195 191 187 182 176 170 163 156 148 140 132 127 127 127 127 127 127 127 127 127 127 127 127 127 127 127 127 127 127 127 127 127 127 127 127 127 127 127 127 127 127 127 127 127 0 0 0 0 0 0 0 0 0 0 0 0 0 0 0 0 0 0 0 0 0 0 0 0 0 0 0 0 0 0 0 0 0 0 0 0 0 0 0 0 0 0 0 0 0 0 0 0 0 0 0 0 0 0 0 0 0 0 0 0 0 127 127 127 127 127 127 127 127 127 127 127 127 127 127 127 127 127 127 127 127 127 127 127 127 127 127 127 127 127 127 127 127 127 127 127 127 106 99 92 85 79 73 68 64 60 56 53 50 47 45 42 40 39 37 35 34 32 31 30 29 28 27 26 25 24 24 23 22 22 21 21 20 19 19 19 18 18 17 17 17 16 16 16 16 15 15 15 14 14 14 14 13 13 13 13 12 38 114 127 130 131 133 134 136 137 139 140 142 143 145 146 147 149 150 151 153 154 155 157 158 159 161 162 163 164 165 167 168 169 169 166 151 135 129 128 128 128 128 128 128 128 128 128 128 128 128 128 128 128 128 128 128 128 128 128 128 128 128 128 128 128 128 123 115 106 99 92 85 79 73 68 64 60 56 53 50 47 45 42 40 39 37 35 34 32 31 30 29 28 27 26 25 24 24 23 22 22 21 21 20 19 19 19 18 18 17 17 17 16 16 16 16 15 15 15 14 14 14 14 13 13 13 13 12 37 112
143 240 241 241 241 241 240 240 240 240 239 239 239 238 238 238 237 237 237 236 236 235 235 234 234 233 233 232 232 231 230 230 229 228 227 226 225 224 223 222 221 220 218 217 215 213 211 209 207 204 201 198 195 191 187 183 178 173 167 160 154 147 139 131 128 128 128 128 128 128 128 128 128 128 128 128 128 128 128 128 128 128 128 128 128 128 128 128 128 128 128 128 122 95 82 83 84 86 87 88 89 90 91 92 94 95 96 98 99 100 102 103 105 106 108 109 110 112 113 115 116 118 119 121 122 124 125 127 143 240 241 241 241 241 240 240 240 240 239 239 239 238 238 238 237 237 237 236 236 235 235 234 234 233 233 232 232 231 230 230 229 228 227 226 225 224 223 222 221 220 218 217 215 213 211 209 207 204 201 198 195 191 187 183 178 173 167 160 154 147 139 131 127 127 127 127 127 127 127 127 127 127 127 127 127 127 127 127 127 127 127 127 127 127 127 127 127 127 127 127 127 127 127 127 127 0 0 0 0 0 0 0 0 0 0 0 0 0 0 0 0 0 0 0 0 0 0 0 0 0 0 0 0 0 0 0 0 0 0 0 0 0 0 0 0 0 0 0 0 0 0 0 0 0 0 0 0 0 0 0 0 0 0 0 0 0 127 127 127 127 127 127 127 127 127 127 127 127 127 127 127 127 127 127 127 127 127 127 127 127 127 127 127 127 127 127 127 127 127 127 127 127 109 101 95 88 83 77 72 68 64 60 57 54 51 48 46 44 42 40 39 37 36 34 33 32 31 30 29 28 27 26 25 25 24 23 23 22 22 21 20 20 20 19 19 19 18 18 17 17 17 16 16 16 16 15 15 15 14 14 14 16 48 124 128 130 131 133 134 136 137 139 140 142 143 145 146 148 149 150 152 153 155 156 157 159 160 161 162 164 165 166 167 168 170 171 172 171 163 143 131 128 128 128 128 128 128 128 128 128 128 128 128 128 128 128 128 128 128 128 128 128 128 128 128 128 128 128 124 116 109 101 95 88 83 77 72 68 64 60 57 54 51 48 46 44 42 40 39 37 36 34 33 32 31 30 29 28 27 26 25 25 24 23 23 22 22 21 20 20 20 19 19 19 18 18 17 17 17 16 16 16 16 15 15 15 14 14 14 16 47 123
131 232 240 240 239 239 239 239 238 238 238 238 237 237 237 236 236 235 235 234 234 234 233 233 232 231 231 230 229 229 228 227 227 226 225 224 223 222 220 219 218 217 215 213 212 210 208 205 203 201 198 195 191 187 183 179 174 169 164 158 152 145 138 131 128 128 128 128 128 128 128 128 128 128 128 128 128 128 128 128 128 128 128 128 128 128 128 128 128 128 128 110 82 80 81 83 84 85 86 87 88 89 91 92 93 95 96 97 99 100 101 103 104 106 107 109 110 111 113 115 116 117 119 120 122 124 125 127 131 232 240 240 239 239 239 239 238 238 238 238 237 237 237 236 236 235 235 234 234 234 233 233 232 231 231 230 229 229 228 227 227 226 225 224 223 222 220 219 218 217 215 213 212 210 208 205 203 201 198 195 191 187 183 179 174 169 164 158 152 145 138 131 127 127 127 127 127 127 127 127 127 127 127 127 127 127 127 127 127 127 127 127 127 127 127 127 127 127 127 127 127 127 127 127 127 0 0 0 0 0 0 0 0 0 0 0 0 0 0 0 0 0 0 0 0 0 0 0 0 0 0 0 0 0 0 0 0 0 0 0 0 0 0 0 0 0 0 0 0 0 0 0 0 0 0 0 0 0 0 0 0 0 0 0 0 0 127 127 127 127 127 127 127 127 127 127 127 127 127 127 127 127 127 127 127 127 127 127 127 127 127 127 127 127 127 127 127 127 127 127 127 127 110 104 97 91 86 81 76 72 67 64 60 57 54 52 49 47 45 43 42 40 38 37 36 34 33 32 31 30 29 29 28 27 26 25 25 24 24 23 23 22 22 21 20 20 20 19 19 18 18 18 18 17 17 17 16 16 16 15 15 23 69 124 128 130 131 133 135 136 138 139 140 142 144 145 146 148 149 151 152 154 155 156 158 159 160 162 163 164 165 167 168 169 170 171 173 173 174 171 155 135 129 128 128 128 128 128 128 128 128 128 128 128 128 128 128 128 128 128 128 128 128 128 128 128 128 128 124 117 110 104 97 91 86 81 76 72 67 64 60 57 54 52 49 47 45 43 42 40 38 37 36 34 33 32 31 30 29 29 28 27 26 25 25 24 24 23 23 22 22 21 20 20 20 19 19 18 18 18 18 17 17 17 16 16 16 15 15 23 69 124
128 216 239 238 238 238 238 237 237 237 236 236 236 235 235 235 234 234 233 233 232 232 231 231 230 229 229 228 228 227 226 225 224 223 222 221 220 219 218 217 215 214 212 211 209 207 205 202 200 197 195 191 188 184 180 176 171 166 161 156 150 144 137 131 128 128 128 128 128 128 128 128 128 128 128 128 128 128 128 128 128 128 128 128 128 128 128 128 128 125 95 77 79 80 81 82 83 84 85 87 88 89 90 91 93 94 95 97 98 100 101 102 104 105 107 108 110 111 113 114 116 117 119 120 122 123 125 127 128 216 239 238 238 238 238 237 237 237 236 236 236 235 235 235 234 234 233 233 232 232 231 231 230 229 229 228 228 227 226 225 224 223 222 221 220 219 218 217 215 214 212 211 209 207 205 202 200 197 195 191 188 184 180 176 171 166 161 156 150 144 137 131 127 127 127 127 127 127 127 127 127 127 127 127 127 127 127 127 127 127 127 127 127 127 127 127 127 127 127 127 127 127 127 127 127 0 0 0 0 0 0 0 0 0 0 0 0 0 0 0 0 0 0 0 0 0 0 0 0 0 0 0 0 0 0 0 0 0 0 0 0 0 0 0 0 0 0 0 0 0 0 0 0 0 0 0 0 0 0 0 0 0 0 0 0 0 127 127 127 127 127 127 127 127 127 127 127 127 127 127 127 127 127 127 127 127 127 127 127 127 127 127 127 127 127 127 127 127 127 127 127 127 111 105 99 94 89 84 79 75 71 67 64 61 58 55 53 51 48 46 44 43 41 40 38 37 36 35 34 33 31 31 30 29 28 28 27 26 25 25 24 24 23 23 22 22 21 21 20 20 20 19 19 19 18 18 18 17 17 17 16 28 84 125 128 130 131 133 135 136 138 139 141 142 144 145 147 148 150 151 153 154 156 157 158 160 161 162 164 165 166 167 169 170 171 172 173 174 175 176 175 165 141 130 128 128 128 128 128 128 128 128 128 128 128 128 128 128 128 128 128 128 128 128 128 128 128 128 124 118 111 105 99 94 89 84 79 75 71 67 64 61 58 55 53 51 48 46 44 43 41 40 38 37 36 35 34 33 31 31 30 29 28 28 27 26 25 25 24 24 23 23 22 22 21 21 20 20 20 19 19 19 18 18 18 17 17 17 16 28 84 125
128 194 237 237 237 237 236 236 236 235 235 234 234 234 233 233 232 232 231 231 231 230 229 229 228 228 227 226 226 225 224 223 222 221 220 219 218 217 216 214 213 211 210 208 206 204 202 199 197 194 191 188 185 181 177 173 169 164 159 154 148 142 137 131 128 128 128 128 128 128 128 128 128 128 128 128 128 128 128 128 128 128 128 128 128 128 128 128 119 83 76 77 78 79 80 81 82 84 85 86 87 88 90 91 92 93 95 96 98 99 100 102 103 105 106 108 110 111 112 114 115 117 119 120 122 123 125 127 128 194 237 237 237 237 236 236 236 235 235 234 234 234 233 233 232 232 231 231 231 230 229 229 228 228 227 226 226 225 224 223 222 221 220 219 218 217 216 214 213 211 210 208 206 204 202 199 197 194 191 188 185 181 177 173 169 164 159 154 148 142 137 131 127 127 127 127 127 127 127 127 127 127 127 127 127 127 127 127 127 127 127 127 127 127 127 127 127 127 127 127 127 127 127 127 127 0 0 0 0 0 0 0 0 0 0 0 0 0 0 0 0 0 0 0 0 0 0 0 0 0 0 0 0 0 0 0 0 0 0 0 0 0 0 0 0 0 0 0 0 0 0 0 0 0 0 0 0 0 0 0 0 0 0 0 0 0 127 127 127 127 127 127 127 127 127 127 127 127 127 127 127 127 127 127 127 127 127 127 127 127 127 127 127 127 127 127 127 127 127 127 127 127 113 107 101 96 91 86 82 78 74 70 67 63 61 58 56 53 51 49 47 45 44 42 41 40 38 37 36 35 34 33 32 31 30 30 29 28 28 27 26 26 25 24 24 23 23 22 22 22 21 21 21 20 20 19 19 19 18 18 18 34 99 126 128 130 132 133 135 136 138 140 141 143 144 145 147 149 150 152 153 155 156 157 159 160 161 163 164 166 167 168 169 171 172 173 174 175 176 177 178 178 173 149 132 128 128 128 128 128 128 128 128 128 128 128 128 128 128 128 128 128 128 128 128 128 128 128 125 119 113 107 101 96 91 86 82 78 74 70 67 63 61 58 56 53 51 49 47 45 44 42 41 40 38 37 36 35 34 33 32 31 30 30 29 28 28 27 26 26 25 24 24 23 23 22 22 22 21 21 21 20 20 19 19 19 18 18 18 34 99 126
128 169 236 236 236 235 235 235 234 234 234 233 233 232 232 231 231 231 230 229 229 228 228 227 226 226 225 224 224 223 222 221 220 219 218 217 216 214 213 212 210 209 207 205 203 201 199 197 194 191 188 185 182 178 174 170 166 162 157 152 147 141 136 130 128 128 128 128 128 128 128 128 128 128 128 128 128 128 128 128 128 128 128 128 128 128 128 111 75 74 75 76 77 78 79 80 81 83 84 85 86 88 89 90 91 93 94 96 97 99 100 101 103 104 106 107 109 110 112 114 115 117 119 120 122 123 125 127 128 169 236 236 236 235 235 235 234 234 234 233 233 232 232 231 231 231 230 229 229 228 228 227 226 226 225 224 224 223 222 221 220 219 218 217 216 214 213 212 210 209 207 205 203 201 199 197 194 191 188 185 182 178 174 170 166 162 157 152 147 141 136 130 127 127 127 127 127 127 127 127 127 127 127 127 127 127 127 127 127 127 127 127 127 127 127 127 127 127 127 127 127 127 127 127 127 0 0 0 0 0 0 0 0 0 0 0 0 0 0 0 0 0 0 0 0 0 0 0 0 0 0 0 0 0 0 0 0 0 0 0 0 0 0 0 0 0 0 0 0 0 0 0 0 0 0 0 0 0 0 0 0 0 0 0 0 0 127 127 127 127 127 127 127 127 127 127 127 127 127 127 127 127 127 127 127 127 127 127 127 127 127 127 127 127 127 127 127 127 127 127 127 127 114 108 103 98 93 89 85 80 77 73 70 67 64 61 59 56 54 52 50 48 46 45 44 42 41 39 38 37 36 35 34 33 32 32 31 30 29 29 28 27 27 26 26 25 25 24 24 23 23 22 22 21 21 21 20 20 20 20 19 40 113 127 128 130 132 133 135 137 138 140 141 143 144 146 148 149 151 152 154 155 156 158 159 161 162 164 165 166 167 169 170 171 172 174 175 176 177 178 179 180 181 177 157 135 129 128 128 128 128 128 128 128 128 128 128 128 128 128 128 128 128 128 128 128 128 128 125 119 114 108 103 98 93 89 85 80 77 73 70 67 64 61 59 56 54 52 50 48 46 45 44 42 41 39 38 37 36 35 34 33 32 32 31 30 29 29 28 27 27 26 26 25 25 24 24 23 23 22 22 21 21 21 20 20 20 20 19 40 113 127
128 139 233 235 234 234 234 233 233 232 232 232 231 231 230 230 229 229 228 228 227 227 226 225 225 224 223 222 222 221 220 219 218 217 216 214 213 212 211 209 208 206 204 202 200 198 196 194 191 189 186 183 179 176 172 168 164 160 155 151 146 140 135 130 128 128 128 128 128 128 128 128 128 128 128 128 128 128 128 128 128 128 128 128 128 128 101 72 72 73 74 75 76 77 79 80 81 82 83 84 86 87 88 89 91 92 94 95 96 98 99 101 102 104 105 107 109 110 112 114 115 117 118 120 122 123 125 127 128 139 233 235 234 234 234 233 233 232 232 232 231 231 230 230 229 229 228 228 227 227 226 225 225 224 223 222 222 221 220 219 218 217 216 214 213 212 211 209 208 206 204 202 200 198 196 194 191 189 186 183 179 176 172 168 164 160 155 151 146 140 135 130 127 127 127 127 127 127 127 127 127 127 127 127 127 127 127 127 127 127 127 127 127 127 127 127 127 127 127 127 127 127 127 127 127 0 0 0 0 0 0 0 0 0 0 0 0 0 0 0 0 0 0 0 0 0 0 0 0 0 0 0 0 0 0 0 0 0 0 0 0 0 0 0 0 0 0 0 0 0 0 0 0 0 0 0 0 0 0 0 0 0 0 0 0 0 127 127 127 127 127 127 127 127 127 127 127 127 127 127 127 127 127 127 127 127 127 127 127 127 127 127 127 127 127 127 127 127 127 127 127 127 115 109 104 100 95 91 87 83 79 76 72 69 66 64 61 59 56 55 53 51 49 47 46 44 43 42 40 39 38 37 36 35 34 34 33 32 31 30 29 29 28 28 27 27 26 25 25 25 24 24 23 23 22 22 22 21 21 21 22 53 123 128 128 130 131 133 135 137 138 140 142 143 145 146 148 150 151 153 154 156 157 159 160 161 163 164 165 167 168 169 171 172 173 174 175 177 178 179 180 181 182 183 181 165 137 129 128 128 128 128 128 128 128 128 128 128 128 128 128 128 128 128 128 128 128 128 125 120 115 109 104 100 95 91 87 83 79 76 72 69 66 64 61 59 56 55 53 51 49 47 46 44 43 42 40 39 38 37 36 35 34 34 33 32 31 30 29 29 28 28 27 27 26 25 25 25 24 24 23 23 22 22 22 21 21 21 22 53 123 128
128 129 216 233 233 232 232 232 231 231 231 230 230 229 229 228 228 227 227 226 226 225 224 224 223 222 221 221 220 219 218 217 216 215 214 212 211 210 209 207 205 204 202 200 198 196 194 191 189 186 183 180 177 173 170 166 162 158 154 149 144 140 135 130 128 128 128 128 128 128 128 128 128 128 128 128 128 128 128 128 128 128 128 128 127 96 69 70 71 72 73 74 75 76 77 79 80 81 82 84 85 86 88 89 90 92 93 94 96 97 99 100 102 103 105 107 108 110 112 113 115 117 118 120 122 123 125 127 128 129 216 233 233 232 232 232 231 231 231 230 230 229 229 228 228 227 227 226 226 225 224 224 223 222 221 221 220 219 218 217 216 215 214 212 211 210 209 207 205 204 202 200 198 196 194 191 189 186 183 180 177 173 170 166 162 158 154 149 144 140 135 130 127 127 127 127 127 127 127 127 127 127 127 127 127 127 127 127 127 127 127 127 127 127 127 127 127 127 127 127 127 127 127 127 127 0 0 0 0 0 0 0 0 0 0 0 0 0 0 0 0 0 0 0 0 0 0 0 0 0 0 0 0 0 0 0 0 0 0 0 0 0 0 0 0 0 0 0 0 0 0 0 0 0 0 0 0 0 0 0 0 0 0 0 0 0 127 127 127 127 127 127 127 127 127 127 127 127 127 127 127 127 127 127 127 127 127 127 127 127 127 127 127 127 127 127 127 127 127 127 127 127 115 110 106 101 97 93 89 85 82 78 75 72 69 66 64 61 59 57 55 53 51 50 48 47 45 44 43 41 40 39 38 37 36 35 35 34 33 32 32 31 30 29 29 28 28 27 27 26 25 25 25 24 24 23 23 23 22 22 31 80 125 128 128 130 132 133 135 137 138 140 142 144 145 147 148 150 152 153 155 156 158 159 161 162 163 165 166 167 169 170 171 173 174 175 176 177 179 180 181 182 183 184 185 184 170 140 129 128 128 128 128 128 128 128 128 128 128 128 128 128 128 128 128 128 128 128 125 120 115 110 106 101 97 93 89 85 82 78 75 72 69 66 64 61 59 57 55 53 51 50 48 47 45 44 43 41 40 39 38 37 36 35 35 34 33 32 32 31 30 29 29 28 28 27 27 26 25 25 25 24 24 23 23 23 22 22 31 80 125 128
128 128 191 232 232 231 231 231 230 230 229 229 229 228 228 227 226 226 225 225 224 223 223 222 221 220 220 219 218 217 216 215 214 213 212 210 209 208 206 205 203 201 200 198 196 193 191 189 186 184 181 178 175 172 168 164 160 156 152 148 144 139 134 130 128 128 128 128 128 128 128 128 128 128 128 128 128 128 128 128 128 128 128 125 89 67 68 69 70 71 72 73 74 75 77 78 79 80 82 83 84 86 87 88 90 91 92 94 95 97 98 100 101 103 105 106 108 110 111 113 114 116 118 120 121 123 125 127 128 128 191 232 232 231 231 231 230 230 229 229 229 228 228 227 226 226 225 225 224 223 223 222 221 220 220 219 218 217 216 215 214 213 212 210 209 208 206 205 203 201 200 198 196 193 191 189 186 184 181 178 175 172 168 164 160 156 152 148 144 139 134 130 127 127 127 127 127 127 127 127 127 127 127 127 127 127 127 127 127 127 127 127 127 127 127 127 127 127 127 127 127 127 127 127 127 0 0 0 0 0 0 0 0 0 0 0 0 0 0 0 0 0 0 0 0 0 0 0 0 0 0 0 0 0 0 0 0 0 0 0 0 0 0 0 0 0 0 0 0 0 0 0 0 0 0 0 0 0 0 0 0 0 0 0 0 0 127 127 127 127 127 127 127 127 127 127 127 127 127 127 127 127 127 127 127 127 127 127 127 127 127 127 127 127 127 127 127 127 127 127 127 127 116 112 107 103 99 95 91 87 84 80 77 74 71 69 66 64 62 59 57 55 54 52 50 49 47 46 45 44 42 41 40 39 38 37 36 35 35 34 33 32 32 31 30 30 29 29 28 28 27 27 26 26 25 25 24 24 24 23 38 101 126 128 128 130 132 133 135 137 139 140 142 144 146 147 149 150 152 154 155 157 158 160 161 163 164 166 167 168 169 171 172 173 175 176 177 178 179 180 182 183 184 185 186 187 186 174 142 130 128 128 128 128 128 128 128 128 128 128 128 128 128 128 128 128 128 128 125 120 116 112 107 103 99 95 91 87 84 80 77 74 71 69 66 64 62 59 57 55 54 52 50 49 47 46 45 44 42 41 40 39 38 37 36 35 35 34 33 32 32 31 30 30 29 29 28 28 27 27 26 26 25 25 24 24 24 23 38 101 126 128
128 128 158 231 231 230 230 229 229 229 228 227 227 227 226 225 225 224 224 223 222 222 221 220 220 219 218 217 216 215 214 213 212 211 209 208 207 205 204 202 201 199 197 196 193 191 189 187 184 182 179 176 173 169 166 163 159 155 151 147 143 139 134 130 128 128 128 128 128 128 128 128 128 128 128 128 128 128 128 128 128 128 125 83 66 66 68 68 70 71 72 73 74 75 76 77 78 80 81 82 83 85 86 87 89 90 92 93 95 96 98 99 101 102 104 106 107 109 111 113 114 116 118 120 121 123 125 127 128 128 158 231 231 230 230 229 229 229 228 227 227 227 226 225 225 224 224 223 222 222 221 220 220 219 218 217 216 215 214 213 212 211 209 208 207 205 204 202 201 199 197 196 193 191 189 187 184 182 179 176 173 169 166 163 159 155 151 147 143 139 134 130 127 127 127 127 127 127 127 127 127 127 127 127 127 127 127 127 127 127 127 127 127 127 127 127 127 127 127 127 127 127 127 127 127 0 0 0 0 0 0 0 0 0 0 0 0 0 0 0 0 0 0 0 0 0 0 0 0 0 0 0 0 0 0 0 0 0 0 0 0 0 0 0 0 0 0 0 0 0 0 0 0 0 0 0 0 0 0 0 0 0 0 0 0 0 127 127 127 127 127 127 127 127 127 127 127 127 127 127 127 127 127 127 127 127 127 127 127 127 127 127 127 127 127 127 127 127 127 127 127 127 117 112 108 104 100 96 92 89 86 82 79 76 74 71 68 66 64 62 60 58 56 54 52 51 49 48 47 46 44 43 42 41 40 39 38 37 36 36 35 34 33 33 32 31 31 30 29 29 28 28 28 27 27 26 26 25 25 25 47 116 127 128 129 130 132 134 135 137 139 141 142 144 146 147 149 151 152 154 156 157 159 160 162 163 165 166 168 169 170 172 173 174 175 177 178 179 180 181 182 183 184 185 187 187 188 188 177 143 130 128 128 128 128 128 128 128 128 128 128 128 128 128 128 128 128 128 125 121 117 112 108 104 100 96 92 89 86 82 79 76 74 71 68 66 64 62 60 58 56 54 52 51 49 48 47 46 44 43 42 41 40 39 38 37 36 36 35 34 33 33 32 31 31 30 29 29 28 28 28 27 27 26 26 25 25 25 47 116 127 128
128 128 131 221 229 229 229 228 228 227 227 226 226 225 224 224 223 223 222 221 221 220 219 219 218 217 216 215 214 213 212 211 210 209 208 206 205 204 202 200 199 197 195 193 191 189 187 184 182 180 177 174 171 168 164 161 157 154 150 146 142 138 134 130 128 128 128 128 128 128 128 128 128 128 128 128 128 128 128 128 128 125 82 64 65 66 67 68 68 70 71 72 73 74 75 76 78 79 80 81 83 84 85 87 88 89 91 93 94 95 97 99 100 102 104 105 107 109 110 112 114 116 117 119 121 123 125 126 128 128 131 221 229 229 229 228 228 227 227 226 226 225 224 224 223 223 222 221 221 220 219 219 218 217 216 215 214 213 212 211 210 209 208 206 205 204 202 200 199 197 195 193 191 189 187 184 182 180 177 174 171 168 164 161 157 154 150 146 142 138 134 130 127 127 127 127 127 127 127 127 127 127 127 127 127 127 127 127 127 127 127 127 127 127 127 127 127 127 127 127 127 127 127 127 127 0 0 0 0 0 0 0 0 0 0 0 0 0 0 0 0 0 0 0 0 0 0 0 0 0 0 0 0 0 0 0 0 0 0 0 0 0 0 0 0 0 0 0 0 0 0 0 0 0 0 0 0 0 0 0 0 0 0 0 0 0 127 127 127 127 127 127 127 127 127 127 127 127 127 127 127 127 127 127 127 127 127 127 127 127 127 127 127 127 127 127 127 127 127 127 127 127 117 113 109 105 102 98 94 91 88 84 81 78 76 73 70 68 66 64 62 60 58 56 55 53 52 50 49 47 46 45 44 43 42 41 40 39 38 37 36 36 35 34 33 33 32 32 31 31 30 29 29 28 28 27 27 27 26 31 70 124 128 128 128 130 132 134 136 138 139 141 143 145 146 148 150 151 153 155 156 158 160 161 163 164 165 167 168 170 171 172 174 175 176 177 179 180 181 182 183 184 185 186 187 188 189 190 190 178 143 129 128 128 128 128 128 128 128 128 128 128 128 128 128 128 128 128 125 121 117 113 109 105 102 98 94 91 88 84 81 78 76 73 70 68 66 64 62 60 58 56 55 53 52 50 49 47 46 45 44 43 42 41 40 39 38 37 36 36 35 34 33 33 32 32 31 31 30 29 29 28 28 27 27 27 26 31 70 124 128 128
128 128 128 195 228 228 227 227 226 226 225 225 224 224 223 222 222 221 221 220 219 219 218 217 216 215 214 213 213 211 210 209 208 207 206 204 203 202 200 199 197 195 193 191 189 187 185 182 180 177 175 172 169 166 163 159 156 152 149 145 141 137 134 129 128 128 128 128 128 128 128 128 128 128 128 128 128 128 128 128 127 87 62 63 64 64 66 67 68 69 70 71 72 73 74 76 77 78 79 80 82 83 84 86 87 89 90 92 93 95 96 98 100 101 103 105 107 108 110 112 114 115 117 119 121 123 125 127 128 128 128 195 228 228 227 227 226 226 225 225 224 224 223 222 222 221 221 220 219 219 218 217 216 215 214 213 213 211 210 209 208 207 206 204 203 202 200 199 197 195 193 191 189 187 185 182 180 177 175 172 169 166 163 159 156 152 149 145 141 137 134 129 127 127 127 127 127 127 127 127 127 127 127 127 127 127 127 127 127 127 127 127 127 127 127 127 127 127 127 127 127 127 127 127 127 0 0 0 0 0 0 0 0 0 0 0 0 0 0 0 0 0 0 0 0 0 0 0 0 0 0 0 0 0 0 0 0 0 0 0 0 0 0 0 0 0 0 0 0 0 0 0 0 0 0 0 0 0 0 0 0 0 0 0 0 0 127 127 127 127 127 127 127 127 127 127 127 127 127 127 127 127 127 127 127 127 127 127 127 127 127 127 127 127 127 127 127 127 127 127 127 127 118 114 110 106 103 99 96 92 89 86 83 80 78 75 73 70 68 66 64 62 60 58 57 55 53 52 51 49 48 47 46 45 44 43 42 41 40 39 38 37 36 36 35 34 34 33 32 32 31 31 30 30 29 28 28 28 27 39 96 126 128 128 129 130 132 134 136 138 140 141 143 145 147 148 150 152 154 155 157 159 160 162 163 165 166 168 169 170 172 173 175 176 177 178 180 181 182 183 184 185 186 187 188 189 190 191 192 191 179 142 129 128 128 128 128 128 128 128 128 128 128 128 128 128 128 128 126 122 118 114 110 106 103 99 96 92 89 86 83 80 78 75 73 70 68 66 64 62 60 58 57 55 53 52 51 49 48 47 46 45 44 43 42 41 40 39 38 37 36 36 35 34 34 33 32 32 31 31 30 30 29 28 28 28 27 39 96 126 128 128
128 128 128 158 226 227 226 226 225 224 224 223 223 222 222 221 220 220 219 219 218 217 216 215 215 214 213 212 211 210 209 208 206 205 204 203 201 200 198 196 195 193 191 189 187 185 183 181 178 176 173 170 167 164 161 158 155 151 148 144 141 137 133 129 128 128 128 128 128 128 128 128 128 128 128 128 128 128 128 128 93 60 61 62 63 64 65 66 67 68 69 70 71 72 73 74 76 77 78 80 81 82 84 85 87 88 89 91 93 94 96 98 99 101 102 104 106 108 110 112 113 115 117 119 121 123 125 127 128 128 128 158 226 227 226 226 225 224 224 223 223 222 222 221 220 220 219 219 218 217 216 215 215 214 213 212 211 210 209 208 206 205 204 203 201 200 198 196 195 193 191 189 187 185 183 181 178 176 173 170 167 164 161 158 155 151 148 144 141 137 133 129 127 127 127 127 127 127 127 127 127 127 127 127 127 127 127 127 127 127 127 127 127 127 127 127 127 127 127 127 127 127 127 127 127 0 0 0 0 0 0 0 0 0 0 0 0 0 0 0 0 0 0 0 0 0 0 0 0 0 0 0 0 0 0 0 0 0 0 0 0 0 0 0 0 0 0 0 0 0 0 0 0 0 0 0 0 0 0 0 0 0 0 0 0 0 127 127 127 127 127 127 127 127 127 127 127 127 127 127 127 127 127 127 127 127 127 127 127 127 127 127 127 127 127 127 127 127 127 127 127 127 118 114 111 107 104 100 97 94 91 88 85 82 79 77 74 72 70 68 66 64 62 60 59 57 55 54 52 51 50 49 48 46 45 44 43 42 41 40 40 39 38 37 37 36 35 35 34 33 33 32 31 31 30 30 30 29 30 49 116 127 128 128 128 130 132 134 136 138 140 142 143 145 147 149 151 153 154 156 158 159 161 162 164 165 167 169 170 171 173 174 175 177 178 179 180 182 183 184 185 186 187 188 189 190 191 192 193 194 193 177 139 129 128 128 128 128 128 128 128 128 128 128 128 128 128 128 126 122 118 114 111 107 104 100 97 94 91 88 85 82 79 77 74 72 70 68 66 64 62 60 59 57 55 54 52 51 50 49 48 46 45 44 43 42 41 40 40 39 38 37 37 36 35 35 34 33 33 32 31 31 30 30 30 29 30 49 116 127 128 128
128 128 128 130 215 225 225 224 224 223 223 222 222 221 220 220 219 218 218 217 216 216 215 214 213 212 211 210 209 208 207 206 205 203 202 201 199 198 196 195 193 191 189 187 185 183 181 179 176 174 171 169 166 163 160 157 154 150 147 144 140 136 133 129 128 128 128 128 128 128 128 128 128 128 128 128 128 128 128 97 58 59 60 61 62 63 64 65 66 67 68 69 70 71 73 74 75 76 77 79 80 81 83 84 86 87 89 90 92 93 95 97 98 100 102 104 105 107 109 111 113 115 117 119 121 123 125 127 128 128 128 130 215 225 225 224 224 223 223 222 222 221 220 220 219 218 218 217 216 216 215 214 213 212 211 210 209 208 207 206 205 203 202 201 199 198 196 195 193 191 189 187 185 183 181 179 176 174 171 169 166 163 160 157 154 150 147 144 140 136 133 129 127 127 127 127 127 127 127 127 127 127 127 127 127 127 127 127 127 127 127 127 127 127 127 127 127 127 127 127 127 127 127 127 127 0 0 0 0 0 0 0 0 0 0 0 0 0 0 0 0 0 0 0 0 0 0 0 0 0 0 0 0 0 0 0 0 0 0 0 0 0 0 0 0 0 0 0 0 0 0 0 0 0 0 0 0 0 0 0 0 0 0 0 0 0 127 127 127 127 127 127 127 127 127 127 127 127 127 127 127 127 127 127 127 127 127 127 127 127 127 127 127 127 127 127 127 127 127 127 127 127 119 115 111 108 105 101 98 95 92 89 86 84 81 79 76 74 72 70 68 66 64 62 60 59 57 56 54 53 52 50 49 48 47 46 45 44 43 42 41 40 40 39 38 37 37 36 35 35 34 33 33 32 32 31 31 30 35 74 124 128 128 128 129 130 133 134 136 138 140 142 144 146 148 149 151 153 155 156 158 160 162 163 165 166 168 169 171 172 174 175 176 178 179 180 181 183 184 185 186 187 188 189 190 191 192 193 194 195 196 194 174 136 128 128 128 128 128 128 128 128 128 128 128 128 128 128 126 122 119 115 111 108 105 101 98 95 92 89 86 84 81 79 76 74 72 70 68 66 64 62 60 59 57 56 54 53 52 50 49 48 47 46 45 44 43 42 41 40 40 39 38 37 37 36 35 35 34 33 33 32 32 31 31 30 35 74 124 128 128 128
128 128 128 128 182 224 224 223 222 222 221 221 220 220 219 218 218 217 216 215 215 214 213 212 212 211 209 209 207 207 205 204 203 202 200 199 197 196 194 193 191 189 188 186 184 182 179 177 175 172 170 167 164 161 159 156 153 149 146 143 139 136 133 129 128 128 128 128 128 128 128 128 128 128 128 128 128 128 108 58 57 58 59 60 61 62 63 64 65 66 67 68 69 70 71 73 74 75 76 78 79 80 82 83 85 86 88 89 91 93 94 96 98 100 101 103 105 107 109 111 113 115 117 119 121 123 124 127 128 128 128 128 182 224 224 223 222 222 221 221 220 220 219 218 218 217 216 215 215 214 213 212 212 211 209 209 207 207 205 204 203 202 200 199 197 196 194 193 191 189 188 186 184 182 179 177 175 172 170 167 164 161 159 156 153 149 146 143 139 136 133 129 127 127 127 127 127 127 127 127 127 127 127 127 127 127 127 127 127 127 127 127 127 127 127 127 127 127 127 127 127 127 127 127 127 0 0 0 0 0 0 0 0 0 0 0 0 0 0 0 0 0 0 0 0 0 0 0 0 0 0 0 0 0 0 0 0 0 0 0 0 0 0 0 0 0 0 0 0 0 0 0 0 0 0 0 0 0 0 0 0 0 0 0 0 0 127 127 127 127 127 127 127 127 127 127 127 127 127 127 127 127 127 127 127 127 127 127 127 127 127 127 127 127 127 127 127 127 127 127 127 127 119 116 112 109 106 102 99 96 93 91 88 85 83 80 78 76 73 71 69 67 66 64 62 61 59 57 56 55 53 52 51 50 48 48 46 46 45 44 43 42 41 40 39 39 38 37 37 36 35 35 34 34 33 32 32 31 44 104 126 128 128 128 129 130 133 134 137 139 140 142 144 146 148 150 152 154 156 157 159 161 162 164 166 167 169 170 171 173 175 176 177 179 180 181 182 184 185 186 187 188 189 190 191 192 193 194 195 196 197 198 194 167 134 128 128 128 128 128 128 128 128 128 128 128 128 128 126 122 119 116 112 109 106 102 99 96 93 91 88 85 83 80 78 76 73 71 69 67 66 64 62 61 59 57 56 55 53 52 51 50 48 48 46 46 45 44 43 42 41 40 39 39 38 37 37 36 35 35 34 34 33 32 32 31 44 104 126 128 128 128
128 128 128 128 142 220 222 222 221 221 220 220 219 218 218 217 216 216 215 214 213 213 212 211 210 209 208 207 206 205 204 203 201 200 199 197 196 194 193 191 190 188 186 184 182 180 178 176 173 171 169 166 163 160 157 155 152 149 145 142 139 136 133 129 128 128 128 128 128 128 128 128 128 128 128 128 128 118 59 56 56 57 58 59 60 61 62 63 64 65 66 67 68 69 70 72 73 74 75 77 78 80 81 82 84 85 87 89 90 92 94 95 97 99 101 103 105 106 108 110 112 114 116 118 120 122 124 127 128 128 128 128 142 220 222 222 221 221 220 220 219 218 218 217 216 216 215 214 213 213 212 211 210 209 208 207 206 205 204 203 201 200 199 197 196 194 193 191 190 188 186 184 182 180 178 176 173 171 169 166 163 160 157 155 152 149 145 142 139 136 133 129 127 127 127 127 127 127 127 127 127 127 127 127 127 127 127 127 127 127 127 127 127 127 127 127 127 127 127 127 127 127 127 127 127 0 0 0 0 0 0 0 0 0 0 0 0 0 0 0 0 0 0 0 0 0 0 0 0 0 0 0 0 0 0 0 0 0 0 0 0 0 0 0 0 0 0 0 0 0 0 0 0 0 0 0 0 0 0 0 0 0 0 0 0 0 127 127 127 127 127 127 127 127 127 127 127 127 127 127 127 127 127 127 127 127 127 127 127 127 127 127 127 127 127 127 127 127 127 127 127 127 119 116 113 109 106 104 100 97 95 92 89 86 84 82 79 77 75 73 71 69 67 65 64 62 60 59 58 56 55 54 52 51 50 49 48 47 46 45 44 43 42 42 41 40 39 39 38 37 37 36 35 35 34 34 33 35 61 120 128 128 128 128 129 131 133 135 137 139 141 143 145 147 149 151 152 154 156 158 160 161 163 165 166 168 169 171 172 174 175 177 178 180 181 182 183 185 186 187 188 189 190 191 192 193 194 195 196 197 198 199 199 194 158 132 128 128 128 128 128 128 128 128 128 128 128 128 126 122 119 116 113 109 106 104 100 97 95 92 89 86 84 82 79 77 75 73 71 69 67 65 64 62 60 59 58 56 55 54 52 51 50 49 48 47 46 45 44 43 42 42 41 40 39 39 38 37 37 36 35 35 34 34 33 35 61 120 128 128 128 128
128 128 128 128 128 195 221 221 220 219 219 218 218 217 216 216 215 214 213 213 212 211 210 209 208 208 206 205 204 203 202 201 200 199 197 196 194 193 191 190 188 186 184 183 181 178 176 174 172 169 167 164 162 159 157 154 151 148 145 142 139 136 132 129 128 128 128 128 128 128 128 128 128 128 128 128 125 67 54 54 55 56 57 58 59 60 61 62 63 64 65 66 67 68 69 70 72 73 75 76 77 79 80 81 83 85 86 88 89 91 93 95 97 98 100 102 104 106 108 110 112 114 116 118 120 122 124 127 128 128 128 128 128 195 221 221 220 219 219 218 218 217 216 216 215 214 213 213 212 211 210 209 208 208 206 205 204 203 202 201 200 199 197 196 194 193 191 190 188 186 184 183 181 178 176 174 172 169 167 164 162 159 157 154 151 148 145 142 139 136 132 129 127 127 127 127 127 127 127 127 127 127 127 127 127 127 127 127 127 127 127 127 127 127 127 127 127 127 127 127 127 127 127 127 127 0 0 0 0 0 0 0 0 0 0 0 0 0 0 0 0 0 0 0 0 0 0 0 0 0 0 0 0 0 0 0 0 0 0 0 0 0 0 0 0 0 0 0 0 0 0 0 0 0 0 0 0 0 0 0 0 0 0 0 0 0 127 127 127 127 127 127 127 127 127 127 127 127 127 127 127 127 127 127 127 127 127 127 127 127 127 127 127 127 127 127 127 127 127 127 127 127 120 116 113 110 107 104 101 98 96 93 91 88 86 83 81 79 77 74 73 71 69 67 65 64 62 61 59 58 57 55 54 53 52 51 50 48 47 46 46 45 44 43 42 41 41 40 39 38 38 37 37 36 36 35 35 43 92 125 128 128 128 128 129 131 133 135 137 139 141 143 145 147 149 151 153 155 157 159 160 162 164 166 167 169 171 172 173 175 176 178 179 181 182 183 184 186 187 188 189 190 191 192 194 194 195 196 197 198 199 200 201 200 192 149 130 128 128 128 128 128 128 128 128 128 128 128 126 123 120 116 113 110 107 104 101 98 96 93 91 88 86 83 81 79 77 74 73 71 69 67 65 64 62 61 59 58 57 55 54 53 52 51 50 48 47 46 46 45 44 43 42 41 41 40 39 38 38 37 37 36 36 35 35 43 92 125 128 128 128 128
128 128 128 128 128 153 219 219 219 218 218 217 216 216 215 214 214 213 212 211 211 210 209 208 207 206 205 204 203 202 201 200 198 197 196 194 193 191 190 188 186 185 183 181 179 177 175 173 170 168 166 163 161 158 155 153 150 147 144 141 138 135 132 129 128 128 128 128 128 128 128 128 128 128 128 128 85 52 53 54 54 55 56 57 58 59 60 61 62 63 64 65 66 67 68 69 71 72 73 75 76 78 79 81 82 84 85 87 89 91 92 94 96 98 99 101 103 105 107 109 111 114 116 118 120 122 124 126 128 128 128 128 128 153 219 219 219 218 218 217 216 216 215 214 214 213 212 211 211 210 209 208 207 206 205 204 203 202 201 200 198 197 196 194 193 191 190 188 186 185 183 181 179 177 175 173 170 168 166 163 161 158 155 153 150 147 144 141 138 135 132 129 127 127 127 127 127 127 127 127 127 127 127 127 127 127 127 127 127 127 127 127 127 127 127 127 127 127 127 127 127 127 127 127 127 0 0 0 0 0 0 0 0 0 0 0 0 0 0 0 0 0 0 0 0 0 0 0 0 0 0 0 0 0 0 0 0 0 0 0 0 0 0 0 0 0 0 0 0 0 0 0 0 0 0 0 0 0 0 0 0 0 0 0 0 0 127 127 127 127 127 127 127 127 127 127 127 127 127 127 127 127 127 127 127 127 127 127 127 127 127 127 127 127 127 127 127 127 127 127 127 127 120 117 114 111 108 105 102 100 97 94 92 89 87 85 82 80 78 76 74 72 70 69 67 65 64 62 61 59 58 57 56 54 53 52 51 50 49 48 47 46 45 44 44 43 42 41 41 40 39 39 38 37 37 36 37 56 117 127 128 128 128 128 129 131 133 135 137 139 141 143 146 148 150 152 154 156 158 159 161 163 165 166 168 170 171 173 174 176 178 179 180 182 183 184 185 187 188 189 190 191 192 193 194 195 196 197 198 199 200 201 202 202 201 185 140 129 128 128 128 128 128 128 128 128 128 128 126 123 120 117 114 111 108 105 102 100 97 94 92 89 87 85 82 80 78 76 74 72 70 69 67 65 64 62 61 59 58 57 56 54 53 52 51 50 49 48 47 46 45 44 44 43 42 41 41 40 39 39 38 37 37 36 37 56 117 127 128 128 128 128
128 128 128 128 128 129 199 218 218 217 217 216 215 215 214 213 212 212 211 210 209 208 208 207 206 205 203 203 202 200 199 198 197 195 194 193 191 190 188 187 185 183 181 180 177 175 174 171 169 167 164 162 160 157 154 152 149 146 144 141 138 135 132 129 128 128 128 128 128 128 128 128 128 128 128 104 50 51 52 53 53 54 55 56 57 58 59 59 61 62 63 64 65 66 67 68 70 71 72 74 75 77 78 80 81 83 84 86 88 89 91 93 95 97 99 101 103 105 107 109 111 113 115 117 120 122 124 126 128 128 128 128 128 129 199 218 218 217 217 216 215 215 214 213 212 212 211 210 209 208 208 207 206 205 203 203 202 200 199 198 197 195 194 193 191 190 188 187 185 183 181 180 177 175 174 171 169 167 164 162 160 157 154 152 149 146 144 141 138 135 132 129 127 127 127 127 127 127 127 127 127 127 127 127 127 127 127 127 127 127 127 127 127 127 127 127 127 127 127 127 127 127 127 127 127 0 0 0 0 0 0 0 0 0 0 0 0 0 0 0 0 0 0 0 0 0 0 0 0 0 0 0 0 0 0 0 0 0 0 0 0 0 0 0 0 0 0 0 0 0 0 0 0 0 0 0 0 0 0 0 0 0 0 0 0 0 127 127 127 127 127 127 127 127 127 127 127 127 127 127 127 127 127 127 127 127 127 127 127 127 127 127 127 127 127 127 127 127 127 127 127 127 120 117 114 112 109 106 103 100 98 95 93 90 88 86 84 81 80 77 75 74 72 70 68 67 65 64 62 61 60 58 57 56 55 54 52 51 50 49 48 48 47 46 45 44 43 43 42 41 40 40 39 39 38 37 44 88 125 128 128 128 128 128 129 131 133 135 138 140 142 144 146 148 150 152 154 156 158 160 162 164 166 167 169 171 172 174 176 177 179 180 181 183 184 185 186 188 189 190 191 192 193 194 196 196 197 198 199 200 201 202 203 203 204 201 173 134 128 128 128 128 128 128 128 128 128 128 126 123 120 117 114 112 109 106 103 100 98 95 93 90 88 86 84 81 80 77 75 74 72 70 68 67 65 64 62 61 60 58 57 56 55 54 52 51 50 49 48 48 47 46 45 44 43 43 42 41 40 40 39 39 38 37 44 88 125 128 128 128 128 128
128 128 128 128 128 128 157 217 216 216 215 215 214 213 213 212 211 210 210 209 208 207 206 205 204 203 202 201 200 199 198 197 195 194 193 191 190 188 187 185 183 182 180 178 176 174 172 170 168 166 163 161 159 156 154 151 148 146 143 140 137 135 132 129 128 128 128 128 128 128 128 128 128 128 121 57 49 50 51 51 52 53 54 55 56 57 57 58 59 60 61 63 64 65 66 67 69 70 71 73 74 76 77 79 80 82 83 85 87 88 90 92 94 96 98 100 102 104 106 108 111 113 115 117 120 122 124 126 128 128 128 128 128 128 157 217 216 216 215 215 214 213 213 212 211 210 210 209 208 207 206 205 204 203 202 201 200 199 198 197 195 194 193 191 190 188 187 185 183 182 180 178 176 174 172 170 168 166 163 161 159 156 154 151 148 146 143 140 137 135 132 129 127 127 127 127 127 127 127 127 127 127 127 127 127 127 127 127 127 127 127 127 127 127 127 127 127 127 127 127 127 127 127 127 127 0 0 0 0 0 0 0 0 0 0 0 0 0 0 0 0 0 0 0 0 0 0 0 0 0 0 0 0 0 0 0 0 0 0 0 0 0 0 0 0 0 0 0 0 0 0 0 0 0 0 0 0 0 0 0 0 0 0 0 0 0 127 127 127 127 127 127 127 127 127 127 127 127 127 127 127 127 127 127 127 127 127 127 127 127 127 127 127 127 127 127 127 127 127 127 127 127 120 118 115 112 109 107 104 101 99 96 94 92 89 87 85 83 81 79 77 75 73 72 70 68 67 65 64 62 61 60 58 57 56 55 54 53 52 51 50 49 48 47 46 45 45 44 43 42 42 41 40 40 39 39 56 115 127 128 128 128 128 128 129 131 133 135 138 140 142 144 147 149 151 153 155 157 159 161 163 165 166 168 170 172 173 175 176 178 179 181 182 184 185 187 188 189 190 191 192 193 194 195 197 198 199 199 200 201 202 203 204 205 205 206 200 155 130 128 128 128 128 128 128 128 128 128 126 123 120 118 115 112 109 107 104 101 99 96 94 92 89 87 85 83 81 79 77 75 73 72 70 68 67 65 64 62 61 60 58 57 56 55 54 53 52 51 50 49 48 47 46 45 45 44 43 42 42 41 40 40 39 39 56 115 127 128 128 128 128 128
128 128 128 128 128 128 129 197 215 215 214 214 213 212 211 211 210 209 208 208 207 206 205 204 203 202 201 200 199 198 196 195 194 192 191 190 188 187 185 184 182 180 179 177 175 173 171 169 167 165 162 160 157 155 153 150 148 145 142 140 137 134 132 129 128 128 128 128 128 128 128 128 128 128 79 47 48 49 50 50 51 52 53 54 54 55 56 57 58 59 61 61 63 64 65 66 67 69 70 71 73 74 76 77 79 81 82 84 86 87 89 91 93 95 97 99 101 104 106 108 110 112 115 117 119 122 124 126 128 128 128 128 128 128 129 197 215 215 214 214 213 212 211 211 210 209 208 208 207 206 205 204 203 202 201 200 199 198 196 195 194 192 191 190 188 187 185 184 182 180 179 177 175 173 171 169 167 165 162 160 157 155 153 150 148 145 142 140 137 134 132 129 127 127 127 127 127 127 127 127 127 127 127 127 127 127 127 127 127 127 127 127 127 127 127 127 127 127 127 127 127 127 127 127 127 0 0 0 0 0 0 0 0 0 0 0 0 0 0 0 0 0 0 0 0 0 0 0 0 0 0 0 0 0 0 0 0 0 0 0 0 0 0 0 0 0 0 0 0 0 0 0 0 0 0 0 0 0 0 0 0 0 0 0 0 0 127 127 127 127 127 127 127 127 127 127 127 127 127 127 127 127 127 127 127 127 127 127 127 127 127 127 127 127 127 127 127 127 127 127 127 127 121 118 115 113 110 107 105 102 100 97 95 93 90 88 86 84 82 80 78 76 75 73 71 70 68 67 65 64 62 61 60 59 57 56 55 54 53 52 51 50 49 49 47 47 46 45 44 44 43 42 42 41 40 46 89 125 128 128 128 128 128 128 129 131 133 136 138 140 143 145 147 149 151 154 156 158 160 162 164 166 167 169 171 173 174 176 178 179 181 182 184 185 186 188 188 190 191 192 194 195 196 197 198 199 200 201 201 203 203 204 205 206 206 207 207 191 141 129 128 128 128 128 128 128 128 128 126 124 121 118 115 113 110 107 105 102 100 97 95 93 90 88 86 84 82 80 78 76 75 73 71 70 68 67 65 64 62 61 60 59 57 56 55 54 53 52 51 50 49 49 47 47 46 45 44 44 43 42 42 41 40 46 89 125 128 128 128 128 128 128
128 128 128 128 128 128 128 152 214 214 213 212 212 211 210 210 209 208 207 206 205 204 203 203 202 201 199 199 197 196 195 194 192 191 190 188 187 185 184 182 181 179 177 175 174 172 170 168 166 164 161 159 157 154 152 150 147 145 142 139 137 134 131 129 128 128 128 128 128 128 128 128 128 106 45 46 47 47 48 49 50 51 51 52 53 54 55 56 57 58 59 60 61 63 64 65 66 68 69 70 72 73 75 76 78 79 81 83 85 87 88 90 92 94 96 99 101 103 105 107 110 112 114 117 119 121 124 126 128 128 128 128 128 128 128 152 214 214 213 212 212 211 210 210 209 208 207 206 205 204 203 203 202 201 199 199 197 196 195 194 192 191 190 188 187 185 184 182 181 179 177 175 174 172 170 168 166 164 161 159 157 154 152 150 147 145 142 139 137 134 131 129 127 127 127 127 127 127 127 127 127 127 127 127 127 127 127 127 127 127 127 127 127 127 127 127 127 127 127 127 127 127 127 127 127 0 0 0 0 0 0 0 0 0 0 0 0 0 0 0 0 0 0 0 0 0 0 0 0 0 0 0 0 0 0 0 0 0 0 0 0 0 0 0 0 0 0 0 0 0 0 0 0 0 0 0 0 0 0 0 0 0 0 0 0 0 127 127 127 127 127 127 127 127 127 127 127 127 127 127 127 127 127 127 127 127 127 127 127 127 127 127 127 127 127 127 127 127 127 127 127 127 121 118 116 113 111 108 105 103 101 98 96 94 91 89 87 85 83 81 79 78 76 74 73 71 69 68 67 65 64 63 61 60 59 58 56 56 54 53 52 52 50 50 49 48 47 46 46 45 44 43 43 42 42 59 116 127 128 128 128 128 128 128 129 131 134 136 138 141 143 145 148 150 152 154 157 159 161 163 165 167 168 170 172 174 175 177 179 180 182 183 185 186 187 189 190 191 192 193 195 196 197 198 199 200 201 202 202 203 204 205 206 207 207 208 209 206 174 134 128 128 128 128 128 128 128 128 126 123 121 118 116 113 111 108 105 103 101 98 96 94 91 89 87 85 83 81 79 78 76 74 73 71 69 68 67 65 64 63 61 60 59 58 56 56 54 53 52 52 50 50 49 48 47 46 46 45 44 43 43 42 42 59 116 127 128 128 128 128 128 128
128 128 128 128 128 128 128 128 189 213 212 211 211 210 209 208 207 207 206 205 204 203 202 201 200 199 198 197 196 195 194 192 191 190 189 187 186 184 183 181 179 178 176 174 172 170 169 167 165 163 160 158 156 154 151 149 146 144 141 139 136 134 131 129 128 128 128 128 128 128 128 128 125 57 44 45 46 47 47 48 49 50 50 51 52 53 54 55 56 57 58 59 60 61 63 64 65 66 68 69 71 72 73 75 77 78 80 82 84 86 87 89 91 93 95 98 100 102 105 107 109 111 114 116 119 121 124 126 128 128 128 128 128 128 128 128 189 213 212 211 211 210 209 208 207 207 206 205 204 203 202 201 200 199 198 197 196 195 194 192 191 190 189 187 186 184 183 181 179 178 176 174 172 170 169 167 165 163 160 158 156 154 151 149 146 144 141 139 136 134 131 129 127 127 127 127 127 127 127 127 127 127 127 127 127 127 127 127 127 127 127 127 127 127 127 127 127 127 127 127 127 127 127 127 127 0 0 0 0 0 0 0 0 0 0 0 0 0 0 0 0 0 0 0 0 0 0 0 0 0 0 0 0 0 0 0 0 0 0 0 0 0 0 0 0 0 0 0 0 0 0 0 0 0 0 0 0 0 0 0 0 0 0 0 0 0 127 127 127 127 127 127 127 127 127 127 127 127 127 127 127 127 127 127 127 127 127 127 127 127 127 127 127 127 127 127 127 127 127 127 127 127 121 118 116 113 111 109 106 104 102 99 97 95 92 90 88 86 84 83 81 79 77 76 74 72 71 69 68 66 65 64 63 61 60 59 58 57 56 55 54 53 52 51 50 49 48 47 47 46 45 45 44 43 50 95 125 128 128 128 128 128 128 128 129 131 134 136 139 141 144 146 148 151 153 155 157 160 161 164 166 168 169 171 173 175 176 178 180 182 183 184 186 187 189 190 191 192 194 195 196 197 198 199 200 201 202 203 204 205 206 206 207 208 209 209 210 210 202 151 130 128 128 128 128 128 128 128 126 124 121 118 116 113 111 109 106 104 102 99 97 95 92 90 88 86 84 83 81 79 77 76 74 72 71 69 68 66 65 64 63 61 60 59 58 57 56 55 54 53 52 51 50 49 48 47 47 46 45 45 44 43 50 95 125 128 128 128 128 128 128 128
128 128 128 128 128 128 128 128 142 208 210 210 209 209 208 207 206 206 205 204 203 202 201 200 199 198 197 196 195 194 192 191 190 189 187 186 184 183 182 180 178 176 175 173 171 169 168 166 164 161 160 157 155 153 151 148 146 144 141 139 136 134 131 129 128 128 128 128 128 128 128 128 94 42 43 44 45 45 46 47 47 48 49 50 51 52 53 54 55 56 57 58 59 60 61 63 64 65 66 68 69 71 72 74 76 77 79 81 83 84 86 88 90 92 95 97 99 102 104 106 109 111 113 116 118 121 124 126 128 128 128 128 128 128 128 128 142 208 210 210 209 209 208 207 206 206 205 204 203 202 201 200 199 198 197 196 195 194 192 191 190 189 187 186 184 183 182 180 178 176 175 173 171 169 168 166 164 161 160 157 155 153 151 148 146 144 141 139 136 134 131 129 127 127 127 127 127 127 127 127 127 127 127 127 127 127 127 127 127 127 127 127 127 127 127 127 127 127 127 127 127 127 127 127 127 0 0 0 0 0 0 0 0 0 0 0 0 0 0 0 0 0 0 0 0 0 0 0 0 0 0 0 0 0 0 0 0 0 0 0 0 0 0 0 0 0 0 0 0 0 0 0 0 0 0 0 0 0 0 0 0 0 0 0 0 0 127 127 127 127 127 127 127 127 127 127 127 127 127 127 127 127 127 127 127 127 127 127 127 127 127 127 127 127 127 127 127 127 127 127 127 127 121 119 116 114 111 109 107 105 102 100 98 95 93 91 89 87 86 84 82 80 78 77 75 73 72 71 69 68 66 65 64 63 61 60 59 58 57 56 55 54 53 52 51 50 50 49 48 47 47 46 45 46 68 120 128 128 128 128 128 128 128 128 129 131 134 136 139 141 144 146 149 151 154 156 158 160 163 165 167 169 170 172 174 176 178 179 181 183 184 186 187 189 190 191 192 194 195 196 197 198 199 200 201 202 203 204 205 206 207 207 208 209 210 211 211 212 211 186 136 128 128 128 128 128 128 128 126 124 121 119 116 114 111 109 107 105 102 100 98 95 93 91 89 87 86 84 82 80 78 77 75 73 72 71 69 68 66 65 64 63 61 60 59 58 57 56 55 54 53 52 51 50 50 49 48 47 47 46 45 46 68 120 128 128 128 128 128 128 128 128
128 128 128 128 128 128 128 128 128 173 210 209 208 207 207 206 205 204 203 202 202 201 200 199 198 197 196 195 193 192 191 190 189 187 186 185 183 182 180 179 177 175 174 172 170 168 167 165 163 161 159 157 154 152 150 148 145 143 141 138 136 134 131 129 128 128 128 128 128 128 128 121 44 41 42 43 43 44 45 46 46 47 48 49 50 50 52 52 53 54 56 56 58 59 60 61 63 64 65 67 68 69 71 73 74 76 78 79 81 83 85 87 89 91 94 96 98 101 103 105 108 111 113 116 118 121 123 126 128 128 128 128 128 128 128 128 128 173 210 209 208 207 207 206 205 204 203 202 202 201 200 199 198 197 196 195 193 192 191 190 189 187 186 185 183 182 180 179 177 175 174 172 170 168 167 165 163 161 159 157 154 152 150 148 145 143 141 138 136 134 131 129 127 127 127 127 127 127 127 127 127 127 127 127 127 127 127 127 127 127 127 127 127 127 127 127 127 127 127 127 127 127 127 127 127 0 0 0 0 0 0 0 0 0 0 0 0 0 0 0 0 0 0 0 0 0 0 0 0 0 0 0 0 0 0 0 0 0 0 0 0 0 0 0 0 0 0 0 0 0 0 0 0 0 0 0 0 0 0 0 0 0 0 0 0 0 127 127 127 127 127 127 127 127 127 127 127 127 127 127 127 127 127 127 127 127 127 127 127 127 127 127 127 127 127 127 127 127 127 127 127 127 121 119 117 114 112 110 107 105 103 101 99 96 94 92 90 88 87 85 83 81 79 78 76 75 73 72 70 69 68 66 65 64 63 61 60 59 58 57 56 55 54 53 52 51 51 50 49 48 47 47 46 56 104 126 128 128 128 128 128 128 128 128 129 131 134 137 139 142 145 147 150 152 154 157 159 161 164 166 168 170 172 174 175 177 179 181 182 184 185 187 188 190 191 192 194 195 196 197 199 199 201 202 203 203 204 205 206 207 208 209 210 210 211 212 212 213 214 208 159 131 128 128 128 128 128 128 126 124 121 119 117 114 112 110 107 105 103 101 99 96 94 92 90 88 87 85 83 81 79 78 76 75 73 72 70 69 68 66 65 64 63 61 60 59 58 57 56 55 54 53 52 51 51 50 49 48 47 47 46 56 104 126 128 128 128 128 128 128 128 128
128 128 128 128 128 128 128 128 128 131 196 208 207 206 206 205 204 203 203 201 201 200 199 198 197 196 195 194 192 191 190 188 188 186 185 184 182 181 179 178 176 174 173 171 169 167 166 164 162 160 158 156 154 151 149 147 145 143 140 138 136 133 131 129 128 128 128 128 128 128 128 86 40 40 41 42 42 43 44 44 45 46 47 47 49 49 50 51 52 53 54 55 56 57 59 60 61 62 64 65 67 68 70 71 73 75 76 78 80 82 84 86 88 90 93 95 97 100 102 105 107 110 113 115 118 121 124 126 128 128 128 128 128 128 128 128 128 131 196 208 207 206 206 205 204 203 203 201 201 200 199 198 197 196 195 194 192 191 190 188 188 186 185 184 182 181 179 178 176 174 173 171 169 167 166 164 162 160 158 156 154 151 149 147 145 143 140 138 136 133 131 129 127 127 127 127 127 127 127 127 127 127 127 127 127 127 127 127 127 127 127 127 127 127 127 127 127 127 127 127 127 127 127 127 127 0 0 0 0 0 0 0 0 0 0 0 0 0 0 0 0 0 0 0 0 0 0 0 0 0 0 0 0 0 0 0 0 0 0 0 0 0 0 0 0 0 0 0 0 0 0 0 0 0 0 0 0 0 0 0 0 0 0 0 0 0 127 127 127 127 127 127 127 127 127 127 127 127 127 127 127 127 127 127 127 127 127 127 127 127 127 127 127 127 127 127 127 127 127 127 127 127 122 119 117 115 112 110 108 106 104 101 99 97 95 93 91 89 87 86 84 82 81 79 77 76 74 73 71 70 69 67 66 65 64 63 61 61 59 58 57 56 55 54 54 53 52 51 50 50 49 48 52 84 124 128 128 128 128 128 128 128 128 128 129 132 134 137 140 142 145 148 150 153 155 157 160 162 165 167 169 171 173 175 177 179 180 182 184 185 187 188 190 191 192 194 195 196 198 199 200 201 202 203 204 205 206 207 208 208 209 210 211 211 212 213 214 214 215 213 193 138 128 128 128 128 128 128 126 124 122 119 117 115 112 110 108 106 104 101 99 97 95 93 91 89 87 86 84 82 81 79 77 76 74 73 71 70 69 67 66 65 64 63 61 61 59 58 57 56 55 54 54 53 52 51 50 50 49 48 52 84 124 128 128 128 128 128 128 128 128 128
128 128 128 128 128 128 128 128 128 128 149 205 206 205 205 204 203 202 201 200 199 199 198 197 195 194 193 192 191 190 189 188 187 185 184 182 181 179 178 176 175 173 172 170 168 166 165 163 161 159 157 155 153 151 149 147 144 142 140 138 135 133 131 129 128 128 128 128 128 128 120 41 38 39 40 40 41 42 42 43 44 45 45 46 47 48 49 50 51 52 53 54 55 56 57 58 60 61 62 64 65 67 68 70 72 73 75 77 79 81 83 85 87 89 92 94 96 99 101 104 107 109 112 115 118 120 123 126 128 128 128 128 128 128 128 128 128 128 149 205 206 205 205 204 203 202 201 200 199 199 198 197 195 194 193 192 191 190 189 188 187 185 184 182 181 179 178 176 175 173 172 170 168 166 165 163 161 159 157 155 153 151 149 147 144 142 140 138 135 133 131 129 127 127 127 127 127 127 127 127 127 127 127 127 127 127 127 127 127 127 127 127 127 127 127 127 127 127 127 127 127 127 127 127 127 0 0 0 0 0 0 0 0 0 0 0 0 0 0 0 0 0 0 0 0 0 0 0 0 0 0 0 0 0 0 0 0 0 0 0 0 0 0 0 0 0 0 0 0 0 0 0 0 0 0 0 0 0 0 0 0 0 0 0 0 0 127 127 127 127 127 127 127 127 127 127 127 127 127 127 127 127 127 127 127 127 127 127 127 127 127 127 127 127 127 127 127 127 127 127 127 127 122 120 117 115 113 111 108 106 104 102 100 98 96 94 92 90 88 87 85 83 82 80 79 77 76 74 73 71 70 69 67 66 65 64 63 61 60 59 58 57 57 56 55 54 53 52 51 51 50 50 68 116 127 128 128 128 128 128 128 128 128 128 129 132 135 137 140 143 146 148 151 154 156 159 161 163 166 168 170 172 174 176 178 180 182 183 185 187 188 190 191 193 194 195 197 198 199 200 201 202 203 204 205 206 207 208 209 210 210 211 212 213 213 214 215 215 216 216 212 163 131 128 128 128 128 128 126 124 122 120 117 115 113 111 108 106 104 102 100 98 96 94 92 90 88 87 85 83 82 80 79 77 76 74 73 71 70 69 67 66 65 64 63 61 60 59 58 57 57 56 55 54 53 52 51 51 50 50 68 116 127 128 128 128 128 128 128 128 128 128
128 128 128 128 128 128 128 128 128 128 128 173 205 204 203 203 202 201 200 199 198 197 196 196 194 193 192 191 190 189 188 186 185 184 183 181 180 179 177 176 174 172 171 169 167 166 164 162 160 158 156 154 152 150 148 146 144 142 140 138 135 133 131 129 128 128 128 128 128 128 86 37 37 38 39 39 40 40 41 42 43 43 44 45 46 47 48 48 49 50 51 52 54 55 56 57 58 60 61 62 64 65 67 68 70 72 74 75 77 80 81 84 86 88 90 93 95 98 100 103 106 109 112 114 117 120 123 126 128 128 128 128 128 128 128 128 128 128 128 173 205 204 203 203 202 201 200 199 198 197 196 196 194 193 192 191 190 189 188 186 185 184 183 181 180 179 177 176 174 172 171 169 167 166 164 162 160 158 156 154 152 150 148 146 144 142 140 138 135 133 131 129 127 127 127 127 127 127 127 127 127 127 127 127 127 127 127 127 127 127 127 127 127 127 127 127 127 127 127 127 127 127 127 127 127 0 0 0 0 0 0 0 0 0 0 0 0 0 0 0 0 0 0 0 0 0 0 0 0 0 0 0 0 0 0 0 0 0 0 0 0 0 0 0 0 0 0 0 0 0 0 0 0 0 0 0 0 0 0 0 0 0 0 0 0 0 127 127 127 127 127 127 127 127 127 127 127 127 127 127 127 127 127 127 127 127 127 127 127 127 127 127 127 127 127 127 127 127 127 127 127 127 122 120 117 115 113 111 109 107 105 103 101 99 97 95 93 91 89 88 86 84 83 81 80 78 77 75 74 72 71 70 68 67 66 65 64 63 62 61 59 59 58 57 56 55 54 53 53 52 51 60 103 126 128 128 128 128 128 128 128 128 128 128 129 132 135 138 141 144 146 149 152 154 157 160 162 164 167 169 171 174 175 177 180 181 183 185 187 188 190 191 193 194 195 197 198 199 200 202 203 203 205 206 207 208 208 209 210 211 212 212 213 214 215 215 216 217 217 218 216 195 138 128 128 128 128 128 126 124 122 120 117 115 113 111 109 107 105 103 101 99 97 95 93 91 89 88 86 84 83 81 80 78 77 75 74 72 71 70 68 67 66 65 64 63 62 61 59 59 58 57 56 55 54 53 53 52 51 60 103 126 128 128 128 128 128 128 128 128 128 128
128 128 128 128 128 128 128 128 128 128 128 131 189 203 202 202 201 200 199 198 197 196 195 194 193 192 191 190 189 188 187 185 184 183 182 180 179 178 176 174 173 171 170 168 166 165 163 161 159 158 156 154 152 150 148 146 143 141 139 137 135 133 131 129 128 128 128 128 128 122 39 36 36 37 37 38 39 39 40 41 41 42 43 44 44 45 46 47 48 49 50 51 52 53 54 56 57 58 59 61 62 64 65 67 69 70 72 74 76 78 80 82 85 87 89 92 94 97 100 102 105 108 111 114 117 120 123 126 128 128 128 128 128 128 128 128 128 128 128 131 189 203 202 202 201 200 199 198 197 196 195 194 193 192 191 190 189 188 187 185 184 183 182 180 179 178 176 174 173 171 170 168 166 165 163 161 159 158 156 154 152 150 148 146 143 141 139 137 135 133 131 129 127 127 127 127 127 127 127 127 127 127 127 127 127 127 127 127 127 127 127 127 127 127 127 127 127 127 127 127 127 127 127 127 127 0 0 0 0 0 0 0 0 0 0 0 0 0 0 0 0 0 0 0 0 0 0 0 0 0 0 0 0 0 0 0 0 0 0 0 0 0 0 0 0 0 0 0 0 0 0 0 0 0 0 0 0 0 0 0 0 0 0 0 0 0 127 127 127 127 127 127 127 127 127 127 127 127 127 127 127 127 127 127 127 127 127 127 127 127 127 127 127 127 127 127 127 127 127 127 127 127 122 120 118 116 114 111 109 107 105 103 101 99 98 96 94 92 91 89 87 85 84 82 81 79 78 76 75 73 72 71 69 68 67 66 65 64 63 62 61 60 59 58 57 56 55 54 54 53 57 89 124 128 128 128 128 128 128 128 128 128 128 128 129 132 135 138 141 144 147 150 153 155 158 161 163 166 168 170 173 175 177 179 181 183 185 186 188 190 191 193 194 196 197 198 200 201 202 203 204 205 206 207 208 209 210 211 211 212 213 214 214 215 216 216 217 218 218 219 219 213 160 131 128 128 128 128 126 124 122 120 118 116 114 111 109 107 105 103 101 99 98 96 94 92 91 89 87 85 84 82 81 79 78 76 75 73 72 71 69 68 67 66 65 64 63 62 61 60 59 58 57 56 55 54 54 53 57 89 124 128 128 128 128 128 128 128 128 128 128 128
128 128 128 128 128 128 128 128 128 128 128 128 141 198 201 201 200 199 198 197 196 195 194 194 192 191 190 189 188 187 186 184 183 182 181 179 178 176 175 173 172 171 169 167 166 164 162 160 159 157 155 153 151 149 147 145 143 141 139 137 135 133 131 129 128 128 128 128 128 91 34 35 35 36 36 37 37 38 38 39 40 41 41 42 43 44 45 46 46 47 48 50 51 52 53 54 55 57 58 59 61 62 64 65 67 69 71 73 74 77 79 81 83 86 88 91 93 96 98 101 104 107 110 113 116 120 123 126 128 128 128 128 128 128 128 128 128 128 128 128 141 198 201 201 200 199 198 197 196 195 194 194 192 191 190 189 188 187 186 184 183 182 181 179 178 176 175 173 172 171 169 167 166 164 162 160 159 157 155 153 151 149 147 145 143 141 139 137 135 133 131 129 127 127 127 127 127 127 127 127 127 127 127 127 127 127 127 127 127 127 127 127 127 127 127 127 127 127 127 127 127 127 127 127 127 0 0 0 0 0 0 0 0 0 0 0 0 0 0 0 0 0 0 0 0 0 0 0 0 0 0 0 0 0 0 0 0 0 0 0 0 0 0 0 0 0 0 0 0 0 0 0 0 0 0 0 0 0 0 0 0 0 0 0 0 0 127 127 127 127 127 127 127 127 127 127 127 127 127 127 127 127 127 127 127 127 127 127 127 127 127 127 127 127 127 127 127 127 127 127 127 127 122 120 118 116 114 112 110 108 106 104 102 100 98 97 95 93 91 89 88 86 85 83 81 80 79 77 76 75 73 72 70 69 68 67 66 65 64 63 62 61 60 59 58 57 56 55 54 56 77 120 128 128 128 128 128 128 128 128 128 128 128 128 129 132 136 139 142 145 148 151 154 157 159 162 164 167 169 172 174 176 178 181 183 184 186 188 190 191 193 194 196 197 199 200 201 202 203 204 205 206 208 208 209 210 211 212 213 213 214 215 216 216 217 218 218 219 219 220 221 219 192 136 128 128 128 128 127 124 122 120 118 116 114 112 110 108 106 104 102 100 98 97 95 93 91 89 88 86 85 83 81 80 79 77 76 75 73 72 70 69 68 67 66 65 64 63 62 61 60 59 58 57 56 55 54 56 77 120 128 128 128 128 128 128 128 128 128 128 128 128
128 128 128 128 128 128 128 128 128 128 128 128 128 154 199 199 199 198 197 196 195 194 193 192 191 190 189 188 187 186 185 183 182 181 180 178 177 175 174 172 171 169 168 166 165 163 161 160 158 156 154 152 151 149 147 145 143 141 139 137 135 133 131 129 128 128 128 128 125 48 33 33 34 34 35 35 36 37 37 38 39 39 40 41 42 42 43 44 45 46 47 48 49 50 51 52 54 55 56 58 59 60 62 64 65 67 69 71 73 75 77 79 82 84 86 89 92 95 97 100 104 106 109 113 116 119 122 126 128 128 128 128 128 128 128 128 128 128 128 128 128 154 199 199 199 198 197 196 195 194 193 192 191 190 189 188 187 186 185 183 182 181 180 178 177 175 174 172 171 169 168 166 165 163 161 160 158 156 154 152 151 149 147 145 143 141 139 137 135 133 131 129 127 127 127 127 127 127 127 127 127 127 127 127 127 127 127 127 127 127 127 127 127 127 127 127 127 127 127 127 127 127 127 127 127 0 0 0 0 0 0 0 0 0 0 0 0 0 0 0 0 0 0 0 0 0 0 0 0 0 0 0 0 0 0 0 0 0 0 0 0 0 0 0 0 0 0 0 0 0 0 0 0 0 0 0 0 0 0 0 0 0 0 0 0 0 127 127 127 127 127 127 127 127 127 127 127 127 127 127 127 127 127 127 127 127 127 127 127 127 127 127 127 127 127 127 127 127 127 127 127 127 122 120 118 116 114 112 110 108 106 105 103 101 99 97 95 94 92 90 89 87 85 84 82 81 80 78 77 75 74 73 72 70 69 68 67 66 65 64 63 62 61 60 59 58 57 56 57 70 114 127 128 128 128 128 128 128 128 128 128 128 128 128 129 133 136 139 142 145 149 152 155 157 160 163 166 169 171 173 176 178 180 182 184 186 188 190 191 193 194 196 197 199 200 201 203 204 205 206 207 208 209 210 211 212 213 213 214 215 216 216 217 218 218 219 220 220 221 221 222 222 214 152 130 128 128 128 127 124 122 120 118 116 114 112 110 108 106 105 103 101 99 97 95 94 92 90 89 87 85 84 82 81 80 78 77 75 74 73 72 70 69 68 67 66 65 64 63 62 61 60 59 58 57 56 57 70 114 127 128 128 128 128 128 128 128 128 128 128 128 128
128 128 128 128 128 128 128 128 128 128 128 128 128 128 167 198 198 197 196 195 194 193 192 191 190 189 188 187 186 185 184 182 181 180 179 177 176 175 173 171 170 169 167 166 164 162 161 159 157 156 154 152 150 148 146 144 142 140 139 137 134 133 130 129 128 128 128 128 106 31 31 32 32 33 34 34 35 35 36 37 37 38 39 39 40 41 42 43 44 45 46 46 48 48 50 51 52 53 55 56 57 59 61 62 64 66 67 69 71 73 76 78 80 83 85 88 91 93 96 99 102 106 109 112 116 119 122 126 128 128 128 128 128 128 128 128 128 128 128 128 128 128 167 198 198 197 196 195 194 193 192 191 190 189 188 187 186 185 184 182 181 180 179 177 176 175 173 171 170 169 167 166 164 162 161 159 157 156 154 152 150 148 146 144 142 140 139 137 134 133 130 129 127 127 127 127 127 127 127 127 127 127 127 127 127 127 127 127 127 127 127 127 127 127 127 127 127 127 127 127 127 127 127 127 127 0 0 0 0 0 0 0 0 0 0 0 0 0 0 0 0 0 0 0 0 0 0 0 0 0 0 0 0 0 0 0 0 0 0 0 0 0 0 0 0 0 0 0 0 0 0 0 0 0 0 0 0 0 0 0 0 0 0 0 0 0 127 127 127 127 127 127 127 127 127 127 127 127 127 127 127 127 127 127 127 127 127 127 127 127 127 127 127 127 127 127 127 127 127 127 127 127 123 121 119 117 115 113 111 109 107 105 103 101 100 98 96 94 93 91 89 88 86 85 83 82 80 79 78 76 75 74 73 71 70 69 68 67 66 65 64 63 62 61 60 59 58 58 67 106 126 128 128 128 128 128 128 128 128 128 128 128 128 128 129 133 136 139 143 146 149 153 156 159 161 164 167 170 172 175 177 179 182 184 186 188 189 191 193 194 196 197 199 200 202 203 204 205 207 207 209 209 211 212 212 213 214 215 215 216 217 218 218 219 220 220 221 221 222 222 223 224 221 183 134 128 128 128 127 124 123 121 119 117 115 113 111 109 107 105 103 101 100 98 96 94 93 91 89 88 86 85 83 82 80 79 78 76 75 74 73 71 70 69 68 67 66 65 64 63 62 61 60 59 58 58 67 106 126 128 128 128 128 128 128 128 128 128 128 128 128 128
128 128 128 128 128 128 128 128 128 128 128 128 128 128 129 176 197 196 195 194 193 192 191 190 189 188 187 186 185 184 183 181 180 179 178 176 175 174 172 171 169 168 166 165 163 162 160 158 156 155 153 151 149 148 146 144 142 140 138 136 134 133 130 129 128 128 128 128 67 30 30 31 31 32 32 33 33 34 35 35 36 37 37 38 39 40 40 41 42 43 44 45 46 47 48 49 50 52 53 54 56 57 59 60 62 64 66 68 70 72 74 76 79 81 84 86 89 92 95 98 101 105 108 111 115 119 122 126 128 128 128 128 128 128 128 128 128 128 128 128 128 128 129 176 197 196 195 194 193 192 191 190 189 188 187 186 185 184 183 181 180 179 178 176 175 174 172 171 169 168 166 165 163 162 160 158 156 155 153 151 149 148 146 144 142 140 138 136 134 133 130 129 127 127 127 127 127 127 127 127 127 127 127 127 127 127 127 127 127 127 127 127 127 127 127 127 127 127 127 127 127 127 127 127 127 0 0 0 0 0 0 0 0 0 0 0 0 0 0 0 0 0 0 0 0 0 0 0 0 0 0 0 0 0 0 0 0 0 0 0 0 0 0 0 0 0 0 0 0 0 0 0 0 0 0 0 0 0 0 0 0 0 0 0 0 0 127 127 127 127 127 127 127 127 127 127 127 127 127 127 127 127 127 127 127 127 127 127 127 127 127 127 127 127 127 127 127 127 127 127 127 127 123 121 119 117 115 113 111 109 107 105 104 102 100 98 97 95 93 92 90 89 87 86 84 83 81 80 79 77 76 75 74 73 71 70 69 68 67 66 65 64 63 62 61 60 59 65 98 125 128 128 128 128 128 128 128 128 128 128 128 128 128 128 129 133 136 140 144 147 150 154 157 160 163 166 169 171 174 176 179 181 183 185 187 189 191 193 195 196 198 199 201 202 203 205 206 207 208 209 210 211 212 213 214 215 216 216 217 218 218 219 220 220 221 222 222 223 223 224 224 225 224 209 141 128 128 128 127 125 123 121 119 117 115 113 111 109 107 105 104 102 100 98 97 95 93 92 90 89 87 86 84 83 81 80 79 77 76 75 74 73 71 70 69 68 67 66 65 64 63 62 61 60 59 65 98 125 128 128 128 128 128 128 128 128 128 128 128 128 128 128
128 128 128 128 128 128 128 128 128 128 128 128 128 128 128 131 180 195 194 193 192 191 190 189 188 187 186 185 184 183 182 180 179 178 177 175 174 173 171 170 169 167 165 164 162 161 159 158 156 154 153 151 149 147 145 143 142 140 138 136 134 132 130 128 128 128 128 121 31 29 29 30 30 30 31 31 32 33 33 34 35 35 36 37 37 38 39 40 40 41 42 43 44 45 46 48 49 50 51 52 54 55 57 59 60 62 64 66 68 70 72 74 77 79 82 85 88 91 94 97 100 104 107 111 114 118 122 126 128 128 128 128 128 128 128 128 128 128 128 128 128 128 128 131 180 195 194 193 192 191 190 189 188 187 186 185 184 183 182 180 179 178 177 175 174 173 171 170 169 167 165 164 162 161 159 158 156 154 153 151 149 147 145 143 142 140 138 136 134 132 130 128 127 127 127 127 127 127 127 127 127 127 127 127 127 127 127 127 127 127 127 127 127 127 127 127 127 127 127 127 127 127 127 127 127 0 0 0 0 0 0 0 0 0 0 0 0 0 0 0 0 0 0 0 0 0 0 0 0 0 0 0 0 0 0 0 0 0 0 0 0 0 0 0 0 0 0 0 0 0 0 0 0 0 0 0 0 0 0 0 0 0 0 0 0 0 127 127 127 127 127 127 127 127 127 127 127 127 127 127 127 127 127 127 127 127 127 127 127 127 127 127 127 127 127 127 127 127 127 127 127 127 123 121 119 117 115 113 112 110 108 106 104 102 101 99 98 96 94 93 91 89 88 87 85 84 82 81 80 78 77 76 74 73 72 71 70 69 68 67 66 65 64 63 62 61 66 95 124 128 128 128 128 128 128 128 128 128 128 128 128 128 128 128 129 133 137 141 144 148 151 155 158 161 164 167 170 173 176 178 181 183 185 187 189 191 193 195 196 198 200 201 203 204 205 206 208 209 210 211 212 213 214 215 215 216 217 218 219 219 220 220 221 222 222 223 223 224 224 225 226 226 227 221 164 131 128 128 127 125 123 121 119 117 115 113 112 110 108 106 104 102 101 99 98 96 94 93 91 89 88 87 85 84 82 81 80 78 77 76 74 73 72 71 70 69 68 67 66 65 64 63 62 61 66 95 124 128 128 128 128 128 128 128 128 128 128 128 128 128 128 128
128 128 128 128 128 128 128 128 128 128 128 128 128 128 128 128 134 183 193 192 191 190 189 188 187 186 185 184 183 182 181 180 178 177 176 175 173 172 170 169 168 166 165 163 162 160 159 157 155 154 152 150 148 147 145 143 141 140 138 136 134 132 130 129 128 128 128 96 27 27 28 28 28 29 30 30 31 31 32 32 33 34 34 35 36 36 37 38 39 40 41 42 43 44 45 46 47 48 49 51 52 53 55 57 58 60 62 64 66 68 70 73 75 78 80 83 86 89 92 96 99 103 106 110 114 118 122 126 128 128 128 128 128 128 128 128 128 128 128 128 128 128 128 128 134 183 193 192 191 190 189 188 187 186 185 184 183 182 181 180 178 177 176 175 173 172 170 169 168 166 165 163 162 160 159 157 155 154 152 150 148 147 145 143 141 140 138 136 134 132 130 129 127 127 127 127 127 127 127 127 127 127 127 127 127 127 127 127 127 127 127 127 127 127 127 127 127 127 127 127 127 127 127 127 127 0 0 0 0 0 0 0 0 0 0 0 0 0 0 0 0 0 0 0 0 0 0 0 0 0 0 0 0 0 0 0 0 0 0 0 0 0 0 0 0 0 0 0 0 0 0 0 0 0 0 0 0 0 0 0 0 0 0 0 0 0 127 127 127 127 127 127 127 127 127 127 127 127 127 127 127 127 127 127 127 127 127 127 127 127 127 127 127 127 127 127 127 127 127 127 127 127 123 121 119 117 115 114 112 110 108 107 105 103 101 100 98 96 95 93 92 90 89 87 86 84 83 82 80 79 78 77 76 74 73 72 71 70 69 68 67 66 64 64 63 66 91 122 128 128 128 128 128 128 128 128 128 128 128 128 128 128 128 128 129 134 137 141 145 149 152 156 159 163 166 169 172 175 177 180 182 185 187 189 191 193 195 197 199 200 202 203 204 206 207 208 209 210 211 213 213 214 215 216 217 218 219 219 220 221 221 222 222 223 224 224 225 225 226 226 227 227 228 225 193 135 128 128 127 125 123 121 119 117 115 114 112 110 108 107 105 103 101 100 98 96 95 93 92 90 89 87 86 84 83 82 80 79 78 77 76 74 73 72 71 70 69 68 67 66 64 64 63 66 91 122 128 128 128 128 128 128 128 128 128 128 128 128 128 128 128 128
128 128 128 128 128 128 128 128 128 128 128 128 128 128 128 128 128 136 183 191 190 189 188 187 186 185 184 183 182 181 180 179 177 176 175 174 172 171 170 168 167 165 164 163 161 160 158 156 155 153 151 150 148 146 145 143 141 139 138 136 134 132 130 128 128 128 128 62 26 26 27 27 27 28 28 29 29 30 31 31 32 32 33 33 34 35 36 36 37 38 39 40 41 42 43 44 45 46 47 49 50 52 53 55 56 58 60 62 64 66 68 70 73 76 78 81 84 88 91 94 98 102 105 109 113 117 121 125 128 128 128 128 128 128 128 128 128 128 128 128 128 128 128 128 128 136 183 191 190 189 188 187 186 185 184 183 182 181 180 179 177 176 175 174 172 171 170 168 167 165 164 163 161 160 158 156 155 153 151 150 148 146 145 143 141 139 138 136 134 132 130 128 127 127 127 127 127 127 127 127 127 127 127 127 127 127 127 127 127 127 127 127 127 127 127 127 127 127 127 127 127 127 127 127 127 0 0 0 0 0 0 0 0 0 0 0 0 0 0 0 0 0 0 0 0 0 0 0 0 0 0 0 0 0 0 0 0 0 0 0 0 0 0 0 0 0 0 0 0 0 0 0 0 0 0 0 0 0 0 0 0 0 0 0 0 0 127 127 127 127 127 127 127 127 127 127 127 127 127 127 127 127 127 127 127 127 127 127 127 127 127 127 127 127 127 127 127 127 127 127 127 127 123 121 119 117 116 114 112 110 109 107 105 104 102 100 99 97 95 94 93 91 89 88 87 85 84 83 81 80 79 78 76 75 74 73 72 71 70 68 68 67 66 65 68 88 121 127 128 128 128 128 128 128 128 128 128 128 128 128 128 128 128 128 130 134 138 142 146 150 154 157 161 164 168 171 174 177 180 182 184 187 189 191 193 195 197 199 200 202 204 205 206 208 209 210 211 212 213 214 215 216 217 218 219 219 220 221 221 222 223 223 224 224 225 226 226 227 227 228 228 229 229 228 215 143 128 128 126 125 123 121 119 117 116 114 112 110 109 107 105 104 102 100 99 97 95 94 93 91 89 88 87 85 84 83 81 80 79 78 76 75 74 73 72 71 70 68 68 67 66 65 68 88 121 127 128 128 128 128 128 128 128 128 128 128 128 128 128 128 128 128
128 128 128 128 128 128 128 128 128 128 128 128 128 128 128 128 128 128 136 182 190 188 187 187 185 184 183 182 181 180 179 178 177 175 174 173 172 170 169 168 166 165 163 162 160 159 157 156 154 152 151 149 147 146 144 142 141 139 137 135 134 132 130 129 128 128 121 28 24 25 25 26 26 27 27 28 28 28 29 29 30 31 31 32 33 33 34 35 36 36 37 38 39 40 41 42 43 44 46 47 48 49 51 52 54 56 58 60 62 64 66 68 71 74 76 79 82 86 89 92 96 100 104 108 112 117 121 125 128 128 128 128 128 128 128 128 128 128 128 128 128 128 128 128 128 128 136 182 190 188 187 187 185 184 183 182 181 180 179 178 177 175 174 173 172 170 169 168 166 165 163 162 160 159 157 156 154 152 151 149 147 146 144 142 141 139 137 135 134 132 130 129 127 127 127 127 127 127 127 127 127 127 127 127 127 127 127 127 127 127 127 127 127 127 127 127 127 127 127 127 127 127 127 127 127 0 0 0 0 0 0 0 0 0 0 0 0 0 0 0 0 0 0 0 0 0 0 0 0 0 0 0 0 0 0 0 0 0 0 0 0 0 0 0 0 0 0 0 0 0 0 0 0 0 0 0 0 0 0 0 0 0 0 0 0 0 127 127 127 127 127 127 127 127 127 127 127 127 127 127 127 127 127 127 127 127 127 127 127 127 127 127 127 127 127 127 127 127 127 127 127 127 123 121 120 118 116 114 113 111 109 107 106 104 102 101 99 98 96 95 93 92 90 89 87 86 85 83 82 81 80 78 77 76 75 74 73 72 71 70 68 68 66 70 89 120 127 128 128 128 128 128 128 128 128 128 128 128 128 128 128 128 128 128 130 134 139 143 147 151 155 159 163 166 169 173 176 179 182 184 187 189 191 193 196 197 199 201 202 204 205 207 208 209 211 212 213 214 215 216 217 218 219 220 220 221 222 222 223 224 224 225 225 226 227 227 227 228 229 229 229 230 230 231 225 164 131 128 127 125 123 121 120 118 116 114 113 111 109 107 106 104 102 101 99 98 96 95 93 92 90 89 87 86 85 83 82 81 80 78 77 76 75 74 73 72 71 70 68 68 66 70 89 120 127 128 128 128 128 128 128 128 128 128 128 128 128 128 128 128 128 128
128 128 128 128 128 128 128 128 128 128 128 128 128 128 128 128 128 128 128 135 178 188 187 186 185 184 183 182 180 179 178 177 176 175 173 172 171 169 168 167 166 164 163 161 160 158 157 155 154 152 150 149 147 146 144 142 140 139 137 135 133 132 130 128 128 128 102 23 23 24 24 24 25 25 26 26 27 27 28 28 29 29 30 30 31 32 32 33 34 35 35 36 37 38 39 40 41 42 44 45 46 47 49 50 52 54 55 57 59 62 64 66 69 71 74 77 80 84 87 91 95 99 103 107 112 116 120 125 128 128 128 128 128 128 128 128 128 128 128 128 128 128 128 128 128 128 128 135 178 188 187 186 185 184 183 182 180 179 178 177 176 175 173 172 171 169 168 167 166 164 163 161 160 158 157 155 154 152 150 149 147 146 144 142 140 139 137 135 133 132 130 128 127 127 127 127 127 127 127 127 127 127 127 127 127 127 127 127 127 127 127 127 127 127 127 127 127 127 127 127 127 127 127 127 127 0 0 0 0 0 0 0 0 0 0 0 0 0 0 0 0 0 0 0 0 0 0 0 0 0 0 0 0 0 0 0 0 0 0 0 0 0 0 0 0 0 0 0 0 0 0 0 0 0 0 0 0 0 0 0 0 0 0 0 0 0 127 127 127 127 127 127 127 127 127 127 127 127 127 127 127 127 127 127 127 127 127 127 127 127 127 127 127 127 127 127 127 127 127 127 127 127 123 121 120 118 116 114 113 111 110 108 106 105 103 101 100 98 97 95 94 92 91 90 88 87 86 84 83 82 80 79 78 77 75 74 73 72 71 70 69 68 72 93 121 127 128 128 128 128 128 128 128 128 128 128 128 128 128 128 128 128 128 128 130 134 139 144 148 152 156 160 164 168 172 175 178 181 184 186 189 191 193 196 198 200 201 203 205 206 208 209 210 212 213 214 215 216 217 218 219 220 220 221 222 223 223 224 225 225 226 226 227 228 228 229 229 229 230 230 231 231 231 232 229 191 135 128 127 125 123 121 120 118 116 114 113 111 110 108 106 105 103 101 100 98 97 95 94 92 91 90 88 87 86 84 83 82 80 79 78 77 75 74 73 72 71 70 69 68 72 93 121 127 128 128 128 128 128 128 128 128 128 128 128 128 128 128 128 128 128 128
128 128 128 128 128 128 128 128 128 128 128 128 128 128 128 128 128 128 128 128 133 173 186 185 184 183 182 181 180 179 177 176 175 174 173 171 170 169 167 166 165 163 162 161 159 158 156 155 153 152 150 148 147 145 144 142 140 138 137 135 133 132 130 128 128 128 77 22 22 22 23 23 23 24 24 25 25 25 26 27 27 28 28 29 29 30 31 32 32 33 34 35 35 36 37 38 39 40 41 43 44 45 47 48 50 51 53 55 57 59 61 64 66 69 72 75 78 82 85 89 93 97 101 106 110 115 120 125 128 128 128 128 128 128 128 128 128 128 128 128 128 128 128 128 128 128 128 128 133 173 186 185 184 183 182 181 180 179 177 176 175 174 173 171 170 169 167 166 165 163 162 161 159 158 156 155 153 152 150 148 147 145 144 142 140 138 137 135 133 132 130 128 127 127 127 127 127 127 127 127 127 127 127 127 127 127 127 127 127 127 127 127 127 127 127 127 127 127 127 127 127 127 127 127 127 0 0 0 0 0 0 0 0 0 0 0 0 0 0 0 0 0 0 0 0 0 0 0 0 0 0 0 0 0 0 0 0 0 0 0 0 0 0 0 0 0 0 0 0 0 0 0 0 0 0 0 0 0 0 0 0 0 0 0 0 0 127 127 127 127 127 127 127 127 127 127 127 127 127 127 127 127 127 127 127 127 127 127 127 127 127 127 127 127 127 127 127 127 127 127 127 127 123 122 120 118 117 115 113 112 110 108 107 105 103 102 100 99 97 96 94 93 92 90 89 88 86 85 84 82 81 80 79 77 76 75 74 73 72 71 70 75 98 123 128 128 128 128 128 128 128 128 128 128 128 128 128 128 128 128 128 128 128 128 130 135 140 144 149 154 158 162 166 170 173 177 180 183 186 189 191 194 196 198 200 202 204 205 207 209 210 211 212 214 215 216 217 218 219 220 221 221 222 223 224 224 225 226 226 227 227 228 228 229 229 230 230 231 231 231 232 232 232 233 232 212 140 128 127 125 123 122 120 118 117 115 113 112 110 108 107 105 103 102 100 99 97 96 94 93 92 90 89 88 86 85 84 82 81 80 79 77 76 75 74 73 72 71 70 75 98 123 128 128 128 128 128 128 128 128 128 128 128 128 128 128 128 128 128 128 128 128
128 128 128 128 128 128 128 128 128 128 128 128 128 128 128 128 128 128 128 128 128 131 167 184 183 182 181 180 179 178 177 175 174 173 172 171 169 168 167 165 164 163 161 160 159 157 156 154 153 151 150 148 146 145 143 142 140 138 137 135 133 131 130 128 128 129 34 20 21 21 21 22 22 22 23 23 24 24 25 25 25 26 27 27 28 28 29 29 30 31 32 33 34 34 35 36 37 38 39 40 42 43 44 46 47 49 51 53 55 56 59 61 64 66 69 72 76 79 83 87 91 95 100 104 109 115 120 125 128 128 128 128 128 128 128 128 128 128 128 128 128 128 128 128 128 128 128 128 128 131 167 184 183 182 181 180 179 178 177 175 174 173 172 171 169 168 167 165 164 163 161 160 159 157 156 154 153 151 150 148 146 145 143 142 140 138 137 135 133 131 130 128 127 127 127 127 127 127 127 127 127 127 127 127 127 127 127 127 127 127 127 127 127 127 127 127 127 127 127 127 127 127 127 127 127 0 0 0 0 0 0 0 0 0 0 0 0 0 0 0 0 0 0 0 0 0 0 0 0 0 0 0 0 0 0 0 0 0 0 0 0 0 0 0 0 0 0 0 0 0 0 0 0 0 0 0 0 0 0 0 0 0 0 0 0 0 127 127 127 127 127 127 127 127 127 127 127 127 127 127 127 127 127 127 127 127 127 127 127 127 127 127 127 127 127 127 127 127 127 127 127 127 123 122 120 118 117 115 114 112 110 109 107 105 104 102 101 99 98 96 95 94 92 91 89 88 87 86 84 83 82 81 80 79 77 76 75 74 73 73 78 102 124 128 128 128 128 128 128 128 128 128 128 128 128 128 128 128 128 128 128 128 128 128 130 135 140 146 151 155 160 164 168 172 176 179 183 186 189 191 194 196 198 200 202 204 206 208 209 211 212 213 214 216 217 218 219 220 221 222 222 223 224 225 225 226 227 227 228 228 229 229 230 230 231 231 232 232 232 233 233 234 234 234 235 226 151 129 127 125 123 122 120 118 117 115 114 112 110 109 107 105 104 102 101 99 98 96 95 94 92 91 89 88 87 86 84 83 82 81 80 79 77 76 75 74 73 73 78 102 124 128 128 128 128 128 128 128 128 128 128 128 128 128 128 128 128 128 128 128 128 128
128 128 128 128 128 128 128 128 128 128 128 128 128 128 128 128 128 128 128 128 128 128 129 157 181 181 180 179 178 177 176 175 174 172 171 170 169 167 166 165 164 162 161 159 158 156 155 154 152 151 149 148 146 144 143 141 140 138 137 135 133 132 130 128 128 116 20 19 20 20 20 20 21 21 21 22 22 23 23 24 24 25 25 26 26 27 27 28 29 29 30 31 32 32 33 34 35 36 37 38 39 41 42 44 45 46 48 50 52 54 56 59 61 64 67 70 73 77 80 85 89 93 98 103 108 114 119 125 128 128 128 128 128 128 128 128 128 128 128 128 128 128 128 128 128 128 128 128 128 128 129 157 181 181 180 179 178 177 176 175 174 172 171 170 169 167 166 165 164 162 161 159 158 156 155 154 152 151 149 148 146 144 143 141 140 138 137 135 133 132 130 128 127 127 127 127 127 127 127 127 127 127 127 127 127 127 127 127 127 127 127 127 127 127 127 127 127 127 127 127 127 127 127 127 127 0 0 0 0 0 0 0 0 0 0 0 0 0 0 0 0 0 0 0 0 0 0 0 0 0 0 0 0 0 0 0 0 0 0 0 0 0 0 0 0 0 0 0 0 0 0 0 0 0 0 0 0 0 0 0 0 0 0 0 0 0 127 127 127 127 127 127 127 127 127 127 127 127 127 127 127 127 127 127 127 127 127 127 127 127 127 127 127 127 127 127 127 127 127 127 127 127 123 122 120 119 117 115 114 112 110 109 107 106 104 103 101 100 99 97 96 94 93 91 90 89 88 86 85 84 83 81 80 79 78 77 76 75 75 82 109 125 128 128 128 128 128 128 128 128 128 128 128 128 128 128 128 128 128 128 128 128 128 128 130 136 141 147 152 157 162 166 170 174 178 182 185 188 191 194 197 199 201 203 205 207 209 210 212 213 214 216 217 218 219 220 221 222 223 224 224 225 226 226 227 228 228 229 229 230 231 231 231 232 232 233 233 234 234 234 235 235 235 236 236 231 173 132 127 125 123 122 120 119 117 115 114 112 110 109 107 106 104 103 101 100 99 97 96 94 93 91 90 89 88 86 85 84 83 81 80 79 78 77 76 75 75 82 109 125 128 128 128 128 128 128 128 128 128 128 128 128 128 128 128 128 128 128 128 128 128 128
128 128 128 128 128 128 128 128 128 128 128 128 128 128 128 128 128 128 128 128 128 128 128 128 146 177 179 178 177 176 175 174 173 172 171 169 168 167 166 164 163 161 160 159 157 156 155 153 152 150 149 147 145 144 143 141 140 138 136 135 133 132 130 128 128 100 18 18 18 18 19 19 19 20 20 21 21 21 22 22 22 23 23 24 24 25 26 26 27 28 28 29 30 30 31 32 33 34 35 36 37 38 40 41 42 44 45 47 49 51 53 56 58 61 63 67 70 74 78 82 86 91 96 101 107 113 119 125 128 128 128 128 128 128 128 128 128 128 128 128 128 128 128 128 128 128 128 128 128 128 128 128 146 177 179 178 177 176 175 174 173 172 171 169 168 167 166 164 163 161 160 159 157 156 155 153 152 150 149 147 145 144 143 141 140 138 136 135 133 132 130 128 127 127 127 127 127 127 127 127 127 127 127 127 127 127 127 127 127 127 127 127 127 127 127 127 127 127 127 127 127 127 127 127 127 0 0 0 0 0 0 0 0 0 0 0 0 0 0 0 0 0 0 0 0 0 0 0 0 0 0 0 0 0 0 0 0 0 0 0 0 0 0 0 0 0 0 0 0 0 0 0 0 0 0 0 0 0 0 0 0 0 0 0 0 0 127 127 127 127 127 127 127 127 127 127 127 127 127 127 127 127 127 127 127 127 127 127 127 127 127 127 127 127 127 127 127 127 127 127 127 127 123 122 120 119 117 115 114 112 111 110 108 106 105 103 102 100 99 98 96 95 93 92 91 90 88 87 86 85 84 82 81 80 79 78 77 78 89 116 126 128 128 128 128 128 128 128 128 128 128 128 128 128 128 128 128 128 128 128 128 128 128 128 131 137 142 148 154 159 164 169 173 177 181 185 188 191 194 197 199 202 204 206 208 210 211 213 214 216 217 218 219 220 221 222 223 224 225 226 226 227 228 228 229 229 230 231 231 231 232 232 233 233 234 234 234 235 235 236 236 236 237 237 237 234 194 135 127 125 123 122 120 119 117 115 114 112 111 110 108 106 105 103 102 100 99 98 96 95 93 92 91 90 88 87 86 85 84 82 81 80 79 78 77 78 89 116 126 128 128 128 128 128 128 128 128 128 128 128 128 128 128 128 128 128 128 128 128 128 128 128
128 128 128 128 128 128 128 128 128 128 128 128 128 128 128 128 128 128 128 128 128 128 128 128 128 136 168 178 176 175 174 173 172 171 170 169 167 166 165 164 162 161 160 158 157 156 154 153 151 150 148 147 145 144 142 141 139 138 136 135 133 131 130 128 128 81 16 16 17 17 17 18 18 18 19 19 19 20 20 20 21 21 22 22 23 23 24 24 25 25 26 27 28 28 29 30 31 31 33 34 35 36 37 38 40 41 43 44 46 48 51 53 55 58 61 64 67 71 75 79 84 89 94 99 105 111 118 124 128 128 128 128 128 128 128 128 128 128 128 128 128 128 128 128 128 128 128 128 128 128 128 128 128 136 168 178 176 175 174 173 172 171 170 169 167 166 165 164 162 161 160 158 157 156 154 153 151 150 148 147 145 144 142 141 139 138 136 135 133 131 130 128 127 127 127 127 127 127 127 127 127 127 127 127 127 127 127 127 127 127 127 127 127 127 127 127 127 127 127 127 127 127 127 127 127 0 0 0 0 0 0 0 0 0 0 0 0 0 0 0 0 0 0 0 0 0 0 0 0 0 0 0 0 0 0 0 0 0 0 0 0 0 0 0 0 0 0 0 0 0 0 0 0 0 0 0 0 0 0 0 0 0 0 0 0 0 127 127 127 127 127 127 127 127 127 127 127 127 127 127 127 127 127 127 127 127 127 127 127 127 127 127 127 127 127 127 127 127 127 127 127 127 123 122 120 119 117 116 114 113 111 110 108 107 105 104 102 101 100 98 97 95 94 93 91 90 89 88 87 85 84 83 82 81 80 79 82 98 121 127 128 128 128 128 128 128 128 128 128 128 128 128 128 128 128 128 128 128 128 128 128 128 128 128 131 137 144 150 156 161 166 171 176 180 184 188 191 195 197 200 202 205 207 209 211 212 214 215 217 218 219 220 221 222 223 224 225 226 227 228 228 229 229 230 231 231 232 232 233 233 234 234 235 235 235 236 236 236 237 237 237 238 238 238 238 237 212 138 127 125 123 122 120 119 117 116 114 113 111 110 108 107 105 104 102 101 100 98 97 95 94 93 91 90 89 88 87 85 84 83 82 81 80 79 82 98 121 127 128 128 128 128 128 128 128 128 128 128 128 128 128 128 128 128 128 128 128 128 128 128 128 128
128 128 128 128 128 128 128 128 128 128 128 128 128 128 128 128 128 128 128 128 128 128 128 128 128 128 130 155 175 175 173 173 171 170 169 168 167 165 164 163 162 160 159 158 156 155 154 152 151 149 148 146 145 144 142 140 139 138 136 135 133 131 130 128 128 63 15 15 15 16 16 16 17 17 17 18 18 18 18 19 19 20 20 20 21 22 22 23 23 24 24 25 25 26 27 28 29 29 30 31 32 33 34 36 37 38 40 42 43 45 47 49 52 54 57 60 64 67 72 76 81 86 91 97 104 110 117 124 128 128 128 128 128 128 128 128 128 128 128 128 128 128 128 128 128 128 128 128 128 128 128 128 128 128 130 155 175 175 173 173 171 170 169 168 167 165 164 163 162 160 159 158 156 155 154 152 151 149 148 146 145 144 142 140 139 138 136 135 133 131 130 128 127 127 127 127 127 127 127 127 127 127 127 127 127 127 127 127 127 127 127 127 127 127 127 127 127 127 127 127 127 127 127 127 127 0 0 0 0 0 0 0 0 0 0 0 0 0 0 0 0 0 0 0 0 0 0 0 0 0 0 0 0 0 0 0 0 0 0 0 0 0 0 0 0 0 0 0 0 0 0 0 0 0 0 0 0 0 0 0 0 0 0 0 0 0 127 127 127 127 127 127 127 127 127 127 127 127 127 127 127 127 127 127 127 127 127 127 127 127 127 127 127 127 127 127 127 127 127 127 127 127 124 122 120 119 117 116 115 113 111 110 109 107 106 104 103 101 100 99 97 96 95 93 92 91 89 88 87 86 85 84 83 81 82 88 109 125 128 128 128 128 128 128 128 128 128 128 128 128 128 128 128 128 128 128 128 128 128 128 128 128 128 128 131 138 145 152 158 164 169 174 179 183 187 191 195 198 201 203 205 208 210 212 213 215 217 218 219 220 222 223 224 225 226 227 227 228 229 229 230 231 231 232 233 233 234 234 234 235 235 236 236 237 237 237 238 238 238 238 239 239 239 239 240 239 226 143 127 125 124 122 120 119 117 116 115 113 111 110 109 107 106 104 103 101 100 99 97 96 95 93 92 91 89 88 87 86 85 84 83 81 82 88 109 125 128 128 128 128 128 128 128 128 128 128 128 128 128 128 128 128 128 128 128 128 128 128 128 128 128 128
128 128 128 128 128 128 128 128 128 128 128 128 128 128 128 128 128 128 128 128 128 128 128 128 128 128 128 128 140 166 173 172 171 170 168 167 166 165 164 162 161 160 159 157 156 155 153 152 150 149 148 146 145 143 142 140 139 137 136 134 133 131 130 128 130 25 14 14 14 14 15 15 15 16 16 16 16 17 17 17 18 18 19 19 19 20 20 20 21 22 22 23 23 24 25 25 26 27 28 29 30 31 32 33 34 36 37 39 40 42 44 46 48 51 54 57 60 64 68 72 77 83 88 95 101 109 116 124 128 128 128 128 128 128 128 128 128 128 128 128 128 128 128 128 128 128 128 128 128 128 128 128 128 128 128 128 140 166 173 172 171 170 168 167 166 165 164 162 161 160 159 157 156 155 153 152 150 149 148 146 145 143 142 140 139 137 136 134 133 131 130 128 127 127 127 127 127 127 127 127 127 127 127 127 127 127 127 127 127 127 127 127 127 127 127 127 127 127 127 127 127 127 127 127 127 0 0 0 0 0 0 0 0 0 0 0 0 0 0 0 0 0 0 0 0 0 0 0 0 0 0 0 0 0 0 0 0 0 0 0 0 0 0 0 0 0 0 0 0 0 0 0 0 0 0 0 0 0 0 0 0 0 0 0 0 0 127 127 127 127 127 127 127 127 127 127 127 127 127 127 127 127 127 127 127 127 127 127 127 127 127 127 127 127 127 127 127 127 127 127 127 127 124 122 121 119 118 116 115 113 112 110 109 108 106 105 103 102 100 99 98 96 95 94 92 91 90 89 88 87 86 84 84 86 98 119 126 128 128 128 128 128 128 128 128 128 128 128 128 128 128 128 128 128 128 128 128 128 128 128 128 128 128 128 132 139 147 154 160 167 173 178 183 187 191 195 198 201 204 207 209 211 213 215 217 218 220 221 222 223 224 225 226 227 228 229 230 230 231 232 232 233 233 234 234 235 235 236 236 237 237 237 238 238 238 239 239 239 240 240 240 240 241 241 241 241 234 154 128 125 124 122 121 119 118 116 115 113 112 110 109 108 106 105 103 102 100 99 98 96 95 94 92 91 90 89 88 87 86 84 84 86 98 119 126 128 128 128 128 128 128 128 128 128 128 128 128 128 128 128 128 128 128 128 128 128 128 128 128 128 128 128
128 128 128 128 128 128 128 128 128 128 128 128 128 128 128 128 128 128 128 128 128 128 128 128 128 128 128 128 128 130 151 169 170 169 168 167 165 164 163 162 161 159 158 157 155 154 153 151 150 149 147 146 145 143 142 140 139 137 136 134 133 131 130 128 116 14 12 13 13 13 13 14 14 14 14 15 15 15 16 16 16 16 17 17 17 18 18 19 19 19 20 21 21 22 22 23 24 24 25 26 27 28 29 30 31 32 34 35 37 39 40 42 45 47 50 53 56 60 64 68 73 79 85 92 99 106 115 123 128 128 128 128 128 128 128 128 128 128 128 128 128 128 128 128 128 128 128 128 128 128 128 128 128 128 128 128 128 130 151 169 170 169 168 167 165 164 163 162 161 159 158 157 155 154 153 151 150 149 147 146 145 143 142 140 139 137 136 134 133 131 130 128 127 127 127 127 127 127 127 127 127 127 127 127 127 127 127 127 127 127 127 127 127 127 127 127 127 127 127 127 127 127 127 127 127 0 0 0 0 0 0 0 0 0 0 0 0 0 0 0 0 0 0 0 0 0 0 0 0 0 0 0 0 0 0 0 0 0 0 0 0 0 0 0 0 0 0 0 0 0 0 0 0 0 0 0 0 0 0 0 0 0 0 0 0 0 127 127 127 127 127 127 127 127 127 127 127 127 127 127 127 127 127 127 127 127 127 127 127 127 127 127 127 127 127 127 127 127 127 127 127 127 124 122 121 119 118 116 115 113 112 111 109 108 106 105 104 102 101 100 98 97 96 94 93 92 91 90 89 87 86 87 93 111 125 127 128 128 128 128 128 128 128 128 128 128 128 128 128 128 128 128 128 128 128 128 128 128 128 128 128 128 128 128 132 140 148 156 163 170 176 182 187 191 195 199 202 205 208 210 213 215 216 218 220 221 222 224 225 226 227 228 229 230 231 231 232 233 233 234 234 235 236 236 236 237 237 238 238 238 239 239 239 240 240 240 241 241 241 241 241 242 242 242 242 243 238 172 131 125 124 122 121 119 118 116 115 113 112 111 109 108 106 105 104 102 101 100 98 97 96 94 93 92 91 90 89 87 86 87 93 111 125 127 128 128 128 128 128 128 128 128 128 128 128 128 128 128 128 128 128 128 128 128 128 128 128 128 128 128 128 128
128 128 128 128 128 128 128 128 128 128 128 128 128 128 128 128 128 128 128 128 128 128 128 128 128 128 128 128 128 128 128 134 156 168 167 166 165 164 163 161 160 159 157 156 155 154 152 151 150 148 147 145 144 143 141 140 138 137 136 134 132 131 130 128 114 11 11 12 12 12 12 12 12 13 13 13 13 14 14 14 14 15 15 15 16 16 17 17 17 18 18 19 19 20 20 21 22 22 23 24 24 25 26 27 28 29 31 32 33 35 37 39 41 43 46 48 52 55 59 64 69 75 81 88 96 104 113 123 128 128 128 128 128 128 128 128 128 128 128 128 128 128 128 128 128 128 128 128 128 128 128 128 128 128 128 128 128 128 128 134 156 168 167 166 165 164 163 161 160 159 157 156 155 154 152 151 150 148 147 145 144 143 141 140 138 137 136 134 132 131 130 128 127 127 127 127 127 127 127 127 127 127 127 127 127 127 127 127 127 127 127 127 127 127 127 127 127 127 127 127 127 127 127 127 127 0 0 0 0 0 0 0 0 0 0 0 0 0 0 0 0 0 0 0 0 0 0 0 0 0 0 0 0 0 0 0 0 0 0 0 0 0 0 0 0 0 0 0 0 0 0 0 0 0 0 0 0 0 0 0 0 0 0 0 0 0 127 127 127 127 127 127 127 127 127 127 127 127 127 127 127 127 127 127 127 127 127 127 127 127 127 127 127 127 127 127 127 127 127 127 127 127 124 122 121 120 118 117 115 114 112 111 109 108 107 105 104 103 101 100 99 97 96 95 94 93 91 90 89 90 93 107 122 127 128 128 128 128 128 128 128 128 128 128 128 128 128 128 128 128 128 128 128 128 128 128 128 128 128 128 128 128 128 128 133 142 151 159 167 174 180 186 191 196 200 203 206 209 212 214 216 218 220 222 223 224 226 227 228 229 230 231 231 232 233 234 234 235 235 236 236 237 237 238 238 239 239 239 240 240 240 241 241 241 241 242 242 242 242 243 243 243 243 243 244 244 240 186 133 125 124 122 121 120 118 117 115 114 112 111 109 108 107 105 104 103 101 100 99 97 96 95 94 93 91 90 89 90 93 107 122 127 128 128 128 128 128 128 128 128 128 128 128 128 128 128 128 128 128 128 128 128 128 128 128 128 128 128 128 128 128 128
128 128 128 128 128 128 128 128 128 128 128 128 128 128 128 128 128 128 128 128 128 128 128 128 128 128 128 128 128 128 128 128 128 138 157 165 164 163 162 161 159 158 157 156 154 153 152 151 149 148 146 145 144 142 141 140 138 137 135 134 132 131 130 128 96 10 10 10 10 10 11 11 11 11 11 11 12 12 12 13 13 13 13 13 14 14 15 15 15 16 16 16 17 17 18 18 19 20 20 21 22 22 23 24 25 26 27 28 30 31 33 35 36 39 41 44 47 50 54 59 64 70 76 84 92 102 111 122 128 128 128 128 128 128 128 128 128 128 128 128 128 128 128 128 128 128 128 128 128 128 128 128 128 128 128 128 128 128 128 128 128 138 157 165 164 163 162 161 159 158 157 156 154 153 152 151 149 148 146 145 144 142 141 140 138 137 135 134 132 131 130 128 127 127 127 127 127 127 127 127 127 127 127 127 127 127 127 127 127 127 127 127 127 127 127 127 127 127 127 127 127 127 127 127 127 0 0 0 0 0 0 0 0 0 0 0 0 0 0 0 0 0 0 0 0 0 0 0 0 0 0 0 0 0 0 0 0 0 0 0 0 0 0 0 0 0 0 0 0 0 0 0 0 0 0 0 0 0 0 0 0 0 0 0 0 0 127 127 127 127 127 127 127 127 127 127 127 127 127 127 127 127 127 127 127 127 127 127 127 127 127 127 127 127 127 127 127 127 127 127 127 127 124 123 121 120 118 117 115 114 113 111 110 108 107 106 104 103 102 100 99 98 97 96 94 93 92 92 94 106 120 126 128 128 128 128 128 128 128 128 128 128 128 128 128 128 128 128 128 128 128 128 128 128 128 128 128 128 128 128 128 128 128 128 134 144 154 163 171 179 185 191 196 201 205 208 211 214 216 218 220 222 224 225 227 228 229 230 231 232 232 233 234 235 235 236 237 237 238 238 239 239 239 240 240 240 241 241 241 242 242 242 243 243 243 243 244 244 244 244 244 244 245 245 245 245 242 199 135 125 124 123 121 120 118 117 115 114 113 111 110 108 107 106 104 103 102 100 99 98 97 96 94 93 92 92 94 106 120 126 128 128 128 128 128 128 128 128 128 128 128 128 128 128 128 128 128 128 128 128 128 128 128 128 128 128 128 128 128 128 128 128
128 128 128 128 128 128 128 128 128 128 128 128 128 128 128 128 128 128 128 128 128 128 128 128 128 128 128 128 128 128 128 128 128 128 128 138 155 162 161 160 159 158 157 155 154 153 152 150 149 148 146 145 143 142 141 139 138 137 135 134 132 131 130 128 99 8 9 9 9 9 9 9 9 10 10 10 10 10 11 11 11 11 11 12 12 12 13 13 13 14 14 14 15 15 16 16 17 17 18 18 19 19 20 21 22 23 24 25 26 27 29 31 32 34 36 39 42 45 49 53 58 64 71 78 87 98 109 121 128 128 128 128 128 128 128 128 128 128 128 128 128 128 128 128 128 128 128 128 128 128 128 128 128 128 128 128 128 128 128 128 128 128 128 138 155 162 161 160 159 158 157 155 154 153 152 150 149 148 146 145 143 142 141 139 138 137 135 134 132 131 130 128 127 127 127 127 127 127 127 127 127 127 127 127 127 127 127 127 127 127 127 127 127 127 127 127 127 127 127 127 127 127 127 127 127 0 0 0 0 0 0 0 0 0 0 0 0 0 0 0 0 0 0 0 0 0 0 0 0 0 0 0 0 0 0 0 0 0 0 0 0 0 0 0 0 0 0 0 0 0 0 0 0 0 0 0 0 0 0 0 0 0 0 0 0 0 127 127 127 127 127 127 127 127 127 127 127 127 127 127 127 127 127 127 127 127 127 127 127 127 127 127 127 127 127 127 127 127 127 127 127 127 124 123 121 120 118 117 116 114 113 112 110 109 107 106 105 103 102 101 100 98 97 96 95 95 97 107 120 126 128 128 128 128 128 128 128 128 128 128 128 128 128 128 128 128 128 128 128 128 128 128 128 128 128 128 128 128 128 128 128 128 128 129 135 146 157 168 177 184 191 197 202 206 210 213 216 219 221 223 224 226 228 229 230 231 232 233 234 235 235 236 237 237 238 238 239 239 240 240 241 241 241 242 242 242 243 243 243 244 244 244 244 244 245 245 245 245 245 246 246 246 246 246 246 247 244 209 137 125 124 123 121 120 118 117 116 114 113 112 110 109 107 106 105 103 102 101 100 98 97 96 95 95 97 107 120 126 128 128 128 128 128 128 128 128 128 128 128 128 128 128 128 128 128 128 128 128 128 128 128 128 128 128 128 128 128 128 128 128 128 128
128 128 128 128 128 128 128 128 128 128 128 128 128 128 128 128 128 128 128 128 128 128 128 128 128 128 128 128 128 128 128 128 128 128 128 128 128 136 150 159 159 157 156 155 154 152 151 150 148 147 146 145 143 142 140 139 138 136 135 134 132 131 130 128 73 7 7 7 8 8 8 8 8 8 8 8 9 9 9 9 9 10 10 10 10 11 11 11 11 12 12 12 12 13 13 14 14 14 15 16 16 17 17 18 19 19 20 21 22 23 25 26 28 30 32 34 36 39 43 47 51 57 64 72 82 93 106 120 128 128 128 128 128 128 128 128 128 128 128 128 128 128 128 128 128 128 128 128 128 128 128 128 128 128 128 128 128 128 128 128 128 128 128 128 128 136 150 159 159 157 156 155 154 152 151 150 148 147 146 145 143 142 140 139 138 136 135 134 132 131 130 128 127 127 127 127 127 127 127 127 127 127 127 127 127 127 127 127 127 127 127 127 127 127 127 127 127 127 127 127 127 127 127 127 127 0 0 0 0 0 0 0 0 0 0 0 0 0 0 0 0 0 0 0 0 0 0 0 0 0 0 0 0 0 0 0 0 0 0 0 0 0 0 0 0 0 0 0 0 0 0 0 0 0 0 0 0 0 0 0 0 0 0 0 0 0 127 127 127 127 127 127 127 127 127 127 127 127 127 127 127 127 127 127 127 127 127 127 127 127 127 127 127 127 127 127 127 127 127 127 127 127 124 123 121 120 118 117 116 114 113 112 111 109 108 106 105 104 102 101 100 99 99 99 100 110 122 126 127 128 128 128 128 128 128 128 128 128 128 128 128 128 128 128 128 128 128 128 128 128 128 128 128 128 128 128 128 128 128 128 128 128 128 129 136 149 162 174 183 191 198 204 209 213 216 219 222 224 226 227 229 230 231 233 234 235 236 236 237 238 238 239 240 240 240 241 241 242 242 243 243 243 244 244 244 244 245 245 245 245 245 246 246 246 246 246 246 247 247 247 247 247 247 248 248 248 246 220 139 125 124 123 121 120 118 117 116 114 113 112 111 109 108 106 105 104 102 101 100 99 99 99 100 110 122 126 127 128 128 128 128 128 128 128 128 128 128 128 128 128 128 128 128 128 128 128 128 128 128 128 128 128 128 128 128 128 128 128 128 128 128 128
128 128 128 128 128 128 128 128 128 128 128 128 128 128 128 128 128 128 128 128 128 128 128 128 128 128 128 128 128 128 128 128 128 128 128 128 128 128 128 132 143 153 156 154 153 152 151 150 148 147 146 144 143 142 140 139 138 136 135 134 132 131 129 128 73 6 6 6 6 6 6 6 7 7 7 7 7 7 8 8 8 8 8 8 9 8 9 9 9 10 10 10 10 11 11 11 12 12 12 13 13 13 14 15 15 16 17 18 19 19 21 22 23 25 26 28 30 33 36 40 44 49 56 64 74 86 101 119 128 128 128 128 128 128 128 128 128 128 128 128 128 128 128 128 128 128 128 128 128 128 128 128 128 128 128 128 128 128 128 128 128 128 128 128 128 128 128 132 143 153 156 154 153 152 151 150 148 147 146 144 143 142 140 139 138 136 135 134 132 131 129 128 127 127 127 127 127 127 127 127 127 127 127 127 127 127 127 127 127 127 127 127 127 127 127 127 127 127 127 127 127 127 127 127 127 0 0 0 0 0 0 0 0 0 0 0 0 0 0 0 0 0 0 0 0 0 0 0 0 0 0 0 0 0 0 0 0 0 0 0 0 0 0 0 0 0 0 0 0 0 0 0 0 0 0 0 0 0 0 0 0 0 0 0 0 0 127 127 127 127 127 127 127 127 127 127 127 127 127 127 127 127 127 127 127 127 127 127 127 127 127 127 127 127 127 127 127 127 127 127 127 127 124 123 121 120 119 117 116 115 113 112 111 109 108 107 106 104 103 102 102 102 106 116 124 126 128 128 128 128 128 128 128 128 128 128 128 128 128 128 128 128 128 128 128 128 128 128 128 128 128 128 128 128 128 128 128 128 128 128 128 128 128 129 137 154 169 181 191 199 206 211 215 219 222 225 227 229 231 232 233 235 236 237 237 238 239 240 240 241 241 242 242 243 243 244 244 244 245 245 245 245 246 246 246 246 247 247 247 247 247 247 248 248 248 248 248 248 248 248 249 249 249 249 249 249 247 225 139 125 124 123 121 120 119 117 116 115 113 112 111 109 108 107 106 104 103 102 102 102 106 116 124 126 128 128 128 128 128 128 128 128 128 128 128 128 128 128 128 128 128 128 128 128 128 128 128 128 128 128 128 128 128 128 128 128 128 128 128 128 128 128
128 128 128 128 128 128 128 128 128 128 128 128 128 128 128 128 128 128 128 128 128 128 128 128 128 128 128 128 128 128 128 128 128 128 128 128 128 128 128 128 128 128 135 144 150 152 150 149 148 146 145 144 143 141 140 139 138 136 135 133 132 131 130 128 77 4 5 5 5 5 5 5 5 5 5 5 5 6 6 6 6 6 6 6 6 7 7 7 7 7 8 8 8 8 8 9 9 9 10 10 10 11 11 12 12 13 13 14 14 15 16 17 18 19 21 22 24 26 29 32 36 40 46 54 64 77 95 116 128 128 128 128 128 128 128 128 128 128 128 128 128 128 128 128 128 128 128 128 128 128 128 128 128 128 128 128 128 128 128 128 128 128 128 128 128 128 128 128 128 128 135 144 150 152 150 149 148 146 145 144 143 141 140 139 138 136 135 133 132 131 130 128 127 127 127 127 127 127 127 127 127 127 127 127 127 127 127 127 127 127 127 127 127 127 127 127 127 127 127 127 127 127 127 127 127 0 0 0 0 0 0 0 0 0 0 0 0 0 0 0 0 0 0 0 0 0 0 0 0 0 0 0 0 0 0 0 0 0 0 0 0 0 0 0 0 0 0 0 0 0 0 0 0 0 0 0 0 0 0 0 0 0 0 0 0 0 127 127 127 127 127 127 127 127 127 127 127 127 127 127 127 127 127 127 127 127 127 127 127 127 127 127 127 127 127 127 127 127 127 127 127 127 124 123 121 120 119 117 116 115 113 112 111 110 108 107 107 106 106 109 115 122 126 127 128 128 128 128 128 128 128 128 128 128 128 128 128 128 128 128 128 128 128 128 128 128 128 128 128 128 128 128 128 128 128 128 128 128 128 128 128 128 128 129 140 161 178 191 201 209 215 220 223 226 229 231 233 234 236 237 238 239 240 241 241 242 242 243 244 244 244 245 245 246 246 246 247 246 247 247 247 247 247 248 248 248 248 249 249 249 249 249 249 249 249 249 250 250 250 250 250 250 250 250 250 251 249 230 140 126 124 123 121 120 119 117 116 115 113 112 111 110 108 107 107 106 106 109 115 122 126 127 128 128 128 128 128 128 128 128 128 128 128 128 128 128 128 128 128 128 128 128 128 128 128 128 128 128 128 128 128 128 128 128 128 128 128 128 128 128 128 128
128 128 128 128 128 128 128 128 128 128 128 128 128 128 128 128 128 128 128 128 128 128 128 128 128 128 128 128 128 128 128 128 128 128 128 128 128 128 128 128 128 128 128 128 128 134 140 145 147 146 145 144 142 141 140 139 137 136 135 133 132 131 129 128 72 3 3 3 3 3 4 4 4 4 4 4 4 4 4 4 4 4 4 5 5 5 5 5 5 5 5 6 6 6 6 6 6 7 7 7 7 8 8 8 9 9 9 10 10 11 12 12 13 14 15 16 17 19 21 23 26 30 35 41 51 64 84 112 128 128 128 128 128 128 128 128 128 128 128 128 128 128 128 128 128 128 128 128 128 128 128 128 128 128 128 128 128 128 128 128 128 128 128 128 128 128 128 128 128 128 128 128 128 134 140 145 147 146 145 144 142 141 140 139 137 136 135 133 132 131 129 128 127 127 127 127 127 127 127 127 127 127 127 127 127 127 127 127 127 127 127 127 127 127 127 127 127 127 127 127 127 127 127 127 127 0 0 0 0 0 0 0 0 0 0 0 0 0 0 0 0 0 0 0 0 0 0 0 0 0 0 0 0 0 0 0 0 0 0 0 0 0 0 0 0 0 0 0 0 0 0 0 0 0 0 0 0 0 0 0 0 0 0 0 0 0 127 127 127 127 127 127 127 127 127 127 127 127 127 127 127 127 127 127 127 127 127 127 127 127 127 127 127 127 127 127 127 127 127 127 127 127 124 123 122 120 119 117 116 115 114 112 112 111 110 110 114 118 123 126 127 128 128 128 128 128 128 128 128 128 128 128 128 128 128 128 128 128 128 128 128 128 128 128 128 128 128 128 128 128 128 128 128 128 128 128 128 128 128 128 128 128 128 129 146 172 192 205 214 220 225 229 232 234 236 238 239 240 241 242 243 244 244 245 245 246 246 246 247 247 247 248 248 248 248 249 249 249 249 249 249 250 250 250 250 250 250 250 251 250 251 251 251 251 251 251 251 251 251 251 251 252 252 252 252 252 251 236 141 126 124 123 122 120 119 117 116 115 114 112 112 111 110 110 114 118 123 126 127 128 128 128 128 128 128 128 128 128 128 128 128 128 128 128 128 128 128 128 128 128 128 128 128 128 128 128 128 128 128 128 128 128 128 128 128 128 128 128 128 128 128 128
128 128 128 128 128 128 128 128 128 128 128 128 128 128 128 128 128 128 128 128 128 128 128 128 128 128 128 128 128 128 128 128 128 128 128 128 128 128 128 128 128 128 128 128 128 128 128 128 129 133 137 139 141 141 140 138 137 136 135 133 132 131 129 128 53 2 2 2 2 2 2 2 2 2 2 2 2 3 2 2 3 3 3 3 3 3 3 3 3 3 3 3 4 4 4 4 4 4 4 4 5 5 5 5 5 5 6 6 6 7 7 7 8 8 9 10 10 12 13 14 16 19 22 27 34 45 65 103 128 128 128 128 128 128 128 128 128 128 128 128 128 128 128 128 128 128 128 128 128 128 128 128 128 128 128 128 128 128 128 128 128 128 128 128 128 128 128 128 128 128 128 128 128 128 128 128 129 133 137 139 141 141 140 138 137 136 135 133 132 131 129 128 127 127 127 127 127 127 127 127 127 127 127 127 127 127 127 127 127 127 127 127 127 127 127 127 127 127 127 127 127 127 127 127 127 0 0 0 0 0 0 0 0 0 0 0 0 0 0 0 0 0 0 0 0 0 0 0 0 0 0 0 0 0 0 0 0 0 0 0 0 0 0 0 0 0 0 0 0 0 0 0 0 0 0 0 0 0 0 0 0 0 0 0 0 0 127 127 127 127 127 127 127 127 127 127 127 127 127 127 127 127 127 127 127 127 127 127 127 127 127 127 127 127 127 127 127 127 127 127 127 127 124 123 122 120 119 118 117 116 115 116 118 120 123 126 127 127 128 128 128 128 128 128 128 128 128 128 128 128 128 128 128 128 128 128 128 128 128 128 128 128 128 128 128 128 128 128 128 128 128 128 128 128 128 128 128 128 128 128 128 128 128 131 159 193 211 222 229 234 236 239 241 242 244 244 245 246 247 247 248 248 248 249 249 249 250 250 250 250 250 251 251 251 251 251 251 251 252 252 252 252 252 252 252 252 252 252 252 252 252 252 252 253 253 253 253 253 253 253 253 253 253 253 253 253 252 241 142 125 124 123 122 120 119 118 117 116 115 116 118 120 123 126 127 127 128 128 128 128 128 128 128 128 128 128 128 128 128 128 128 128 128 128 128 128 128 128 128 128 128 128 128 128 128 128 128 128 128 128 128 128 128 128 128 128 128 128 128 128 128 128
128 128 128 128 128 128 128 128 128 128 128 128 128 128 128 128 128 128 128 128 128 128 128 128 128 128 128 128 128 128 128 128 128 128 128 128 128 128 128 128 128 128 128 128 128 128 128 128 128 128 128 128 128 129 131 132 133 133 133 132 131 130 129 128 48 40 40 40 40 40 40 40 40 40 40 40 40 40 40 40 40 40 40 40 40 40 40 40 40 40 40 40 40 40 40 40 40 40 40 40 40 40 40 40 40 40 40 40 40 40 40 40 40 40 41 41 41 41 41 41 41 41 42 42 43 45 51 81 128 128 128 128 128 128 128 128 128 128 128 128 128 128 128 128 128 128 128 128 128 128 128 128 128 128 128 128 128 128 128 128 128 128 128 128 128 128 128 128 128 128 128 128 128 128 128 128 128 128 128 128 128 129 131 132 133 133 133 132 131 130 129 128 127 127 127 127 127 127 127 127 127 127 127 127 127 127 127 127 127 127 127 127 127 127 127 127 127 127 127 127 127 127 127 127 127 0 0 0 0 0 0 0 0 0 0 0 0 0 0 0 0 0 0 0 0 0 0 0 0 0 0 0 0 0 0 0 0 0 0 0 0 0 0 0 0 0 0 0 0 0 0 0 0 0 0 0 0 0 0 0 0 0 0 0 0 0 127 127 127 127 127 127 127 127 127 127 127 127 127 127 127 127 127 127 127 127 127 127 127 127 127 127 127 127 127 127 127 127 127 127 127 127 125 125 124 124 124 124 124 125 126 127 127 127 128 128 128 128 128 128 128 128 128 128 128 128 128 128 128 128 128 128 128 128 128 128 128 128 128 128 128 128 128 128 128 128 128 128 128 128 128 128 128 128 128 128 128 128 128 128 128 128 128 134 182 214 226 231 234 235 236 237 238 238 239 239 240 240 241 241 241 241 241 241 242 242 242 242 242 242 242 242 242 242 242 242 242 243 242 242 243 243 243 243 243 243 243 243 243 243 243 243 243 243 243 243 243 243 243 243 243 243 243 243 243 243 243 234 142 126 125 125 124 124 124 124 124 125 126 127 127 127 128 128 128 128 128 128 128 128 128 128 128 128 128 128 128 128 128 128 128 128 128 128 128 128 128 128 128 128 128 128 128 128 128 128 128 128 128 128 128 128 128 128 128 128 128 128 128 128 128 128
128 128 128 128 128 128 128 128 128 128 128 128 128 128 128 128 128 128 128 128 128 128 128 128 128 128 128 128 128 128 128 128 128 128 128 128 128 128 128 128 128 128 128 128 128 128 128 128 128 128 128 128 128 127 125 124 123 123 123 123 124 125 126 127 250 252 252 252 252 252 252 252 252 252 252 252 252 252 252 252 252 252 252 252 252 252 252 252 252 252 252 252 251 251 252 251 251 251 251 251 251 251 251 251 251 251 251 251 250 250 250 250 250 250 250 249 249 249 248 248 247 246 245 244 241 237 227 192 128 128 128 128 128 128 128 128 128 128 128 128 128 128 128 128 128 128 128 128 128 128 128 128 128 128 128 128 128 128 128 128 128 128 128 128 128 128 128 128 128 128 128 128 128 128 128 128 128 128 128 128 128 127 125 124 123 123 123 123 124 125 126 127 127 127 127 127 127 127 127 127 127 127 127 127 127 127 127 127 127 127 127 127 127 127 127 127 127 127 127 127 127 127 127 127 127 0 0 0 0 0 0 0 0 0 0 0 0 0 0 0 0 0 0 0 0 0 0 0 0 0 0 0 0 0 0 0 0 0 0 0 0 0 0 0 0 0 0 0 0 0 0 0 0 0 0 0 0 0 0 0 0 0 0 0 0 0 127 127 127 127 127 127 127 127 127 127 127 127 127 127 127 127 127 127 127 127 127 127 127 127 127 127 127 127 127 127 127 127 127 127 127 127 130 131 131 132 132 132 132 131 130 129 129 129 128 128 128 128 128 128 128 128 128 128 128 128 128 128 128 128 128 128 128 128 128 128 128 128 128 128 128 128 128 128 128 128 128 128 128 128 128 128 128 128 128 128 128 128 128 128 128 128 128 126 101 88 87 87 87 87 87 87 88 88 88 88 88 88 88 88 88 88 88 88 88 88 88 88 88 88 88 88 88 88 88 88 88 89 88 88 89 89 89 89 89 89 89 89 89 89 89 89 89 89 89 89 89 89 89 89 89 89 89 89 89 89 89 95 125 129 130 131 131 132 132 132 132 131 130 129 129 129 128 128 128 128 128 128 128 128 128 128 128 128 128 128 128 128 128 128 128 128 128 128 128 128 128 128 128 128 128 128 128 128 128 128 128 128 128 128 128 128 128 128 128 128 128 128 128 128 128 128
128 128 128 128 128 128 128 128 128 128 128 128 128 128 128 128 128 128 128 128 128 128 128 128 128 128 128 128 128 128 128 128 128 128 128 128 128 128 128 128 128 128 128 128 128 128 128 128 127 124 120 117 115 114 115 117 118 119 120 122 123 124 125 127 248 253 253 253 253 253 253 253 253 253 253 253 253 253 253 252 252 252 252 252 252 252 252 252 252 252 252 252 252 252 251 251 251 251 251 251 251 250 250 250 250 250 249 249 249 248 248 248 247 247 246 245 244 244 242 241 239 236 234 229 222 211 192 155 128 128 128 128 128 128 128 128 128 128 128 128 128 128 128 128 128 128 128 128 128 128 128 128 128 128 128 128 128 128 128 128 128 128 128 128 128 128 128 128 128 128 128 128 128 128 128 128 127 124 120 117 115 114 115 117 118 119 120 122 123 124 125 127 127 127 127 127 127 127 127 127 127 127 127 127 127 127 127 127 127 127 127 127 127 127 127 127 127 127 127 127 127 127 127 127 127 0 0 0 0 0 0 0 0 0 0 0 0 0 0 0 0 0 0 0 0 0 0 0 0 0 0 0 0 0 0 0 0 0 0 0 0 0 0 0 0 0 0 0 0 0 0 0 0 0 0 0 0 0 0 0 0 0 0 0 0 0 127 127 127 127 127 127 127 127 127 127 127 127 127 127 127 127 127 127 127 127 127 127 127 127 127 127 127 127 127 127 127 127 127 127 127 127 131 132 133 135 136 137 138 139 140 140 139 137 134 131 130 129 129 128 128 128 128 128 128 128 128 128 128 128 128 128 128 128 128 128 128 128 128 128 128 128 128 128 128 128 128 128 128 128 128 128 128 128 128 128 128 128 128 128 128 128 128 126 102 68 48 37 30 26 23 20 18 18 17 15 15 14 13 13 13 12 12 12 12 11 11 11 11 11 11 11 10 10 10 10 10 10 10 10 9 9 9 9 9 9 9 9 9 9 9 9 8 8 9 8 8 8 8 8 8 8 8 8 8 8 16 63 124 129 131 132 133 135 136 137 138 139 140 140 139 137 134 131 130 129 129 128 128 128 128 128 128 128 128 128 128 128 128 128 128 128 128 128 128 128 128 128 128 128 128 128 128 128 128 128 128 128 128 128 128 128 128 128 128 128 128 128 128 128 128 128
128 128 128 128 128 128 128 128 128 128 128 128 128 128 128 128 128 128 128 128 128 128 128 128 128 128 128 128 128 128 128 128 128 128 128 128 128 128 128 128 128 128 128 128 128 124 118 113 108 109 110 111 112 114 115 116 117 119 120 122 123 124 126 127 242 252 252 252 252 252 252 251 251 251 251 251 251 251 251 251 251 251 250 251 250 250 250 250 250 250 250 249 249 249 249 249 249 248 248 248 248 247 247 247 246 246 246 245 245 244 244 243 242 241 240 239 238 236 234 232 229 225 220 214 205 192 172 144 128 128 128 128 128 128 128 128 128 128 128 128 128 128 128 128 128 128 128 128 128 128 128 128 128 128 128 128 128 128 128 128 128 128 128 128 128 128 128 128 128 128 128 128 128 124 118 113 108 109 110 111 112 114 115 116 117 119 120 122 123 124 126 127 127 127 127 127 127 127 127 127 127 127 127 127 127 127 127 127 127 127 127 127 127 127 127 127 127 127 127 127 127 127 127 127 127 0 0 0 0 0 0 0 0 0 0 0 0 0 0 0 0 0 0 0 0 0 0 0 0 0 0 0 0 0 0 0 0 0 0 0 0 0 0 0 0 0 0 0 0 0 0 0 0 0 0 0 0 0 0 0 0 0 0 0 0 0 127 127 127 127 127 127 127 127 127 127 127 127 127 127 127 127 127 127 127 127 127 127 127 127 127 127 127 127 127 127 127 127 127 127 127 127 131 132 133 135 136 137 139 140 141 142 144 144 145 145 144 140 135 130 129 129 128 128 128 128 128 128 128 128 128 128 128 128 128 128 128 128 128 128 128 128 128 128 128 128 128 128 128 128 128 128 128 128 128 128 128 128 128 128 128 128 128 127 111 85 65 52 42 35 30 26 23 21 19 17 16 15 14 13 12 12 11 10 10 9 9 9 8 8 8 7 7 7 7 6 6 6 6 6 6 5 5 5 5 5 5 5 5 4 4 4 4 4 4 4 4 4 4 4 4 4 3 3 3 3 18 75 125 129 131 132 133 135 136 137 139 140 141 142 144 144 145 145 144 140 135 130 129 129 128 128 128 128 128 128 128 128 128 128 128 128 128 128 128 128 128 128 128 128 128 128 128 128 128 128 128 128 128 128 128 128 128 128 128 128 128 128 128 128 128 128
128 128 128 128 128 128 128 128 128 128 128 128 128 128 128 128 128 128 128 128 128 128 128 128 128 128 128 128 128 128 128 128 128 128 128 128 128 128 128 128 128 128 124 114 107 104 105 106 107 108 110 111 112 113 115 116 117 119 120 121 123 124 126 127 235 250 251 250 250 250 250 250 250 250 250 250 249 249 249 249 249 249 249 249 249 248 248 248 248 247 247 247 247 247 246 247 246 246 246 245 245 244 244 244 243 242 242 241 241 240 239 238 237 236 234 233 231 229 226 223 220 215 209 201 191 178 160 139 128 128 128 128 128 128 128 128 128 128 128 128 128 128 128 128 128 128 128 128 128 128 128 128 128 128 128 128 128 128 128 128 128 128 128 128 128 128 128 128 128 128 124 114 107 104 105 106 107 108 110 111 112 113 115 116 117 119 120 121 123 124 126 127 127 127 127 127 127 127 127 127 127 127 127 127 127 127 127 127 127 127 127 127 127 127 127 127 127 127 127 127 127 127 127 127 127 0 0 0 0 0 0 0 0 0 0 0 0 0 0 0 0 0 0 0 0 0 0 0 0 0 0 0 0 0 0 0 0 0 0 0 0 0 0 0 0 0 0 0 0 0 0 0 0 0 0 0 0 0 0 0 0 0 0 0 0 0 127 127 127 127 127 127 127 127 127 127 127 127 127 127 127 127 127 127 127 127 127 127 127 127 127 127 127 127 127 127 127 127 127 127 127 127 131 132 133 135 136 138 139 140 141 143 144 145 146 148 149 149 150 148 143 136 131 129 128 128 128 128 128 128 128 128 128 128 128 128 128 128 128 128 128 128 128 128 128 128 128 128 128 128 128 128 128 128 128 128 128 128 128 128 128 128 128 127 115 95 78 64 54 46 40 36 32 29 26 24 22 21 19 18 17 16 15 14 14 13 13 12 12 11 11 10 10 10 9 9 9 8 8 8 8 8 7 7 7 7 7 6 6 6 6 6 6 6 6 5 5 5 5 5 5 5 5 5 5 5 20 79 125 130 131 132 133 135 136 138 139 140 141 143 144 145 146 148 149 149 150 148 143 136 131 129 128 128 128 128 128 128 128 128 128 128 128 128 128 128 128 128 128 128 128 128 128 128 128 128 128 128 128 128 128 128 128 128 128 128 128 128 128 128 128 128
128 128 128 128 128 128 128 128 128 128 128 128 128 128 128 128 128 128 128 128 128 128 128 128 128 128 128 128 128 128 128 128 128 128 128 128 128 128 128 126 116 104 100 101 102 103 104 106 107 108 109 111 112 113 115 116 117 119 120 121 123 124 125 127 230 249 249 249 249 249 249 249 248 248 248 248 248 248 248 248 247 247 247 247 247 247 246 246 246 246 245 245 245 245 244 244 244 243 243 242 242 241 241 240 240 239 238 237 237 236 235 233 232 231 229 227 225 222 219 215 211 206 199 191 181 169 154 136 128 128 128 128 128 128 128 128 128 128 128 128 128 128 128 128 128 128 128 128 128 128 128 128 128 128 128 128 128 128 128 128 128 128 128 128 128 128 128 126 116 104 100 101 102 103 104 106 107 108 109 111 112 113 115 116 117 119 120 121 123 124 125 127 127 127 127 127 127 127 127 127 127 127 127 127 127 127 127 127 127 127 127 127 127 127 127 127 127 127 127 127 127 127 127 127 127 0 0 0 0 0 0 0 0 0 0 0 0 0 0 0 0 0 0 0 0 0 0 0 0 0 0 0 0 0 0 0 0 0 0 0 0 0 0 0 0 0 0 0 0 0 0 0 0 0 0 0 0 0 0 0 0 0 0 0 0 0 127 127 127 127 127 127 127 127 127 127 127 127 127 127 127 127 127 127 127 127 127 127 127 127 127 127 127 127 127 127 127 127 127 127 127 127 131 132 134 135 136 138 139 140 142 143 144 146 147 148 150 151 152 153 153 154 151 143 135 130 129 128 128 128 128 128 128 128 128 128 128 128 128 128 128 128 128 128 128 128 128 128 128 128 128 128 128 128 128 128 128 128 128 128 128 128 128 127 118 101 86 74 64 56 49 44 40 36 33 30 28 26 25 23 22 21 19 19 18 17 16 15 15 14 13 13 13 12 12 12 11 11 11 10 10 10 10 9 9 9 8 9 8 8 8 8 8 8 7 7 7 7 7 7 6 6 6 6 6 6 21 77 125 129 131 132 134 135 136 138 139 140 142 143 144 146 147 148 150 151 152 153 153 154 151 143 135 130 129 128 128 128 128 128 128 128 128 128 128 128 128 128 128 128 128 128 128 128 128 128 128 128 128 128 128 128 128 128 128 128 128 128 128 128 128 128
128 128 128 128 128 128 128 128 128 128 128 128 128 128 128 128 128 128 128 128 128 128 128 128 128 128 128 128 128 128 128 128 128 128 128 128 128 124 109 97 97 98 99 100 101 102 104 105 106 108 109 111 112 113 114 116 117 118 120 121 123 124 125 127 225 248 248 248 248 247 247 247 247 247 247 246 246 246 246 246 246 245 245 245 245 245 244 244 244 244 243 243 243 242 242 241 241 240 240 240 239 238 238 237 236 236 235 234 233 231 230 229 227 226 224 222 219 216 213 209 204 198 191 183 174 162 149 135 128 128 128 128 128 128 128 128 128 128 128 128 128 128 128 128 128 128 128 128 128 128 128 128 128 128 128 128 128 128 128 128 128 128 128 128 128 124 109 97 97 98 99 100 101 102 104 105 106 108 109 111 112 113 114 116 117 118 120 121 123 124 125 127 127 127 127 127 127 127 127 127 127 127 127 127 127 127 127 127 127 127 127 127 127 127 127 127 127 127 127 127 127 127 127 127 127 0 0 0 0 0 0 0 0 0 0 0 0 0 0 0 0 0 0 0 0 0 0 0 0 0 0 0 0 0 0 0 0 0 0 0 0 0 0 0 0 0 0 0 0 0 0 0 0 0 0 0 0 0 0 0 0 0 0 0 0 0 127 127 127 127 127 127 127 127 127 127 127 127 127 127 127 127 127 127 127 127 127 127 127 127 127 127 127 127 127 127 127 127 127 127 127 127 131 132 134 135 136 138 139 140 142 143 145 146 147 148 150 151 152 154 155 156 157 158 156 149 138 131 129 128 128 128 128 128 128 128 128 128 128 128 128 128 128 128 128 128 128 128 128 128 128 128 128 128 128 128 128 128 128 128 128 128 128 127 120 106 93 82 72 64 57 51 47 43 39 36 34 32 30 28 26 25 23 22 21 20 19 19 18 17 17 16 16 15 14 14 14 13 13 12 12 12 12 11 11 11 11 10 10 10 10 9 9 9 9 9 8 8 8 8 8 8 8 8 7 7 22 79 125 130 131 132 134 135 136 138 139 140 142 143 145 146 147 148 150 151 152 154 155 156 157 158 156 149 138 131 129 128 128 128 128 128 128 128 128 128 128 128 128 128 128 128 128 128 128 128 128 128 128 128 128 128 128 128 128 128 128 128 128 128 128 128
128 128 128 128 128 128 128 128 128 128 128 128 128 128 128 128 128 128 128 128 128 128 128 128 128 128 128 128 128 128 128 128 128 128 128 122 105 93 94 95 96 97 98 100 101 102 103 105 106 107 109 110 112 113 114 116 117 118 120 121 123 124 125 127 211 247 247 246 246 246 246 246 246 245 245 245 245 245 244 244 244 244 244 243 243 243 242 242 242 241 241 241 240 240 239 239 238 238 237 237 236 235 235 234 233 232 231 230 229 228 226 224 223 221 219 216 213 210 206 202 197 191 184 177 168 157 146 134 128 128 128 128 128 128 128 128 128 128 128 128 128 128 128 128 128 128 128 128 128 128 128 128 128 128 128 128 128 128 128 128 128 128 128 122 105 93 94 95 96 97 98 100 101 102 103 105 106 107 109 110 112 113 114 116 117 118 120 121 123 124 125 127 127 127 127 127 127 127 127 127 127 127 127 127 127 127 127 127 127 127 127 127 127 127 127 127 127 127 127 127 127 127 127 127 127 0 0 0 0 0 0 0 0 0 0 0 0 0 0 0 0 0 0 0 0 0 0 0 0 0 0 0 0 0 0 0 0 0 0 0 0 0 0 0 0 0 0 0 0 0 0 0 0 0 0 0 0 0 0 0 0 0 0 0 0 0 127 127 127 127 127 127 127 127 127 127 127 127 127 127 127 127 127 127 127 127 127 127 127 127 127 127 127 127 127 127 127 127 127 127 127 127 131 132 134 135 137 138 139 141 142 143 145 146 148 149 150 152 153 154 155 157 158 159 160 160 160 153 140 131 129 128 128 128 128 128 128 128 128 128 128 128 128 128 128 128 128 128 128 128 128 128 128 128 128 128 128 128 128 128 128 128 128 127 121 109 98 87 78 71 64 58 53 49 45 42 39 36 34 32 31 29 27 26 25 24 23 22 21 20 19 19 18 18 17 17 16 16 15 15 14 14 14 13 13 13 12 12 12 11 11 11 11 11 10 10 10 10 10 9 9 9 9 9 9 9 29 96 126 130 131 132 134 135 137 138 139 141 142 143 145 146 148 149 150 152 153 154 155 157 158 159 160 160 160 153 140 131 129 128 128 128 128 128 128 128 128 128 128 128 128 128 128 128 128 128 128 128 128 128 128 128 128 128 128 128 128 128 128 128 128 128
128 128 128 128 128 128 128 128 128 128 128 128 128 128 128 128 128 128 128 128 128 128 128 128 128 128 128 128 128 128 128 128 128 123 104 90 91 92 93 94 96 97 98 99 100 102 103 104 106 107 108 110 111 113 114 115 117 118 120 121 123 124 125 127 200 245 245 245 245 245 244 244 244 244 244 244 243 243 243 243 242 242 242 241 241 241 240 240 240 239 239 239 238 238 237 237 236 235 235 234 233 232 232 231 230 229 228 227 225 224 222 220 218 216 214 211 208 205 201 196 191 185 179 171 163 154 144 133 128 128 128 128 128 128 128 128 128 128 128 128 128 128 128 128 128 128 128 128 128 128 128 128 128 128 128 128 128 128 128 128 128 123 104 90 91 92 93 94 96 97 98 99 100 102 103 104 106 107 108 110 111 113 114 115 117 118 120 121 123 124 125 127 127 127 127 127 127 127 127 127 127 127 127 127 127 127 127 127 127 127 127 127 127 127 127 127 127 127 127 127 127 127 127 127 127 0 0 0 0 0 0 0 0 0 0 0 0 0 0 0 0 0 0 0 0 0 0 0 0 0 0 0 0 0 0 0 0 0 0 0 0 0 0 0 0 0 0 0 0 0 0 0 0 0 0 0 0 0 0 0 0 0 0 0 0 0 127 127 127 127 127 127 127 127 127 127 127 127 127 127 127 127 127 127 127 127 127 127 127 127 127 127 127 127 127 127 127 127 127 127 127 127 131 132 134 135 137 138 140 141 142 144 145 146 148 149 151 152 153 154 156 157 158 159 161 162 163 163 162 155 141 131 129 128 128 128 128 128 128 128 128 128 128 128 128 128 128 128 128 128 128 128 128 128 128 128 128 128 128 128 128 128 128 128 122 111 102 92 84 76 70 64 59 54 50 47 44 41 39 36 35 33 31 30 28 27 26 25 24 23 22 22 21 20 20 19 18 18 17 17 16 16 16 15 15 15 14 14 13 13 13 13 13 12 12 12 11 11 11 11 11 11 10 10 10 10 30 97 126 130 131 132 134 135 137 138 140 141 142 144 145 146 148 149 151 152 153 154 156 157 158 159 161 162 163 163 162 155 141 131 129 128 128 128 128 128 128 128 128 128 128 128 128 128 128 128 128 128 128 128 128 128 128 128 128 128 128 128 128 128 128 128
128 128 128 128 128 128 128 128 128 128 128 128 128 128 128 128 128 128 128 128 128 128 128 128 128 128 128 128 128 128 128 125 106 88 88 89 90 91 93 94 95 96 97 99 100 101 103 104 105 107 108 109 111 112 114 115 117 118 120 121 122 124 125 127 184 244 244 244 243 243 243 243 243 242 242 242 242 241 241 241 241 240 240 240 239 239 239 238 238 237 237 236 236 235 235 234 234 233 232 231 231 230 229 228 227 226 224 223 222 220 218 216 214 212 209 206 203 200 196 191 186 180 174 167 159 151 142 132 128 128 128 128 128 128 128 128 128 128 128 128 128 128 128 128 128 128 128 128 128 128 128 128 128 128 128 128 128 128 128 125 106 88 88 89 90 91 93 94 95 96 97 99 100 101 103 104 105 107 108 109 111 112 114 115 117 118 120 121 122 124 125 127 127 127 127 127 127 127 127 127 127 127 127 127 127 127 127 127 127 127 127 127 127 127 127 127 127 127 127 127 127 127 127 127 127 0 0 0 0 0 0 0 0 0 0 0 0 0 0 0 0 0 0 0 0 0 0 0 0 0 0 0 0 0 0 0 0 0 0 0 0 0 0 0 0 0 0 0 0 0 0 0 0 0 0 0 0 0 0 0 0 0 0 0 0 0 127 127 127 127 127 127 127 127 127 127 127 127 127 127 127 127 127 127 127 127 127 127 127 127 127 127 127 127 127 127 127 127 127 127 127 127 131 132 134 136 137 138 140 141 143 144 145 147 148 150 151 152 154 155 156 157 159 160 161 163 164 165 166 166 165 155 138 131 128 128 128 128 128 128 128 128 128 128 128 128 128 128 128 128 128 128 128 128 128 128 128 128 128 128 128 128 128 128 123 113 104 96 88 81 75 69 64 59 55 52 48 46 43 41 39 37 35 33 32 31 29 28 27 26 25 24 24 23 22 22 21 20 20 19 19 18 18 17 17 17 16 16 15 15 15 14 14 14 14 13 13 13 13 12 12 12 12 12 12 11 35 110 127 130 131 132 134 136 137 138 140 141 143 144 145 147 148 150 151 152 154 155 156 157 159 160 161 163 164 165 166 166 165 155 138 131 128 128 128 128 128 128 128 128 128 128 128 128 128 128 128 128 128 128 128 128 128 128 128 128 128 128 128 128 128 128
128 128 128 128 128 128 128 128 128 128 128 128 128 128 128 128 128 128 128 128 128 128 128 128 128 128 128 128 128 128 112 88 85 86 87 89 90 91 92 93 94 96 97 98 100 101 102 104 105 106 108 109 111 112 113 115 116 118 119 121 122 124 125 127 167 243 243 242 242 242 242 241 241 241 241 241 240 240 240 239 239 239 238 238 238 237 237 236 236 236 235 234 234 233 233 232 231 231 230 229 228 227 226 225 224 222 221 220 218 216 215 213 210 208 205 202 199 195 191 187 182 176 170 163 156 148 140 132 128 128 128 128 128 128 128 128 128 128 128 128 128 128 128 128 128 128 128 128 128 128 128 128 128 128 128 128 128 128 112 88 85 86 87 89 90 91 92 93 94 96 97 98 100 101 102 104 105 106 108 109 111 112 113 115 116 118 119 121 122 124 125 127 127 127 127 127 127 127 127 127 127 127 127 127 127 127 127 127 127 127 127 127 127 127 127 127 127 127 127 127 127 127 127 127 127 0 0 0 0 0 0 0 0 0 0 0 0 0 0 0 0 0 0 0 0 0 0 0 0 0 0 0 0 0 0 0 0 0 0 0 0 0 0 0 0 0 0 0 0 0 0 0 0 0 0 0 0 0 0 0 0 0 0 0 0 0 127 127 127 127 127 127 127 127 127 127 127 127 127 127 127 127 127 127 127 127 127 127 127 127 127 127 127 127 127 127 127 127 127 127 127 127 131 133 134 136 137 139 140 142 143 145 146 147 149 150 151 153 154 155 157 158 159 161 162 163 164 165 167 168 169 169 166 151 135 129 128 128 128 128 128 128 128 128 128 128 128 128 128 128 128 128 128 128 128 128 128 128 128 128 128 128 128 128 123 115 106 99 92 85 79 73 68 64 60 56 53 50 47 45 42 40 39 37 35 34 32 31 30 29 28 27 26 25 24 24 23 22 22 21 21 20 19 19 19 18 18 17 17 17 16 16 16 16 15 15 15 14 14 14 14 13 13 13 13 12 38 114 127 130 131 133 134 136 137 139 140 142 143 145 146 147 149 150 151 153 154 155 157 158 159 161 162 163 164 165 167 168 169 169 166 151 135 129 128 128 128 128 128 128 128 128 128 128 128 128 128 128 128 128 128 128 128 128 128 128 128 128 128 128 128 128
128 128 128 128 128 128 128 128 128 128 128 128 128 128 128 128 128 128 128 128 128 128 128 128 128 128 128 128 122 95 82 83 84 86 87 88 89 90 91 92 94 95 96 98 99 100 102 103 105 106 108 109 110 112 113 115 116 118 119 121 122 124 125 127 143 240 241 241 241 241 240 240 240 240 239 239 239 238 238 238 237 237 237 236 236 235 235 234 234 233 233 232 232 231 230 230 229 228 227 226 225 224 223 222 221 220 218 217 215 213 211 209 207 204 201 198 195 191 187 183 178 173 167 160 154 147 139 131 128 128 128 128 128 128 128 128 128 128 128 128 128 128 128 128 128 128 128 128 128 128 128 128 128 128 128 128 122 95 82 83 84 86 87 88 89 90 91 92 94 95 96 98 99 100 102 103 105 106 108 109 110 112 113 115 116 118 119 121 122 124 125 127 127 127 127 127 127 127 127 127 127 127 127 127 127 127 127 127 127 127 127 127 127 127 127 127 127 127 127 127 127 127 127 127 127 0 0 0 0 0 0 0 0 0 0 0 0 0 0 0 0 0 0 0 0 0 0 0 0 0 0 0 0 0 0 0 0 0 0 0 0 0 0 0 0 0 0 0 0 0 0 0 0 0 0 0 0 0 0 0 0 0 0 0 0 0 127 127 127 127 127 127 127 127 127 127 127 127 127 127 127 127 127 127 127 127 127 127 127 127 127 127 127 127 127 127 127 127 127 127 127 127 131 133 134 136 137 139 140 142 143 145 146 148 149 150 152 153 155 156 157 159 160 161 162 164 165 166 167 168 170 171 172 171 163 143 131 128 128 128 128 128 128 128 128 128 128 128 128 128 128 128 128 128 128 128 128 128 128 128 128 128 128 128 124 116 109 101 95 88 83 77 72 68 64 60 57 54 51 48 46 44 42 40 39 37 36 34 33 32 31 30 29 28 27 26 25 25 24 23 23 22 22 21 20 20 20 19 19 19 18 18 17 17 17 16 16 16 16 15 15 15 14 14 14 16 48 124 128 130 131 133 134 136 137 139 140 142 143 145 146 148 149 150 152 153 155 156 157 159 160 161 162 164 165 166 167 168 170 171 172 171 163 143 131 128 128 128 128 128 128 128 128 128 128 128 128 128 128 128 128 128 128 128 128 128 128 128 128 128 128 128
128 128 128 128 128 128 128 128 128 128 128 128 128 128 128 128 128 128 128 128 128 128 128 128 128 128 128 110 82 80 81 83 84 85 86 87 88 89 91 92 93 95 96 97 99 100 101 103 104 106 107 109 110 111 113 115 116 117 119 120 122 124 125 127 131 232 240 240 239 239 239 239 238 238 238 238 237 237 237 236 236 235 235 234 234 234 233 233 232 231 231 230 229 229 228 227 227 226 225 224 223 222 220 219 218 217 215 213 212 210 208 205 203 201 198 195 191 187 183 179 174 169 164 158 152 145 138 131 128 128 128 128 128 128 128 128 128 128 128 128 128 128 128 128 128 128 128 128 128 128 128 128 128 128 128 110 82 80 81 83 84 85 86 87 88 89 91 92 93 95 96 97 99 100 101 103 104 106 107 109 110 111 113 115 116 117 119 120 122 124 125 127 127 127 127 127 127 127 127 127 127 127 127 127 127 127 127 127 127 127 127 127 127 127 127 127 127 127 127 127 127 127 127 127 127 0 0 0 0 0 0 0 0 0 0 0 0 0 0 0 0 0 0 0 0 0 0 0 0 0 0 0 0 0 0 0 0 0 0 0 0 0 0 0 0 0 0 0 0 0 0 0 0 0 0 0 0 0 0 0 0 0 0 0 0 0 127 127 127 127 127 127 127 127 127 127 127 127 127 127 127 127 127 127 127 127 127 127 127 127 127 127 127 127 127 127 127 127 127 127 127 127 131 133 135 136 138 139 140 142 144 145 146 148 149 151 152 154 155 156 158 159 160 162 163 164 165 167 168 169 170 171 173 173 174 171 155 135 129 128 128 128 128 128 128 128 128 128 128 128 128 128 128 128 128 128 128 128 128 128 128 128 128 128 124 117 110 104 97 91 86 81 76 72 67 64 60 57 54 52 49 47 45 43 42 40 38 37 36 34 33 32 31 30 29 29 28 27 26 25 25 24 24 23 23 22 22 21 20 20 20 19 19 18 18 18 18 17 17 17 16 16 16 15 15 23 69 124 128 130 131 133 135 136 138 139 140 142 144 145 146 148 149 151 152 154 155 156 158 159 160 162 163 164 165 167 168 169 170 171 173 173 174 171 155 135 129 128 128 128 128 128 128 128 128 128 128 128 128 128 128 128 128 128 128 128 128 128 128 128 128 128
128 128 128 128 128 128 128 128 128 128 128 128 128 128 128 128 128 128 128 128 128 128 128 128 128 125 95 77 79 80 81 82 83 84 85 87 88 89 90 91 93 94 95 97 98 100 101 102 104 105 107 108 110 111 113 114 116 117 119 120 122 123 125 127 128 216 239 238 238 238 238 237 237 237 236 236 236 235 235 235 234 234 233 233 232 232 231 231 230 229 229 228 228 227 226 225 224 223 222 221 220 219 218 217 215 214 212 211 209 207 205 202 200 197 195 191 188 184 180 176 171 166 161 156 150 144 137 131 128 128 128 128 128 128 128 128 128 128 128 128 128 128 128 128 128 128 128 128 128 128 128 128 128 125 95 77 79 80 81 82 83 84 85 87 88 89 90 91 93 94 95 97 98 100 101 102 104 105 107 108 110 111 113 114 116 117 119 120 122 123 125 127 127 127 127 127 127 127 127 127 127 127 127 127 127 127 127 127 127 127 127 127 127 127 127 127 127 127 127 127 127 127 127 127 127 0 0 0 0 0 0 0 0 0 0 0 0 0 0 0 0 0 0 0 0 0 0 0 0 0 0 0 0 0 0 0 0 0 0 0 0 0 0 0 0 0 0 0 0 0 0 0 0 0 0 0 0 0 0 0 0 0 0 0 0 0 127 127 127 127 127 127 127 127 127 127 127 127 127 127 127 127 127 127 127 127 127 127 127 127 127 127 127 127 127 127 127 127 127 127 127 127 131 133 135 136 138 139 141 142 144 145 147 148 150 151 153 154 156 157 158 160 161 162 164 165 166 167 169 170 171 172 173 174 175 176 175 165 141 130 128 128 128 128 128 128 128 128 128 128 128 128 128 128 128 128 128 128 128 128 128 128 128 128 124 118 111 105 99 94 89 84 79 75 71 67 64 61 58 55 53 51 48 46 44 43 41 40 38 37 36 35 34 33 31 31 30 29 28 28 27 26 25 25 24 24 23 23 22 22 21 21 20 20 20 19 19 19 18 18 18 17 17 17 16 28 84 125 128 130 131 133 135 136 138 139 141 142 144 145 147 148 150 151 153 154 156 157 158 160 161 162 164 165 166 167 169 170 171 172 173 174 175 176 175 165 141 130 128 128 128 128 128 128 128 128 128 128 128 128 128 128 128 128 128 128 128 128 128 128 128 128
128 128 128 128 128 128 128 128 128 128 128 128 128 128 128 128 128 128 128 128 128 128 128 128 119 83 76 77 78 79 80 81 82 84 85 86 87 88 90 91 92 93 95 96 98 99 100 102 103 105 106 108 110 111 112 114 115 117 119 120 122 123 125 127 128 194 237 237 237 237 236 236 236 235 235 234 234 234 233 233 232 232 231 231 231 230 229 229 228 228 227 226 226 225 224 223 222 221 220 219 218 217 216 214 213 211 210 208 206 204 202 199 197 194 191 188 185 181 177 173 169 164 159 154 148 142 137 131 128 128 128 128 128 128 128 128 128 128 128 128 128 128 128 128 128 128 128 128 128 128 128 128 119 83 76 77 78 79 80 81 82 84 85 86 87 88 90 91 92 93 95 96 98 99 100 102 103 105 106 108 110 111 112 114 115 117 119 120 122 123 125 127 127 127 127 127 127 127 127 127 127 127 127 127 127 127 127 127 127 127 127 127 127 127 127 127 127 127 127 127 127 127 127 127 127 0 0 0 0 0 0 0 0 0 0 0 0 0 0 0 0 0 0 0 0 0 0 0 0 0 0 0 0 0 0 0 0 0 0 0 0 0 0 0 0 0 0 0 0 0 0 0 0 0 0 0 0 0 0 0 0 0 0 0 0 0 127 127 127 127 127 127 127 127 127 127 127 127 127 127 127 127 127 127 127 127 127 127 127 127 127 127 127 127 127 127 127 127 127 127 127 127 132 133 135 136 138 140 141 143 144 145 147 149 150 152 153 155 156 157 159 160 161 163 164 166 167 168 169 171 172 173 174 175 176 177 178 178 173 149 132 128 128 128 128 128 128 128 128 128 128 128 128 128 128 128 128 128 128 128 128 128 128 128 125 119 113 107 101 96 91 86 82 78 74 70 67 63 61 58 56 53 51 49 47 45 44 42 41 40 38 37 36 35 34 33 32 31 30 30 29 28 28 27 26 26 25 24 24 23 23 22 22 22 21 21 21 20 20 19 19 19 18 18 18 34 99 126 128 130 132 133 135 136 138 140 141 143 144 145 147 149 150 152 153 155 156 157 159 160 161 163 164 166 167 168 169 171 172 173 174 175 176 177 178 178 173 149 132 128 128 128 128 128 128 128 128 128 128 128 128 128 128 128 128 128 128 128 128 128 128 128
128 128 128 128 128 128 128 128 128 128 128 128 128 128 128 128 128 128 128 128 128 128 128 111 75 74 75 76 77 78 79 80 81 83 84 85 86 88 89 90 91 93 94 96 97 99 100 101 103 104 106 107 109 110 112 114 115 117 119 120 122 123 125 127 128 169 236 236 236 235 235 235 234 234 234 233 233 232 232 231 231 231 230 229 229 228 228 227 226 226 225 224 224 223 222 221 220 219 218 217 216 214 213 212 210 209 207 205 203 201 199 197 194 191 188 185 182 178 174 170 166 162 157 152 147 141 136 130 128 128 128 128 128 128 128 128 128 128 128 128 128 128 128 128 128 128 128 128 128 128 128 111 75 74 75 76 77 78 79 80 81 83 84 85 86 88 89 90 91 93 94 96 97 99 100 101 103 104 106 107 109 110 112 114 115 117 119 120 122 123 125 127 127 127 127 127 127 127 127 127 127 127 127 127 127 127 127 127 127 127 127 127 127 127 127 127 127 127 127 127 127 127 127 127 127 0 0 0 0 0 0 0 0 0 0 0 0 0 0 0 0 0 0 0 0 0 0 0 0 0 0 0 0 0 0 0 0 0 0 0 0 0 0 0 0 0 0 0 0 0 0 0 0 0 0 0 0 0 0 0 0 0 0 0 0 0 127 127 127 127 127 127 127 127 127 127 127 127 127 127 127 127 127 127 127 127 127 127 127 127 127 127 127 127 127 127 127 127 127 127 127 127 132 133 135 137 138 140 141 143 144 146 148 149 151 152 154 155 156 158 159 161 162 164 165 166 167 169 170 171 172 174 175 176 177 178 179 180 181 177 157 135 129 128 128 128 128 128 128 128 128 128 128 128 128 128 128 128 128 128 128 128 128 128 125 119 114 108 103 98 93 89 85 80 77 73 70 67 64 61 59 56 54 52 50 48 46 45 44 42 41 39 38 37 36 35 34 33 32 32 31 30 29 29 28 27 27 26 26 25 25 24 24 23 23 22 22 21 21 21 20 20 20 20 19 40 113 127 128 130 132 133 135 137 138 140 141 143 144 146 148 149 151 152 154 155 156 158 159 161 162 164 165 166 167 169 170 171 172 174 175 176 177 178 179 180 181 177 157 135 129 128 128 128 128 128 128 128 128 128 128 128 128 128 128 128 128 128 128 128 128 128
128 128 128 128 128 128 128 128 128 128 128 128 128 128 128 128 128 128 128 128 128 128 101 72 72 73 74 75 76 77 79 80 81 82 83 84 86 87 88 89 91 92 94 95 96 98 99 101 102 104 105 107 109 110 112 114 115 117 118 120 122 123 125 127 128 139 233 235 234 234 234 233 233 232 232 232 231 231 230 230 229 229 228 228 227 227 226 225 225 224 223 222 222 221 220 219 218 217 216 214 213 212 211 209 208 206 204 202 200 198 196 194 191 189 186 183 179 176 172 168 164 160 155 151 146 140 135 130 128 128 128 128 128 128 128 128 128 128 128 128 128 128 128 128 128 128 128 128 128 128 101 72 72 73 74 75 76 77 79 80 81 82 83 84 86 87 88 89 91 92 94 95 96 98 99 101 102 104 105 107 109 110 112 114 115 117 118 120 122 123 125 127 127 127 127 127 127 127 127 127 127 127 127 127 127 127 127 127 127 127 127 127 127 127 127 127 127 127 127 127 127 127 127 127 127 0 0 0 0 0 0 0 0 0 0 0 0 0 0 0 0 0 0 0 0 0 0 0 0 0 0 0 0 0 0 0 0 0 0 0 0 0 0 0 0 0 0 0 0 0 0 0 0 0 0 0 0 0 0 0 0 0 0 0 0 0 127 127 127 127 127 127 127 127 127 127 127 127 127 127 127 127 127 127 127 127 127 127 127 127 127 127 127 127 127 127 127 127 127 127 127 127 131 133 135 137 138 140 142 143 145 146 148 150 151 153 154 156 157 159 160 161 163 164 165 167 168 169 171 172 173 174 175 177 178 179 180 181 182 183 181 165 137 129 128 128 128 128 128 128 128 128 128 128 128 128 128 128 128 128 128 128 128 128 125 120 115 109 104 100 95 91 87 83 79 76 72 69 66 64 61 59 56 55 53 51 49 47 46 44 43 42 40 39 38 37 36 35 34 34 33 32 31 30 29 29 28 28 27 27 26 25 25 25 24 24 23 23 22 22 22 21 21 21 22 53 123 128 128 130 131 133 135 137 138 140 142 143 145 146 148 150 151 153 154 156 157 159 160 161 163 164 165 167 168 169 171 172 173 174 175 177 178 179 180 181 182 183 181 165 137 129 128 128 128 128 128 128 128 128 128 128 128 128 128 128 128 128 128 128 128 128
128 128 128 128 128 128 128 128 128 128 128 128 128 128 128 128 128 128 128 128 127 96 69 70 71 72 73 74 75 76 77 79 80 81 82 84 85 86 88 89 90 92 93 94 96 97 99 100 102 103 105 107 108 110 112 113 115 117 118 120 122 123 125 127 128 129 216 233 233 232 232 232 231 231 231 230 230 229 229 228 228 227 227 226 226 225 224 224 223 222 221 221 220 219 218 217 216 215 214 212 211 210 209 207 205 204 202 200 198 196 194 191 189 186 183 180 177 173 170 166 162 158 154 149 144 140 135 130 128 128 128 128 128 128 128 128 128 128 128 128 128 128 128 128 128 128 128 128 127 96 69 70 71 72 73 74 75 76 77 79 80 81 82 84 85 86 88 89 90 92 93 94 96 97 99 100 102 103 105 107 108 110 112 113 115 117 118 120 122 123 125 127 127 127 127 127 127 127 127 127 127 127 127 127 127 127 127 127 127 127 127 127 127 127 127 127 127 127 127 127 127 127 127 127 127 0 0 0 0 0 0 0 0 0 0 0 0 0 0 0 0 0 0 0 0 0 0 0 0 0 0 0 0 0 0 0 0 0 0 0 0 0 0 0 0 0 0 0 0 0 0 0 0 0 0 0 0 0 0 0 0 0 0 0 0 0 127 127 127 127 127 127 127 127 127 127 127 127 127 127 127 127 127 127 127 127 127 127 127 127 127 127 127 127 127 127 127 127 127 127 127 127 132 133 135 137 138 140 142 144 145 147 148 150 152 153 155 156 158 159 161 162 163 165 166 167 169 170 171 173 174 175 176 177 179 180 181 182 183 184 185 184 170 140 129 128 128 128 128 128 128 128 128 128 128 128 128 128 128 128 128 128 128 128 125 120 115 110 106 101 97 93 89 85 82 78 75 72 69 66 64 61 59 57 55 53 51 50 48 47 45 44 43 41 40 39 38 37 36 35 35 34 33 32 32 31 30 29 29 28 28 27 27 26 25 25 25 24 24 23 23 23 22 22 31 80 125 128 128 130 132 133 135 137 138 140 142 144 145 147 148 150 152 153 155 156 158 159 161 162 163 165 166 167 169 170 171 173 174 175 176 177 179 180 181 182 183 184 185 184 170 140 129 128 128 128 128 128 128 128 128 128 128 128 128 128 128 128 128 128 128 128
128 128 128 128 128 128 128 128 128 128 128 128 128 128 128 128 128 128 128 125 89 67 68 69 70 71 72 73 74 75 77 78 79 80 82 83 84 86 87 88 90 91 92 94 95 97 98 100 101 103 105 106 108 110 111 113 114 116 118 120 121 123 125 127 128 128 191 232 232 231 231 231 230 230 229 229 229 228 228 227 226 226 225 225 224 223 223 222 221 220 220 219 218 217 216 215 214 213 212 210 209 208 206 205 203 201 200 198 196 193 191 189 186 184 181 178 175 172 168 164 160 156 152 148 144 139 134 130 128 128 128 128 128 128 128 128 128 128 128 128 128 128 128 128 128 128 128 125 89 67 68 69 70 71 72 73 74 75 77 78 79 80 82 83 84 86 87 88 90 91 92 94 95 97 98 100 101 103 105 106 108 110 111 113 114 116 118 120 121 123 125 127 127 127 127 127 127 127 127 127 127 127 127 127 127 127 127 127 127 127 127 127 127 127 127 127 127 127 127 127 127 127 127 127 127 0 0 0 0 0 0 0 0 0 0 0 0 0 0 0 0 0 0 0 0 0 0 0 0 0 0 0 0 0 0 0 0 0 0 0 0 0 0 0 0 0 0 0 0 0 0 0 0 0 0 0 0 0 0 0 0 0 0 0 0 0 127 127 127 127 127 127 127 127 127 127 127 127 127 127 127 127 127 127 127 127 127 127 127 127 127 127 127 127 127 127 127 127 127 127 127 127 132 133 135 137 139 140 142 144 146 147 149 150 152 154 155 157 158 160 161 163 164 166 167 168 169 171 172 173 175 176 177 178 179 180 182 183 184 185 186 187 186 174 142 130 128 128 128 128 128 128 128 128 128 128 128 128 128 128 128 128 128 128 125 120 116 112 107 103 99 95 91 87 84 80 77 74 71 69 66 64 62 59 57 55 54 52 50 49 47 46 45 44 42 41 40 39 38 37 36 35 35 34 33 32 32 31 30 30 29 29 28 28 27 27 26 26 25 25 24 24 24 23 38 101 126 128 128 130 132 133 135 137 139 140 142 144 146 147 149 150 152 154 155 157 158 160 161 163 164 166 167 168 169 171 172 173 175 176 177 178 179 180 182 183 184 185 186 187 186 174 142 130 128 128 128 128 128 128 128 128 128 128 128 128 128 128 128 128 128 128
128 128 128 128 128 128 128 128 128 128 128 128 128 128 128 128 128 128 125 83 66 66 68 68 70 71 72 73 74 75 76 77 78 80 81 82 83 85 86 87 89 90 92 93 95 96 98 99 101 102 104 106 107 109 111 113 114 116 118 120 121 123 125 127 128 128 158 231 231 230 230 229 229 229 228 227 227 227 226 225 225 224 224 223 222 222 221 220 220 219 218 217 216 215 214 213 212 211 209 208 207 205 204 202 201 199 197 196 193 191 189 187 184 182 179 176 173 169 166 163 159 155 151 147 143 139 134 130 128 128 128 128 128 128 128 128 128 128 128 128 128 128 128 128 128 128 125 83 66 66 68 68 70 71 72 73 74 75 76 77 78 80 81 82 83 85 86 87 89 90 92 93 95 96 98 99 101 102 104 106 107 109 111 113 114 116 118 120 121 123 125 127 127 127 127 127 127 127 127 127 127 127 127 127 127 127 127 127 127 127 127 127 127 127 127 127 127 127 127 127 127 127 127 127 127 0 0 0 0 0 0 0 0 0 0 0 0 0 0 0 0 0 0 0 0 0 0 0 0 0 0 0 0 0 0 0 0 0 0 0 0 0 0 0 0 0 0 0 0 0 0 0 0 0 0 0 0 0 0 0 0 0 0 0 0 0 127 127 127 127 127 127 127 127 127 127 127 127 127 127 127 127 127 127 127 127 127 127 127 127 127 127 127 127 127 127 127 127 127 127 127 127 132 134 135 137 139 141 142 144 146 147 149 151 152 154 156 157 159 160 162 163 165 166 168 169 170 172 173 174 175 177 178 179 180 181 182 183 184 185 187 187 188 188 177 143 130 128 128 128 128 128 128 128 128 128 128 128 128 128 128 128 128 128 125 121 117 112 108 104 100 96 92 89 86 82 79 76 74 71 68 66 64 62 60 58 56 54 52 51 49 48 47 46 44 43 42 41 40 39 38 37 36 36 35 34 33 33 32 31 31 30 29 29 28 28 28 27 27 26 26 25 25 25 47 116 127 128 129 130 132 134 135 137 139 141 142 144 146 147 149 151 152 154 156 157 159 160 162 163 165 166 168 169 170 172 173 174 175 177 178 179 180 181 182 183 184 185 187 187 188 188 177 143 130 128 128 128 128 128 128 128 128 128 128 128 128 128 128 128 128 128
128 128 128 128 128 128 128 128 128 128 128 128 128 128 128 128 128 125 82 64 65 66 67 68 68 70 71 72 73 74 75 76 78 79 80 81 83 84 85 87 88 89 91 93 94 95 97 99 100 102 104 105 107 109 110 112 114 116 117 119 121 123 125 126 128 128 131 221 229 229 229 228 228 227 227 226 226 225 224 224 223 223 222 221 221 220 219 219 218 217 216 215 214 213 212 211 210 209 208 206 205 204 202 200 199 197 195 193 191 189 187 184 182 180 177 174 171 168 164 161 157 154 150 146 142 138 134 130 128 128 128 128 128 128 128 128 128 128 128 128 128 128 128 128 128 125 82 64 65 66 67 68 68 70 71 72 73 74 75 76 78 79 80 81 83 84 85 87 88 89 91 93 94 95 97 99 100 102 104 105 107 109 110 112 114 116 117 119 121 123 125 126 127 127 127 127 127 127 127 127 127 127 127 127 127 127 127 127 127 127 127 127 127 127 127 127 127 127 127 127 127 127 127 127 127 0 0 0 0 0 0 0 0 0 0 0 0 0 0 0 0 0 0 0 0 0 0 0 0 0 0 0 0 0 0 0 0 0 0 0 0 0 0 0 0 0 0 0 0 0 0 0 0 0 0 0 0 0 0 0 0 0 0 0 0 0 127 127 127 127 127 127 127 127 127 127 127 127 127 127 127 127 127 127 127 127 127 127 127 127 127 127 127 127 127 127 127 127 127 127 127 127 132 134 136 138 139 141 143 145 146 148 150 151 153 155 156 158 160 161 163 164 165 167 168 170 171 172 174 175 176 177 179 180 181 182 183 184 185 186 187 188 189 190 190 178 143 129 128 128 128 128 128 128 128 128 128 128 128 128 128 128 128 128 125 121 117 113 109 105 102 98 94 91 88 84 81 78 76 73 70 68 66 64 62 60 58 56 55 53 52 50 49 47 46 45 44 43 42 41 40 39 38 37 36 36 35 34 33 33 32 32 31 31 30 29 29 28 28 27 27 27 26 31 70 124 128 128 128 130 132 134 136 138 139 141 143 145 146 148 150 151 153 155 156 158 160 161 163 164 165 167 168 170 171 172 174 175 176 177 179 180 181 182 183 184 185 186 187 188 189 190 190 178 143 129 128 128 128 128 128 128 128 128 128 128 128 128 128 128 128 128
128 128 128 128 128 128 128 128 128 128 128 128 128 128 128 128 127 87 62 63 64 64 66 67 68 69 70 71 72 73 74 76 77 78 79 80 82 83 84 86 87 89 90 92 93 95 96 98 100 101 103 105 107 108 110 112 114 115 117 119 121 123 125 127 128 128 128 195 228 228 227 227 226 226 225 225 224 224 223 222 222 221 221 220 219 219 218 217 216 215 214 213 213 211 210 209 208 207 206 204 203 202 200 199 197 195 193 191 189 187 185 182 180 177 175 172 169 166 163 159 156 152 149 145 141 137 134 129 128 128 128 128 128 128 128 128 128 128 128 128 128 128 128 128 127 87 62 63 64 64 66 67 68 69 70 71 72 73 74 76 77 78 79 80 82 83 84 86 87 89 90 92 93 95 96 98 100 101 103 105 107 108 110 112 114 115 117 119 121 123 125 127 127 127 127 127 127 127 127 127 127 127 127 127 127 127 127 127 127 127 127 127 127 127 127 127 127 127 127 127 127 127 127 127 127 0 0 0 0 0 0 0 0 0 0 0 0 0 0 0 0 0 0 0 0 0 0 0 0 0 0 0 0 0 0 0 0 0 0 0 0 0 0 0 0 0 0 0 0 0 0 0 0 0 0 0 0 0 0 0 0 0 0 0 0 0 127 127 127 127 127 127 127 127 127 127 127 127 127 127 127 127 127 127 127 127 127 127 127 127 127 127 127 127 127 127 127 127 127 127 127 127 132 134 136 138 140 141 143 145 147 148 150 152 154 155 157 159 160 162 163 165 166 168 169 170 172 173 175 176 177 178 180 181 182 183 184 185 186 187 188 189 190 191 192 191 179 142 129 128 128 128 128 128 128 128 128 128 128 128 128 128 128 128 126 122 118 114 110 106 103 99 96 92 89 86 83 80 78 75 73 70 68 66 64 62 60 58 57 55 53 52 51 49 48 47 46 45 44 43 42 41 40 39 38 37 36 36 35 34 34 33 32 32 31 31 30 30 29 28 28 28 27 39 96 126 128 128 129 130 132 134 136 138 140 141 143 145 147 148 150 152 154 155 157 159 160 162 163 165 166 168 169 170 172 173 175 176 177 178 180 181 182 183 184 185 186 187 188 189 190 191 192 191 179 142 129 128 128 128 128 128 128 128 128 128 128 128 128 128 128 128
128 128 128 128 128 128 128 128 128 128 128 128 128 128 128 128 93 60 61 62 63 64 65 66 67 68 69 70 71 72 73 74 76 77 78 80 81 82 84 85 87 88 89 91 93 94 96 98 99 101 102 104 106 108 110 112 113 115 117 119 121 123 125 127 128 128 128 158 226 227 226 226 225 224 224 223 223 222 222 221 220 220 219 219 218 217 216 215 215 214 213 212 211 210 209 208 206 205 204 203 201 200 198 196 195 193 191 189 187 185 183 181 178 176 173 170 167 164 161 158 155 151 148 144 141 137 133 129 128 128 128 128 128 128 128 128 128 128 128 128 128 128 128 128 93 60 61 62 63 64 65 66 67 68 69 70 71 72 73 74 76 77 78 80 81 82 84 85 87 88 89 91 93 94 96 98 99 101 102 104 106 108 110 112 113 115 117 119 121 123 125 127 127 127 127 127 127 127 127 127 127 127 127 127 127 127 127 127 127 127 127 127 127 127 127 127 127 127 127 127 127 127 127 127 127 0 0 0 0 0 0 0 0 0 0 0 0 0 0 0 0 0 0 0 0 0 0 0 0 0 0 0 0 0 0 0 0 0 0 0 0 0 0 0 0 0 0 0 0 0 0 0 0 0 0 0 0 0 0 0 0 0 0 0 0 0 127 127 127 127 127 127 127 127 127 127 127 127 127 127 127 127 127 127 127 127 127 127 127 127 127 127 127 127 127 127 127 127 127 127 127 127 132 134 136 138 140 142 143 145 147 149 151 153 154 156 158 159 161 162 164 165 167 169 170 171 173 174 175 177 178 179 180 182 183 184 185 186 187 188 189 190 191 192 193 194 193 177 139 129 128 128 128 128 128 128 128 128 128 128 128 128 128 128 126 122 118 114 111 107 104 100 97 94 91 88 85 82 79 77 74 72 70 68 66 64 62 60 59 57 55 54 52 51 50 49 48 46 45 44 43 42 41 40 40 39 38 37 37 36 35 35 34 33 33 32 31 31 30 30 30 29 30 49 116 127 128 128 128 130 132 134 136 138 140 142 143 145 147 149 151 153 154 156 158 159 161 162 164 165 167 169 170 171 173 174 175 177 178 179 180 182 183 184 185 186 187 188 189 190 191 192 193 194 193 177 139 129 128 128 128 128 128 128 128 128 128 128 128 128 128 128
128 128 128 128 128 128 128 128 128 128 128 128 128 128 128 97 58 59 60 61 62 63 64 65 66 67 68 69 70 71 73 74 75 76 77 79 80 81 83 84 86 87 89 90 92 93 95 97 98 100 102 104 105 107 109 111 113 115 117 119 121 123 125 127 128 128 128 130 215 225 225 224 224 223 223 222 222 221 220 220 219 218 218 217 216 216 215 214 213 212 211 210 209 208 207 206 205 203 202 201 199 198 196 195 193 191 189 187 185 183 181 179 176 174 171 169 166 163 160 157 154 150 147 144 140 136 133 129 128 128 128 128 128 128 128 128 128 128 128 128 128 128 128 97 58 59 60 61 62 63 64 65 66 67 68 69 70 71 73 74 75 76 77 79 80 81 83 84 86 87 89 90 92 93 95 97 98 100 102 104 105 107 109 111 113 115 117 119 121 123 125 127 127 127 127 127 127 127 127 127 127 127 127 127 127 127 127 127 127 127 127 127 127 127 127 127 127 127 127 127 127 127 127 127 127 0 0 0 0 0 0 0 0 0 0 0 0 0 0 0 0 0 0 0 0 0 0 0 0 0 0 0 0 0 0 0 0 0 0 0 0 0 0 0 0 0 0 0 0 0 0 0 0 0 0 0 0 0 0 0 0 0 0 0 0 0 127 127 127 127 127 127 127 127 127 127 127 127 127 127 127 127 127 127 127 127 127 127 127 127 127 127 127 127 127 127 127 127 127 127 127 127 133 134 136 138 140 142 144 146 148 149 151 153 155 156 158 160 162 163 165 166 168 169 171 172 174 175 176 178 179 180 181 183 184 185 186 187 188 189 190 191 192 193 194 195 196 194 174 136 128 128 128 128 128 128 128 128 128 128 128 128 128 128 126 122 119 115 111 108 105 101 98 95 92 89 86 84 81 79 76 74 72 70 68 66 64 62 60 59 57 56 54 53 52 50 49 48 47 46 45 44 43 42 41 40 40 39 38 37 37 36 35 35 34 33 33 32 32 31 31 30 35 74 124 128 128 128 129 130 133 134 136 138 140 142 144 146 148 149 151 153 155 156 158 160 162 163 165 166 168 169 171 172 174 175 176 178 179 180 181 183 184 185 186 187 188 189 190 191 192 193 194 195 196 194 174 136 128 128 128 128 128 128 128 128 128 128 128 128 128 128
128 128 128 128 128 128 128 128 128 128 128 128 128 128 108 58 57 58 59 60 61 62 63 64 65 66 67 68 69 70 71 73 74 75 76 78 79 80 82 83 85 86 88 89 91 93 94 96 98 100 101 103 105 107 109 111 113 115 117 119 121 123 124 127 128 128 128 128 182 224 224 223 222 222 221 221 220 220 219 218 218 217 216 215 215 214 213 212 212 211 209 209 207 207 205 204 203 202 200 199 197 196 194 193 191 189 188 186 184 182 179 177 175 172 170 167 164 161 159 156 153 149 146 143 139 136 133 129 128 128 128 128 128 128 128 128 128 128 128 128 128 128 108 58 57 58 59 60 61 62 63 64 65 66 67 68 69 70 71 73 74 75 76 78 79 80 82 83 85 86 88 89 91 93 94 96 98 100 101 103 105 107 109 111 113 115 117 119 121 123 124 127 127 127 127 127 127 127 127 127 127 127 127 127 127 127 127 127 127 127 127 127 127 127 127 127 127 127 127 127 127 127 127 127 127 0 0 0 0 0 0 0 0 0 0 0 0 0 0 0 0 0 0 0 0 0 0 0 0 0 0 0 0 0 0 0 0 0 0 0 0 0 0 0 0 0 0 0 0 0 0 0 0 0 0 0 0 0 0 0 0 0 0 0 0 0 127 127 127 127 127 127 127 127 127 127 127 127 127 127 127 127 127 127 127 127 127 127 127 127 127 127 127 127 127 127 127 127 127 127 127 127 133 134 137 139 140 142 144 146 148 150 152 154 156 157 159 161 162 164 166 167 169 170 171 173 175 176 177 179 180 181 182 184 185 186 187 188 189 190 191 192 193 194 195 196 197 198 194 167 134 128 128 128 128 128 128 128 128 128 128 128 128 128 126 122 119 116 112 109 106 102 99 96 93 91 88 85 83 80 78 76 73 71 69 67 66 64 62 61 59 57 56 55 53 52 51 50 48 48 46 46 45 44 43 42 41 40 39 39 38 37 37 36 35 35 34 34 33 32 32 31 44 104 126 128 128 128 129 130 133 134 137 139 140 142 144 146 148 150 152 154 156 157 159 161 162 164 166 167 169 170 171 173 175 176 177 179 180 181 182 184 185 186 187 188 189 190 191 192 193 194 195 196 197 198 194 167 134 128 128 128 128 128 128 128 128 128 128 128 128 128
128 128 128 128 128 128 128 128 128 128 128 128 128 118 59 56 56 57 58 59 60 61 62 63 64 65 66 67 68 69 70 72 73 74 75 77 78 80 81 82 84 85 87 89 90 92 94 95 97 99 101 103 105 106 108 110 112 114 116 118 120 122 124 127 128 128 128 128 142 220 222 222 221 221 220 220 219 218 218 217 216 216 215 214 213 213 212 211 210 209 208 207 206 205 204 203 201 200 199 197 196 194 193 191 190 188 186 184 182 180 178 176 173 171 169 166 163 160 157 155 152 149 145 142 139 136 133 129 128 128 128 128 128 128 128 128 128 128 128 128 128 118 59 56 56 57 58 59 60 61 62 63 64 65 66 67 68 69 70 72 73 74 75 77 78 80 81 82 84 85 87 89 90 92 94 95 97 99 101 103 105 106 108 110 112 114 116 118 120 122 124 127 127 127 127 127 127 127 127 127 127 127 127 127 127 127 127 127 127 127 127 127 127 127 127 127 127 127 127 127 127 127 127 127 127 0 0 0 0 0 0 0 0 0 0 0 0 0 0 0 0 0 0 0 0 0 0 0 0 0 0 0 0 0 0 0 0 0 0 0 0 0 0 0 0 0 0 0 0 0 0 0 0 0 0 0 0 0 0 0 0 0 0 0 0 0 127 127 127 127 127 127 127 127 127 127 127 127 127 127 127 127 127 127 127 127 127 127 127 127 127 127 127 127 127 127 127 127 127 127 127 127 133 135 137 139 141 143 145 147 149 151 152 154 156 158 160 161 163 165 166 168 169 171 172 174 175 177 178 180 181 182 183 185 186 187 188 189 190 191 192 193 194 195 196 197 198 199 199 194 158 132 128 128 128 128 128 128 128 128 128 128 128 128 126 122 119 116 113 109 106 104 100 97 95 92 89 86 84 82 79 77 75 73 71 69 67 65 64 62 60 59 58 56 55 54 52 51 50 49 48 47 46 45 44 43 42 42 41 40 39 39 38 37 37 36 35 35 34 34 33 35 61 120 128 128 128 128 129 131 133 135 137 139 141 143 145 147 149 151 152 154 156 158 160 161 163 165 166 168 169 171 172 174 175 177 178 180 181 182 183 185 186 187 188 189 190 191 192 193 194 195 196 197 198 199 199 194 158 132 128 128 128 128 128 128 128 128 128 128 128 128
128 128 128 128 128 128 128 128 128 128 128 128 125 67 54 54 55 56 57 58 59 60 61 62 63 64 65 66 67 68 69 70 72 73 75 76 77 79 80 81 83 85 86 88 89 91 93 95 97 98 100 102 104 106 108 110 112 114 116 118 120 122 124 127 128 128 128 128 128 195 221 221 220 219 219 218 218 217 216 216 215 214 213 213 212 211 210 209 208 208 206 205 204 203 202 201 200 199 197 196 194 193 191 190 188 186 184 183 181 178 176 174 172 169 167 164 162 159 157 154 151 148 145 142 139 136 132 129 128 128 128 128 128 128 128 128 128 128 128 128 125 67 54 54 55 56 57 58 59 60 61 62 63 64 65 66 67 68 69 70 72 73 75 76 77 79 80 81 83 85 86 88 89 91 93 95 97 98 100 102 104 106 108 110 112 114 116 118 120 122 124 127 127 127 127 127 127 127 127 127 127 127 127 127 127 127 127 127 127 127 127 127 127 127 127 127 127 127 127 127 127 127 127 127 127 0 0 0 0 0 0 0 0 0 0 0 0 0 0 0 0 0 0 0 0 0 0 0 0 0 0 0 0 0 0 0 0 0 0 0 0 0 0 0 0 0 0 0 0 0 0 0 0 0 0 0 0 0 0 0 0 0 0 0 0 0 127 127 127 127 127 127 127 127 127 127 127 127 127 127 127 127 127 127 127 127 127 127 127 127 127 127 127 127 127 127 127 127 127 127 127 127 133 135 137 139 141 143 145 147 149 151 153 155 157 159 160 162 164 166 167 169 171 172 173 175 176 178 179 181 182 183 184 186 187 188 189 190 191 192 194 194 195 196 197 198 199 200 201 200 192 149 130 128 128 128 128 128 128 128 128 128 128 128 126 123 120 116 113 110 107 104 101 98 96 93 91 88 86 83 81 79 77 74 73 71 69 67 65 64 62 61 59 58 57 55 54 53 52 51 50 48 47 46 46 45 44 43 42 41 41 40 39 38 38 37 37 36 36 35 35 43 92 125 128 128 128 128 129 131 133 135 137 139 141 143 145 147 149 151 153 155 157 159 160 162 164 166 167 169 171 172 173 175 176 178 179 181 182 183 184 186 187 188 189 190 191 192 194 194 195 196 197 198 199 200 201 200 192 149 130 128 128 128 128 128 128 128 128 128 128 128
128 128 128 128 128 128 128 128 128 128 128 128 85 52 53 54 54 55 56 57 58 59 60 61 62 63 64 65 66 67 68 69 71 72 73 75 76 78 79 81 82 84 85 87 89 91 92 94 96 98 99 101 103 105 107 109 111 114 116 118 120 122 124 126 128 128 128 128 128 153 219 219 219 218 218 217 216 216 215 214 214 213 212 211 211 210 209 208 207 206 205 204 203 202 201 200 198 197 196 194 193 191 190 188 186 185 183 181 179 177 175 173 170 168 166 163 161 158 155 153 150 147 144 141 138 135 132 129 128 128 128 128 128 128 128 128 128 128 128 128 85 52 53 54 54 55 56 57 58 59 60 61 62 63 64 65 66 67 68 69 71 72 73 75 76 78 79 81 82 84 85 87 89 91 92 94 96 98 99 101 103 105 107 109 111 114 116 118 120 122 124 126 127 127 127 127 127 127 127 127 127 127 127 127 127 127 127 127 127 127 127 127 127 127 127 127 127 127 127 127 127 127 127 127 127 0 0 0 0 0 0 0 0 0 0 0 0 0 0 0 0 0 0 0 0 0 0 0 0 0 0 0 0 0 0 0 0 0 0 0 0 0 0 0 0 0 0 0 0 0 0 0 0 0 0 0 0 0 0 0 0 0 0 0 0 0 127 127 127 127 127 127 127 127 127 127 127 127 127 127 127 127 127 127 127 127 127 127 127 127 127 127 127 127 127 127 127 127 127 127 127 127 133 135 137 139 141 143 146 148 150 152 154 156 158 159 161 163 165 166 168 170 171 173 174 176 178 179 180 182 183 184 185 187 188 189 190 191 192 193 194 195 196 197 198 199 200 201 202 202 201 185 140 129 128 128 128 128 128 128 128 128 128 128 126 123 120 117 114 111 108 105 102 100 97 94 92 89 87 85 82 80 78 76 74 72 70 69 67 65 64 62 61 59 58 57 56 54 53 52 51 50 49 48 47 46 45 44 44 43 42 41 41 40 39 39 38 37 37 36 37 56 117 127 128 128 128 128 129 131 133 135 137 139 141 143 146 148 150 152 154 156 158 159 161 163 165 166 168 170 171 173 174 176 178 179 180 182 183 184 185 187 188 189 190 191 192 193 194 195 196 197 198 199 200 201 202 202 201 185 140 129 128 128 128 128 128 128 128 128 128 128
128 128 128 128 128 128 128 128 128 128 128 104 50 51 52 53 53 54 55 56 57 58 59 59 61 62 63 64 65 66 67 68 70 71 72 74 75 77 78 80 81 83 84 86 88 89 91 93 95 97 99 101 103 105 107 109 111 113 115 117 120 122 124 126 128 128 128 128 128 129 199 218 218 217 217 216 215 215 214 213 212 212 211 210 209 208 208 207 206 205 203 203 202 200 199 198 197 195 194 193 191 190 188 187 185 183 181 180 177 175 174 171 169 167 164 162 160 157 154 152 149 146 144 141 138 135 132 129 128 128 128 128 128 128 128 128 128 128 128 104 50 51 52 53 53 54 55 56 57 58 59 59 61 62 63 64 65 66 67 68 70 71 72 74 75 77 78 80 81 83 84 86 88 89 91 93 95 97 99 101 103 105 107 109 111 113 115 117 120 122 124 126 127 127 127 127 127 127 127 127 127 127 127 127 127 127 127 127 127 127 127 127 127 127 127 127 127 127 127 127 127 127 127 127 127 0 0 0 0 0 0 0 0 0 0 0 0 0 0 0 0 0 0 0 0 0 0 0 0 0 0 0 0 0 0 0 0 0 0 0 0 0 0 0 0 0 0 0 0 0 0 0 0 0 0 0 0 0 0 0 0 0 0 0 0 0 127 127 127 127 127 127 127 127 127 127 127 127 127 127 127 127 127 127 127 127 127 127 127 127 127 127 127 127 127 127 127 127 127 127 127 127 133 135 138 140 142 144 146 148 150 152 154 156 158 160 162 164 166 167 169 171 172 174 176 177 179 180 181 183 184 185 186 188 189 190 191 192 193 194 196 196 197 198 199 200 201 202 203 203 204 201 173 134 128 128 128 128 128 128 128 128 128 128 126 123 120 117 114 112 109 106 103 100 98 95 93 90 88 86 84 81 80 77 75 74 72 70 68 67 65 64 62 61 60 58 57 56 55 54 52 51 50 49 48 48 47 46 45 44 43 43 42 41 40 40 39 39 38 37 44 88 125 128 128 128 128 128 129 131 133 135 138 140 142 144 146 148 150 152 154 156 158 160 162 164 166 167 169 171 172 174 176 177 179 180 181 183 184 185 186 188 189 190 191 192 193 194 196 196 197 198 199 200 201 202 203 203 204 201 173 134 128 128 128 128 128 128 128 128 128 128
128 128 128 128 128 128 128 128 128 128 121 57 49 50 51 51 52 53 54 55 56 57 57 58 59 60 61 63 64 65 66 67 69 70 71 73 74 76 77 79 80 82 83 85 87 88 90 92 94 96 98 100 102 104 106 108 111 113 115 117 120 122 124 126 128 128 128 128 128 128 157 217 216 216 215 215 214 213 213 212 211 210 210 209 208 207 206 205 204 203 202 201 200 199 198 197 195 194 193 191 190 188 187 185 183 182 180 178 176 174 172 170 168 166 163 161 159 156 154 151 148 146 143 140 137 135 132 129 128 128 128 128 128 128 128 128 128 128 121 57 49 50 51 51 52 53 54 55 56 57 57 58 59 60 61 63 64 65 66 67 69 70 71 73 74 76 77 79 80 82 83 85 87 88 90 92 94 96 98 100 102 104 106 108 111 113 115 117 120 122 124 126 127 127 127 127 127 127 127 127 127 127 127 127 127 127 127 127 127 127 127 127 127 127 127 127 127 127 127 127 127 127 127 127 127 0 0 0 0 0 0 0 0 0 0 0 0 0 0 0 0 0 0 0 0 0 0 0 0 0 0 0 0 0 0 0 0 0 0 0 0 0 0 0 0 0 0 0 0 0 0 0 0 0 0 0 0 0 0 0 0 0 0 0 0 0 127 127 127 127 127 127 127 127 127 127 127 127 127 127 127 127 127 127 127 127 127 127 127 127 127 127 127 127 127 127 127 127 127 127 127 127 133 135 138 140 142 144 147 149 151 153 155 157 159 161 163 165 166 168 170 172 173 175 176 178 179 181 182 184 185 187 188 189 190 191 192 193 194 195 197 198 199 199 200 201 202 203 204 205 205 206 200 155 130 128 128 128 128 128 128 128 128 128 126 123 120 118 115 112 109 107 104 101 99 96 94 92 89 87 85 83 81 79 77 75 73 72 70 68 67 65 64 62 61 60 58 57 56 55 54 53 52 51 50 49 48 47 46 45 45 44 43 42 42 41 40 40 39 39 56 115 127 128 128 128 128 128 129 131 133 135 138 140 142 144 147 149 151 153 155 157 159 161 163 165 166 168 170 172 173 175 176 178 179 181 182 184 185 187 188 189 190 191 192 193 194 195 197 198 199 199 200 201 202 203 204 205 205 206 200 155 130 128 128 128 128 128 128 128 128 128
128 128 128 128 128 128 128 128 128 128 79 47 48 49 50 50 51 52 53 54 54 55 56 57 58 59 61 61 63 64 65 66 67 69 70 71 73 74 76 77 79 81 82 84 86 87 89 91 93 95 97 99 101 104 106 108 110 112 115 117 119 122 124 126 128 128 128 128 128 128 129 197 215 215 214 214 213 212 211 211 210 209 208 208 207 206 205 204 203 202 201 200 199 198 196 195 194 192 191 190 188 187 185 184 182 180 179 177 175 173 171 169 167 165 162 160 157 155 153 150 148 145 142 140 137 134 132 129 128 128 128 128 128 128 128 128 128 128 79 47 48 49 50 50 51 52 53 54 54 55 56 57 58 59 61 61 63 64 65 66 67 69 70 71 73 74 76 77 79 81 82 84 86 87 89 91 93 95 97 99 101 104 106 108 110 112 115 117 119 122 124 126 127 127 127 127 127 127 127 127 127 127 127 127 127 127 127 127 127 127 127 127 127 127 127 127 127 127 127 127 127 127 127 127 127 0 0 0 0 0 0 0 0 0 0 0 0 0 0 0 0 0 0 0 0 0 0 0 0 0 0 0 0 0 0 0 0 0 0 0 0 0 0 0 0 0 0 0 0 0 0 0 0 0 0 0 0 0 0 0 0 0 0 0 0 0 127 127 127 127 127 127 127 127 127 127 127 127 127 127 127 127 127 127 127 127 127 127 127 127 127 127 127 127 127 127 127 127 127 127 127 127 133 136 138 140 143 145 147 149 151 154 156 158 160 162 164 166 167 169 171 173 174 176 178 179 181 182 184 185 186 188 188 190 191 192 194 195 196 197 198 199 200 201 201 203 203 204 205 206 206 207 207 191 141 129 128 128 128 128 128 128 128 128 126 124 121 118 115 113 110 107 105 102 100 97 95 93 90 88 86 84 82 80 78 76 75 73 71 70 68 67 65 64 62 61 60 59 57 56 55 54 53 52 51 50 49 49 47 47 46 45 44 44 43 42 42 41 40 46 89 125 128 128 128 128 128 128 129 131 133 136 138 140 143 145 147 149 151 154 156 158 160 162 164 166 167 169 171 173 174 176 178 179 181 182 184 185 186 188 188 190 191 192 194 195 196 197 198 199 200 201 201 203 203 204 205 206 206 207 207 191 141 129 128 128 128 128 128 128 128 128
128 128 128 128 128 128 128 128 128 106 45 46 47 47 48 49 50 51 51 52 53 54 55 56 57 58 59 60 61 63 64 65 66 68 69 70 72 73 75 76 78 79 81 83 85 87 88 90 92 94 96 99 101 103 105 107 110 112 114 117 119 121 124 126 128 128 128 128 128 128 128 152 214 214 213 212 212 211 210 210 209 208 207 206 205 204 203 203 202 201 199 199 197 196 195 194 192 191 190 188 187 185 184 182 181 179 177 175 174 172 170 168 166 164 161 159 157 154 152 150 147 145 142 139 137 134 131 129 128 128 128 128 128 128 128 128 128 106 45 46 47 47 48 49 50 51 51 52 53 54 55 56 57 58 59 60 61 63 64 65 66 68 69 70 72 73 75 76 78 79 81 83 85 87 88 90 92 94 96 99 101 103 105 107 110 112 114 117 119 121 124 126 127 127 127 127 127 127 127 127 127 127 127 127 127 127 127 127 127 127 127 127 127 127 127 127 127 127 127 127 127 127 127 127 127 0 0 0 0 0 0 0 0 0 0 0 0 0 0 0 0 0 0 0 0 0 0 0 0 0 0 0 0 0 0 0 0 0 0 0 0 0 0 0 0 0 0 0 0 0 0 0 0 0 0 0 0 0 0 0 0 0 0 0 0 0 127 127 127 127 127 127 127 127 127 127 127 127 127 127 127 127 127 127 127 127 127 127 127 127 127 127 127 127 127 127 127 127 127 127 127 127 134 136 138 141 143 145 148 150 152 154 157 159 161 163 165 167 168 170 172 174 175 177 179 180 182 183 185 186 187 189 190 191 192 193 195 196 197 198 199 200 201 202 202 203 204 205 206 207 207 208 209 206 174 134 128 128 128 128 128 128 128 128 126 123 121 118 116 113 111 108 105 103 101 98 96 94 91 89 87 85 83 81 79 78 76 74 73 71 69 68 67 65 64 63 61 60 59 58 56 56 54 53 52 52 50 50 49 48 47 46 46 45 44 43 43 42 42 59 116 127 128 128 128 128 128 128 129 131 134 136 138 141 143 145 148 150 152 154 157 159 161 163 165 167 168 170 172 174 175 177 179 180 182 183 185 186 187 189 190 191 192 193 195 196 197 198 199 200 201 202 202 203 204 205 206 207 207 208 209 206 174 134 128 128 128 128 128 128 128 128
128 128 128 128 128 128 128 128 125 57 44 45 46 47 47 48 49 50 50 51 52 53 54 55 56 57 58 59 60 61 63 64 65 66 68 69 71 72 73 75 77 78 80 82 84 86 87 89 91 93 95 98 100 102 105 107 109 111 114 116 119 121 124 126 128 128 128 128 128 128 128 128 189 213 212 211 211 210 209 208 207 207 206 205 204 203 202 201 200 199 198 197 196 195 194 192 191 190 189 187 186 184 183 181 179 178 176 174 172 170 169 167 165 163 160 158 156 154 151 149 146 144 141 139 136 134 131 129 128 128 128 128 128 128 128 128 125 57 44 45 46 47 47 48 49 50 50 51 52 53 54 55 56 57 58 59 60 61 63 64 65 66 68 69 71 72 73 75 77 78 80 82 84 86 87 89 91 93 95 98 100 102 105 107 109 111 114 116 119 121 124 126 127 127 127 127 127 127 127 127 127 127 127 127 127 127 127 127 127 127 127 127 127 127 127 127 127 127 127 127 127 127 127 127 127 0 0 0 0 0 0 0 0 0 0 0 0 0 0 0 0 0 0 0 0 0 0 0 0 0 0 0 0 0 0 0 0 0 0 0 0 0 0 0 0 0 0 0 0 0 0 0 0 0 0 0 0 0 0 0 0 0 0 0 0 0 127 127 127 127 127 127 127 127 127 127 127 127 127 127 127 127 127 127 127 127 127 127 127 127 127 127 127 127 127 127 127 127 127 127 127 127 134 136 139 141 144 146 148 151 153 155 157 160 161 164 166 168 169 171 173 175 176 178 180 182 183 184 186 187 189 190 191 192 194 195 196 197 198 199 200 201 202 203 204 205 206 206 207 208 209 209 210 210 202 151 130 128 128 128 128 128 128 128 126 124 121 118 116 113 111 109 106 104 102 99 97 95 92 90 88 86 84 83 81 79 77 76 74 72 71 69 68 66 65 64 63 61 60 59 58 57 56 55 54 53 52 51 50 49 48 47 47 46 45 45 44 43 50 95 125 128 128 128 128 128 128 128 129 131 134 136 139 141 144 146 148 151 153 155 157 160 161 164 166 168 169 171 173 175 176 178 180 182 183 184 186 187 189 190 191 192 194 195 196 197 198 199 200 201 202 203 204 205 206 206 207 208 209 209 210 210 202 151 130 128 128 128 128 128 128 128
128 128 128 128 128 128 128 128 94 42 43 44 45 45 46 47 47 48 49 50 51 52 53 54 55 56 57 58 59 60 61 63 64 65 66 68 69 71 72 74 76 77 79 81 83 84 86 88 90 92 95 97 99 102 104 106 109 111 113 116 118 121 124 126 128 128 128 128 128 128 128 128 142 208 210 210 209 209 208 207 206 206 205 204 203 202 201 200 199 198 197 196 195 194 192 191 190 189 187 186 184 183 182 180 178 176 175 173 171 169 168 166 164 161 160 157 155 153 151 148 146 144 141 139 136 134 131 129 128 128 128 128 128 128 128 128 94 42 43 44 45 45 46 47 47 48 49 50 51 52 53 54 55 56 57 58 59 60 61 63 64 65 66 68 69 71 72 74 76 77 79 81 83 84 86 88 90 92 95 97 99 102 104 106 109 111 113 116 118 121 124 126 127 127 127 127 127 127 127 127 127 127 127 127 127 127 127 127 127 127 127 127 127 127 127 127 127 127 127 127 127 127 127 127 127 0 0 0 0 0 0 0 0 0 0 0 0 0 0 0 0 0 0 0 0 0 0 0 0 0 0 0 0 0 0 0 0 0 0 0 0 0 0 0 0 0 0 0 0 0 0 0 0 0 0 0 0 0 0 0 0 0 0 0 0 0 127 127 127 127 127 127 127 127 127 127 127 127 127 127 127 127 127 127 127 127 127 127 127 127 127 127 127 127 127 127 127 127 127 127 127 127 134 136 139 141 144 146 149 151 154 156 158 160 163 165 167 169 170 172 174 176 178 179 181 183 184 186 187 189 190 191 192 194 195 196 197 198 199 200 201 202 203 204 205 206 207 207 208 209 210 211 211 212 211 186 136 128 128 128 128 128 128 128 126 124 121 119 116 114 111 109 107 105 102 100 98 95 93 91 89 87 86 84 82 80 78 77 75 73 72 71 69 68 66 65 64 63 61 60 59 58 57 56 55 54 53 52 51 50 50 49 48 47 47 46 45 46 68 120 128 128 128 128 128 128 128 128 129 131 134 136 139 141 144 146 149 151 154 156 158 160 163 165 167 169 170 172 174 176 178 179 181 183 184 186 187 189 190 191 192 194 195 196 197 198 199 200 201 202 203 204 205 206 207 207 208 209 210 211 211 212 211 186 136 128 128 128 128 128 128 128
128 128 128 128 128 128 128 121 44 41 42 43 43 44 45 46 46 47 48 49 50 50 52 52 53 54 56 56 58 59 60 61 63 64 65 67 68 69 71 73 74 76 78 79 81 83 85 87 89 91 94 96 98 101 103 105 108 111 113 116 118 121 123 126 128 128 128 128 128 128 128 128 128 173 210 209 208 207 207 206 205 204 203 202 202 201 200 199 198 197 196 195 193 192 191 190 189 187 186 185 183 182 180 179 177 175 174 172 170 168 167 165 163 161 159 157 154 152 150 148 145 143 141 138 136 134 131 129 128 128 128 128 128 128 128 121 44 41 42 43 43 44 45 46 46 47 48 49 50 50 52 52 53 54 56 56 58 59 60 61 63 64 65 67 68 69 71 73 74 76 78 79 81 83 85 87 89 91 94 96 98 101 103 105 108 111 113 116 118 121 123 126 127 127 127 127 127 127 127 127 127 127 127 127 127 127 127 127 127 127 127 127 127 127 127 127 127 127 127 127 127 127 127 127 127 0 0 0 0 0 0 0 0 0 0 0 0 0 0 0 0 0 0 0 0 0 0 0 0 0 0 0 0 0 0 0 0 0 0 0 0 0 0 0 0 0 0 0 0 0 0 0 0 0 0 0 0 0 0 0 0 0 0 0 0 0 127 127 127 127 127 127 127 127 127 127 127 127 127 127 127 127 127 127 127 127 127 127 127 127 127 127 127 127 127 127 127 127 127 127 127 127 134 137 139 142 145 147 150 152 154 157 159 161 164 166 168 170 172 174 175 177 179 181 182 184 185 187 188 190 191 192 194 195 196 197 199 199 201 202 203 203 204 205 206 207 208 209 210 210 211 212 212 213 214 208 159 131 128 128 128 128 128 128 126 124 121 119 117 114 112 110 107 105 103 101 99 96 94 92 90 88 87 85 83 81 79 78 76 75 73 72 70 69 68 66 65 64 63 61 60 59 58 57 56 55 54 53 52 51 51 50 49 48 47 47 46 56 104 126 128 128 128 128 128 128 128 128 129 131 134 137 139 142 145 147 150 152 154 157 159 161 164 166 168 170 172 174 175 177 179 181 182 184 185 187 188 190 191 192 194 195 196 197 199 199 201 202 203 203 204 205 206 207 208 209 210 210 211 212 212 213 214 208 159 131 128 128 128 128 128 128
128 128 128 128 128 128 128 86 40 40 41 42 42 43 44 44 45 46 47 47 49 49 50 51 52 53 54 55 56 57 59 60 61 62 64 65 67 68 70 71 73 75 76 78 80 82 84 86 88 90 93 95 97 100 102 105 107 110 113 115 118 121 124 126 128 128 128 128 128 128 128 128 128 131 196 208 207 206 206 205 204 203 203 201 201 200 199 198 197 196 195 194 192 191 190 188 188 186 185 184 182 181 179 178 176 174 173 171 169 167 166 164 162 160 158 156 154 151 149 147 145 143 140 138 136 133 131 129 128 128 128 128 128 128 128 86 40 40 41 42 42 43 44 44 45 46 47 47 49 49 50 51 52 53 54 55 56 57 59 60 61 62 64 65 67 68 70 71 73 75 76 78 80 82 84 86 88 90 93 95 97 100 102 105 107 110 113 115 118 121 124 126 127 127 127 127 127 127 127 127 127 127 127 127 127 127 127 127 127 127 127 127 127 127 127 127 127 127 127 127 127 127 127 127 127 0 0 0 0 0 0 0 0 0 0 0 0 0 0 0 0 0 0 0 0 0 0 0 0 0 0 0 0 0 0 0 0 0 0 0 0 0 0 0 0 0 0 0 0 0 0 0 0 0 0 0 0 0 0 0 0 0 0 0 0 0 127 127 127 127 127 127 127 127 127 127 127 127 127 127 127 127 127 127 127 127 127 127 127 127 127 127 127 127 127 127 127 127 127 127 127 127 134 137 140 142 145 148 150 153 155 157 160 162 165 167 169 171 173 175 177 179 180 182 184 185 187 188 190 191 192 194 195 196 198 199 200 201 202 203 204 205 206 207 208 208 209 210 211 211 212 213 214 214 215 213 193 138 128 128 128 128 128 128 126 124 122 119 117 115 112 110 108 106 104 101 99 97 95 93 91 89 87 86 84 82 81 79 77 76 74 73 71 70 69 67 66 65 64 63 61 61 59 58 57 56 55 54 54 53 52 51 50 50 49 48 52 84 124 128 128 128 128 128 128 128 128 128 129 132 134 137 140 142 145 148 150 153 155 157 160 162 165 167 169 171 173 175 177 179 180 182 184 185 187 188 190 191 192 194 195 196 198 199 200 201 202 203 204 205 206 207 208 208 209 210 211 211 212 213 214 214 215 213 193 138 128 128 128 128 128 128
128 128 128 128 128 128 120 41 38 39 40 40 41 42 42 43 44 45 45 46 47 48 49 50 51 52 53 54 55 56 57 58 60 61 62 64 65 67 68 70 72 73 75 77 79 81 83 85 87 89 92 94 96 99 101 104 107 109 112 115 118 120 123 126 128 128 128 128 128 128 128 128 128 128 149 205 206 205 205 204 203 202 201 200 199 199 198 197 195 194 193 192 191 190 189 188 187 185 184 182 181 179 178 176 175 173 172 170 168 166 165 163 161 159 157 155 153 151 149 147 144 142 140 138 135 133 131 129 128 128 128 128 128 128 120 41 38 39 40 40 41 42 42 43 44 45 45 46 47 48 49 50 51 52 53 54 55 56 57 58 60 61 62 64 65 67 68 70 72 73 75 77 79 81 83 85 87 89 92 94 96 99 101 104 107 109 112 115 118 120 123 126 127 127 127 127 127 127 127 127 127 127 127 127 127 127 127 127 127 127 127 127 127 127 127 127 127 127 127 127 127 127 127 127 127 0 0 0 0 0 0 0 0 0 0 0 0 0 0 0 0 0 0 0 0 0 0 0 0 0 0 0 0 0 0 0 0 0 0 0 0 0 0 0 0 0 0 0 0 0 0 0 0 0 0 0 0 0 0 0 0 0 0 0 0 0 127 127 127 127 127 127 127 127 127 127 127 127 127 127 127 127 127 127 127 127 127 127 127 127 127 127 127 127 127 127 127 127 127 127 127 127 135 137 140 143 146 148 151 154 156 159 161 163 166 168 170 172 174 176 178 180 182 183 185 187 188 190 191 193 194 195 197 198 199 200 201 202 203 204 205 206 207 208 209 210 210 211 212 213 213 214 215 215 216 216 212 163 131 128 128 128 128 128 126 124 122 120 117 115 113 111 108 106 104 102 100 98 96 94 92 90 88 87 85 83 82 80 79 77 76 74 73 71 70 69 67 66 65 64 63 61 60 59 58 57 57 56 55 54 53 52 51 51 50 50 68 116 127 128 128 128 128 128 128 128 128 128 129 132 135 137 140 143 146 148 151 154 156 159 161 163 166 168 170 172 174 176 178 180 182 183 185 187 188 190 191 193 194 195 197 198 199 200 201 202 203 204 205 206 207 208 209 210 210 211 212 213 213 214 215 215 216 216 212 163 131 128 128 128 128 128
128 128 128 128 128 128 86 37 37 38 39 39 40 40 41 42 43 43 44 45 46 47 48 48 49 50 51 52 54 55 56 57 58 60 61 62 64 65 67 68 70 72 74 75 77 80 81 84 86 88 90 93 95 98 100 103 106 109 112 114 117 120 123 126 128 128 128 128 128 128 128 128 128 128 128 173 205 204 203 203 202 201 200 199 198 197 196 196 194 193 192 191 190 189 188 186 185 184 183 181 180 179 177 176 174 172 171 169 167 166 164 162 160 158 156 154 152 150 148 146 144 142 140 138 135 133 131 129 128 128 128 128 128 128 86 37 37 38 39 39 40 40 41 42 43 43 44 45 46 47 48 48 49 50 51 52 54 55 56 57 58 60 61 62 64 65 67 68 70 72 74 75 77 80 81 84 86 88 90 93 95 98 100 103 106 109 112 114 117 120 123 126 127 127 127 127 127 127 127 127 127 127 127 127 127 127 127 127 127 127 127 127 127 127 127 127 127 127 127 127 127 127 127 127 127 0 0 0 0 0 0 0 0 0 0 0 0 0 0 0 0 0 0 0 0 0 0 0 0 0 0 0 0 0 0 0 0 0 0 0 0 0 0 0 0 0 0 0 0 0 0 0 0 0 0 0 0 0 0 0 0 0 0 0 0 0 127 127 127 127 127 127 127 127 127 127 127 127 127 127 127 127 127 127 127 127 127 127 127 127 127 127 127 127 127 127 127 127 127 127 127 127 135 138 141 144 146 149 152 154 157 160 162 164 167 169 171 174 175 177 180 181 183 185 187 188 190 191 193 194 195 197 198 199 200 202 203 203 205 206 207 208 208 209 210 211 212 212 213 214 215 215 216 217 217 218 216 195 138 128 128 128 128 128 126 124 122 120 117 115 113 111 109 107 105 103 101 99 97 95 93 91 89 88 86 84 83 81 80 78 77 75 74 72 71 70 68 67 66 65 64 63 62 61 59 59 58 57 56 55 54 53 53 52 51 60 103 126 128 128 128 128 128 128 128 128 128 128 129 132 135 138 141 144 146 149 152 154 157 160 162 164 167 169 171 174 175 177 180 181 183 185 187 188 190 191 193 194 195 197 198 199 200 202 203 203 205 206 207 208 208 209 210 211 212 212 213 214 215 215 216 217 217 218 216 195 138 128 128 128 128 128
128 128 128 128 128 122 39 36 36 37 37 38 39 39 40 41 41 42 43 44 44 45 46 47 48 49 50 51 52 53 54 56 57 58 59 61 62 64 65 67 69 70 72 74 76 78 80 82 85 87 89 92 94 97 100 102 105 108 111 114 117 120 123 126 128 128 128 128 128 128 128 128 128 128 128 131 189 203 202 202 201 200 199 198 197 196 195 194 193 192 191 190 189 188 187 185 184 183 182 180 179 178 176 174 173 171 170 168 166 165 163 161 159 158 156 154 152 150 148 146 143 141 139 137 135 133 131 129 128 128 128 128 128 122 39 36 36 37 37 38 39 39 40 41 41 42 43 44 44 45 46 47 48 49 50 51 52 53 54 56 57 58 59 61 62 64 65 67 69 70 72 74 76 78 80 82 85 87 89 92 94 97 100 102 105 108 111 114 117 120 123 126 127 127 127 127 127 127 127 127 127 127 127 127 127 127 127 127 127 127 127 127 127 127 127 127 127 127 127 127 127 127 127 127 127 0 0 0 0 0 0 0 0 0 0 0 0 0 0 0 0 0 0 0 0 0 0 0 0 0 0 0 0 0 0 0 0 0 0 0 0 0 0 0 0 0 0 0 0 0 0 0 0 0 0 0 0 0 0 0 0 0 0 0 0 0 127 127 127 127 127 127 127 127 127 127 127 127 127 127 127 127 127 127 127 127 127 127 127 127 127 127 127 127 127 127 127 127 127 127 127 127 135 138 141 144 147 150 153 155 158 161 163 166 168 170 173 175 177 179 181 183 185 186 188 190 191 193 194 196 197 198 200 201 202 203 204 205 206 207 208 209 210 211 211 212 213 214 214 215 216 216 217 218 218 219 219 213 160 131 128 128 128 128 126 124 122 120 118 116 114 111 109 107 105 103 101 99 98 96 94 92 91 89 87 85 84 82 81 79 78 76 75 73 72 71 69 68 67 66 65 64 63 62 61 60 59 58 57 56 55 54 54 53 57 89 124 128 128 128 128 128 128 128 128 128 128 128 129 132 135 138 141 144 147 150 153 155 158 161 163 166 168 170 173 175 177 179 181 183 185 186 188 190 191 193 194 196 197 198 200 201 202 203 204 205 206 207 208 209 210 211 211 212 213 214 214 215 216 216 217 218 218 219 219 213 160 131 128 128 128 128
128 128 128 128 128 91 34 35 35 36 36 37 37 38 38 39 40 41 41 42 43 44 45 46 46 47 48 50 51 52 53 54 55 57 58 59 61 62 64 65 67 69 71 73 74 77 79 81 83 86 88 91 93 96 98 101 104 107 110 113 116 120 123 126 128 128 128 128 128 128 128 128 128 128 128 128 141 198 201 201 200 199 198 197 196 195 194 194 192 191 190 189 188 187 186 184 183 182 181 179 178 176 175 173 172 171 169 167 166 164 162 160 159 157 155 153 151 149 147 145 143 141 139 137 135 133 131 129 128 128 128 128 128 91 34 35 35 36 36 37 37 38 38 39 40 41 41 42 43 44 45 46 46 47 48 50 51 52 53 54 55 57 58 59 61 62 64 65 67 69 71 73 74 77 79 81 83 86 88 91 93 96 98 101 104 107 110 113 116 120 123 126 127 127 127 127 127 127 127 127 127 127 127 127 127 127 127 127 127 127 127 127 127 127 127 127 127 127 127 127 127 127 127 127 127 0 0 0 0 0 0 0 0 0 0 0 0 0 0 0 0 0 0 0 0 0 0 0 0 0 0 0 0 0 0 0 0 0 0 0 0 0 0 0 0 0 0 0 0 0 0 0 0 0 0 0 0 0 0 0 0 0 0 0 0 0 127 127 127 127 127 127 127 127 127 127 127 127 127 127 127 127 127 127 127 127 127 127 127 127 127 127 127 127 127 127 127 127 127 127 127 127 136 139 142 145 148 151 154 157 159 162 164 167 169 172 174 176 178 181 183 184 186 188 190 191 193 194 196 197 199 200 201 202 203 204 205 206 208 208 209 210 211 212 213 213 214 215 216 216 217 218 218 219 219 220 221 219 192 136 128 128 128 128 127 124 122 120 118 116 114 112 110 108 106 104 102 100 98 97 95 93 91 89 88 86 85 83 81 80 79 77 76 75 73 72 70 69 68 67 66 65 64 63 62 61 60 59 58 57 56 55 54 56 77 120 128 128 128 128 128 128 128 128 128 128 128 128 129 132 136 139 142 145 148 151 154 157 159 162 164 167 169 172 174 176 178 181 183 184 186 188 190 191 193 194 196 197 199 200 201 202 203 204 205 206 208 208 209 210 211 212 213 213 214 215 216 216 217 218 218 219 219 220 221 219 192 136 128 128 128 128
128 128 128 128 125 48 33 33 34 34 35 35 36 37 37 38 39 39 40 41 42 42 43 44 45 46 47 48 49 50 51 52 54 55 56 58 59 60 62 64 65 67 69 71 73 75 77 79 82 84 86 89 92 95 97 100 104 106 109 113 116 119 122 126 128 128 128 128 128 128 128 128 128 128 128 128 128 154 199 199 199 198 197 196 195 194 193 192 191 190 189 188 187 186 185 183 182 181 180 178 177 175 174 172 171 169 168 166 165 163 161 160 158 156 154 152 151 149 147 145 143 141 139 137 135 133 131 129 128 128 128 128 125 48 33 33 34 34 35 35 36 37 37 38 39 39 40 41 42 42 43 44 45 46 47 48 49 50 51 52 54 55 56 58 59 60 62 64 65 67 69 71 73 75 77 79 82 84 86 89 92 95 97 100 104 106 109 113 116 119 122 126 127 127 127 127 127 127 127 127 127 127 127 127 127 127 127 127 127 127 127 127 127 127 127 127 127 127 127 127 127 127 127 127 127 0 0 0 0 0 0 0 0 0 0 0 0 0 0 0 0 0 0 0 0 0 0 0 0 0 0 0 0 0 0 0 0 0 0 0 0 0 0 0 0 0 0 0 0 0 0 0 0 0 0 0 0 0 0 0 0 0 0 0 0 0 127 127 127 127 127 127 127 127 127 127 127 127 127 127 127 127 127 127 127 127 127 127 127 127 127 127 127 127 127 127 127 127 127 127 127 127 136 139 142 145 149 152 155 157 160 163 166 169 171 173 176 178 180 182 184 186 188 190 191 193 194 196 197 199 200 201 203 204 205 206 207 208 209 210 211 212 213 213 214 215 216 216 217 218 218 219 220 220 221 221 222 222 214 152 130 128 128 128 127 124 122 120 118 116 114 112 110 108 106 105 103 101 99 97 95 94 92 90 89 87 85 84 82 81 80 78 77 75 74 73 72 70 69 68 67 66 65 64 63 62 61 60 59 58 57 56 57 70 114 127 128 128 128 128 128 128 128 128 128 128 128 128 129 133 136 139 142 145 149 152 155 157 160 163 166 169 171 173 176 178 180 182 184 186 188 190 191 193 194 196 197 199 200 201 203 204 205 206 207 208 209 210 211 212 213 213 214 215 216 216 217 218 218 219 220 220 221 221 222 222 214 152 130 128 128 128
128 128 128 128 106 31 31 32 32 33 34 34 35 35 36 37 37 38 39 39 40 41 42 43 44 45 46 46 48 48 50 51 52 53 55 56 57 59 61 62 64 66 67 69 71 73 76 78 80 83 85 88 91 93 96 99 102 106 109 112 116 119 122 126 128 128 128 128 128 128 128 128 128 128 128 128 128 128 167 198 198 197 196 195 194 193 192 191 190 189 188 187 186 185 184 182 181 180 179 177 176 175 173 171 170 169 167 166 164 162 161 159 157 156 154 152 150 148 146 144 142 140 139 137 134 133 130 129 128 128 128 128 106 31 31 32 32 33 34 34 35 35 36 37 37 38 39 39 40 41 42 43 44 45 46 46 48 48 50 51 52 53 55 56 57 59 61 62 64 66 67 69 71 73 76 78 80 83 85 88 91 93 96 99 102 106 109 112 116 119 122 126 127 127 127 127 127 127 127 127 127 127 127 127 127 127 127 127 127 127 127 127 127 127 127 127 127 127 127 127 127 127 127 127 127 0 0 0 0 0 0 0 0 0 0 0 0 0 0 0 0 0 0 0 0 0 0 0 0 0 0 0 0 0 0 0 0 0 0 0 0 0 0 0 0 0 0 0 0 0 0 0 0 0 0 0 0 0 0 0 0 0 0 0 0 0 127 127 127 127 127 127 127 127 127 127 127 127 127 127 127 127 127 127 127 127 127 127 127 127 127 127 127 127 127 127 127 127 127 127 127 127 136 139 143 146 149 153 156 159 161 164 167 170 172 175 177 179 182 184 186 188 189 191 193 194 196 197 199 200 202 203 204 205 207 207 209 209 211 212 212 213 214 215 215 216 217 218 218 219 220 220 221 221 222 222 223 224 221 183 134 128 128 128 127 124 123 121 119 117 115 113 111 109 107 105 103 101 100 98 96 94 93 91 89 88 86 85 83 82 80 79 78 76 75 74 73 71 70 69 68 67 66 65 64 63 62 61 60 59 58 58 67 106 126 128 128 128 128 128 128 128 128 128 128 128 128 128 129 133 136 139 143 146 149 153 156 159 161 164 167 170 172 175 177 179 182 184 186 188 189 191 193 194 196 197 199 200 202 203 204 205 207 207 209 209 211 212 212 213 214 215 215 216 217 218 218 219 220 220 221 221 222 222 223 224 221 183 134 128 128 128
128 128 128 128 67 30 30 31 31 32 32 33 33 34 35 35 36 37 37 38 39 40 40 41 42 43 44 45 46 47 48 49 50 52 53 54 56 57 59 60 62 64 66 68 70 72 74 76 79 81 84 86 89 92 95 98 101 105 108 111 115 119 122 126 128 128 128 128 128 128 128 128 128 128 128 128 128 128 129 176 197 196 195 194 193 192 191 190 189 188 187 186 185 184 183 181 180 179 178 176 175 174 172 171 169 168 166 165 163 162 160 158 156 155 153 151 149 148 146 144 142 140 138 136 134 133 130 129 128 128 128 128 67 30 30 31 31 32 32 33 33 34 35 35 36 37 37 38 39 40 40 41 42 43 44 45 46 47 48 49 50 52 53 54 56 57 59 60 62 64 66 68 70 72 74 76 79 81 84 86 89 92 95 98 101 105 108 111 115 119 122 126 127 127 127 127 127 127 127 127 127 127 127 127 127 127 127 127 127 127 127 127 127 127 127 127 127 127 127 127 127 127 127 127 127 0 0 0 0 0 0 0 0 0 0 0 0 0 0 0 0 0 0 0 0 0 0 0 0 0 0 0 0 0 0 0 0 0 0 0 0 0 0 0 0 0 0 0 0 0 0 0 0 0 0 0 0 0 0 0 0 0 0 0 0 0 127 127 127 127 127 127 127 127 127 127 127 127 127 127 127 127 127 127 127 127 127 127 127 127 127 127 127 127 127 127 127 127 127 127 127 127 136 140 144 147 150 154 157 160 163 166 169 171 174 176 179 181 183 185 187 189 191 193 195 196 198 199 201 202 203 205 206 207 208 209 210 211 212 213 214 215 216 216 217 218 218 219 220 220 221 222 222 223 223 224 224 225 224 209 141 128 128 128 127 125 123 121 119 117 115 113 111 109 107 105 104 102 100 98 97 95 93 92 90 89 87 86 84 83 81 80 79 77 76 75 74 73 71 70 69 68 67 66 65 64 63 62 61 60 59 65 98 125 128 128 128 128 128 128 128 128 128 128 128 128 128 128 129 133 136 140 144 147 150 154 157 160 163 166 169 171 174 176 179 181 183 185 187 189 191 193 195 196 198 199 201 202 203 205 206 207 208 209 210 211 212 213 214 215 216 216 217 218 218 219 220 220 221 222 222 223 223 224 224 225 224 209 141 128 128 128
128 128 128 121 31 29 29 30 30 30 31 31 32 33 33 34 35 35 36 37 37 38 39 40 40 41 42 43 44 45 46 48 49 50 51 52 54 55 57 59 60 62 64 66 68 70 72 74 77 79 82 85 88 91 94 97 100 104 107 111 114 118 122 126 128 128 128 128 128 128 128 128 128 128 128 128 128 128 128 131 180 195 194 193 192 191 190 189 188 187 186 185 184 183 182 180 179 178 177 175 174 173 171 170 169 167 165 164 162 161 159 158 156 154 153 151 149 147 145 143 142 140 138 136 134 132 130 128 128 128 128 121 31 29 29 30 30 30 31 31 32 33 33 34 35 35 36 37 37 38 39 40 40 41 42 43 44 45 46 48 49 50 51 52 54 55 57 59 60 62 64 66 68 70 72 74 77 79 82 85 88 91 94 97 100 104 107 111 114 118 122 126 127 127 127 127 127 127 127 127 127 127 127 127 127 127 127 127 127 127 127 127 127 127 127 127 127 127 127 127 127 127 127 127 127 0 0 0 0 0 0 0 0 0 0 0 0 0 0 0 0 0 0 0 0 0 0 0 0 0 0 0 0 0 0 0 0 0 0 0 0 0 0 0 0 0 0 0 0 0 0 0 0 0 0 0 0 0 0 0 0 0 0 0 0 0 127 127 127 127 127 127 127 127 127 127 127 127 127 127 127 127 127 127 127 127 127 127 127 127 127 127 127 127 127 127 127 127 127 127 127 127 137 141 144 148 151 155 158 161 164 167 170 173 176 178 181 183 185 187 189 191 193 195 196 198 200 201 203 204 205 206 208 209 210 211 212 213 214 215 215 216 217 218 219 219 220 220 221 222 222 223 223 224 224 225 226 226 227 221 164 131 128 128 127 125 123 121 119 117 115 113 112 110 108 106 104 102 101 99 98 96 94 93 91 89 88 87 85 84 82 81 80 78 77 76 74 73 72 71 70 69 68 67 66 65 64 63 62 61 66 95 124 128 128 128 128 128 128 128 128 128 128 128 128 128 128 128 129 133 137 141 144 148 151 155 158 161 164 167 170 173 176 178 181 183 185 187 189 191 193 195 196 198 200 201 203 204 205 206 208 209 210 211 212 213 214 215 215 216 217 218 219 219 220 220 221 222 222 223 223 224 224 225 226 226 227 221 164 131 128 128
128 128 128 96 27 27 28 28 28 29 30 30 31 31 32 32 33 34 34 35 36 36 37 38 39 40 41 42 43 44 45 46 47 48 49 51 52 53 55 57 58 60 62 64 66 68 70 73 75 78 80 83 86 89 92 96 99 103 106 110 114 118 122 126 128 128 128 128 128 128 128 128 128 128 128 128 128 128 128 128 134 183 193 192 191 190 189 188 187 186 185 184 183 182 181 180 178 177 176 175 173 172 170 169 168 166 165 163 162 160 159 157 155 154 152 150 148 147 145 143 141 140 138 136 134 132 130 129 128 128 128 96 27 27 28 28 28 29 30 30 31 31 32 32 33 34 34 35 36 36 37 38 39 40 41 42 43 44 45 46 47 48 49 51 52 53 55 57 58 60 62 64 66 68 70 73 75 78 80 83 86 89 92 96 99 103 106 110 114 118 122 126 127 127 127 127 127 127 127 127 127 127 127 127 127 127 127 127 127 127 127 127 127 127 127 127 127 127 127 127 127 127 127 127 127 0 0 0 0 0 0 0 0 0 0 0 0 0 0 0 0 0 0 0 0 0 0 0 0 0 0 0 0 0 0 0 0 0 0 0 0 0 0 0 0 0 0 0 0 0 0 0 0 0 0 0 0 0 0 0 0 0 0 0 0 0 127 127 127 127 127 127 127 127 127 127 127 127 127 127 127 127 127 127 127 127 127 127 127 127 127 127 127 127 127 127 127 127 127 127 127 127 137 141 145 149 152 156 159 163 166 169 172 175 177 180 182 185 187 189 191 193 195 197 199 200 202 203 204 206 207 208 209 210 211 213 213 214 215 216 217 218 219 219 220 221 221 222 222 223 224 224 225 225 226 226 227 227 228 225 193 135 128 128 127 125 123 121 119 117 115 114 112 110 108 107 105 103 101 100 98 96 95 93 92 90 89 87 86 84 83 82 80 79 78 77 76 74 73 72 71 70 69 68 67 66 64 64 63 66 91 122 128 128 128 128 128 128 128 128 128 128 128 128 128 128 128 128 129 134 137 141 145 149 152 156 159 163 166 169 172 175 177 180 182 185 187 189 191 193 195 197 199 200 202 203 204 206 207 208 209 210 211 213 213 214 215 216 217 218 219 219 220 221 221 222 222 223 224 224 225 225 226 226 227 227 228 225 193 135 128 128
128 128 128 62 26 26 27 27 27 28 28 29 29 30 31 31 32 32 33 33 34 35 36 36 37 38 39 40 41 42 43 44 45 46 47 49 50 52 53 55 56 58 60 62 64 66 68 70 73 76 78 81 84 88 91 94 98 102 105 109 113 117 121 125 128 128 128 128 128 128 128 128 128 128 128 128 128 128 128 128 128 136 183 191 190 189 188 187 186 185 184 183 182 181 180 179 177 176 175 174 172 171 170 168 167 165 164 163 161 160 158 156 155 153 151 150 148 146 145 143 141 139 138 136 134 132 130 128 128 128 128 62 26 26 27 27 27 28 28 29 29 30 31 31 32 32 33 33 34 35 36 36 37 38 39 40 41 42 43 44 45 46 47 49 50 52 53 55 56 58 60 62 64 66 68 70 73 76 78 81 84 88 91 94 98 102 105 109 113 117 121 125 127 127 127 127 127 127 127 127 127 127 127 127 127 127 127 127 127 127 127 127 127 127 127 127 127 127 127 127 127 127 127 127 127 0 0 0 0 0 0 0 0 0 0 0 0 0 0 0 0 0 0 0 0 0 0 0 0 0 0 0 0 0 0 0 0 0 0 0 0 0 0 0 0 0 0 0 0 0 0 0 0 0 0 0 0 0 0 0 0 0 0 0 0 0 127 127 127 127 127 127 127 127 127 127 127 127 127 127 127 127 127 127 127 127 127 127 127 127 127 127 127 127 127 127 127 127 127 127 127 127 138 142 146 150 154 157 161 164 168 171 174 177 180 182 184 187 189 191 193 195 197 199 200 202 204 205 206 208 209 210 211 212 213 214 215 216 217 218 219 219 220 221 221 222 223 223 224 224 225 226 226 227 227 228 228 229 229 228 215 143 128 128 126 125 123 121 119 117 116 114 112 110 109 107 105 104 102 100 99 97 95 94 93 91 89 88 87 85 84 83 81 80 79 78 76 75 74 73 72 71 70 68 68 67 66 65 68 88 121 127 128 128 128 128 128 128 128 128 128 128 128 128 128 128 128 128 130 134 138 142 146 150 154 157 161 164 168 171 174 177 180 182 184 187 189 191 193 195 197 199 200 202 204 205 206 208 209 210 211 212 213 214 215 216 217 218 219 219 220 221 221 222 223 223 224 224 225 226 226 227 227 228 228 229 229 228 215 143 128 128
128 128 121 28 24 25 25 26 26 27 27 28 28 28 29 29 30 31 31 32 33 33 34 35 36 36 37 38 39 40 41 42 43 44 46 47 48 49 51 52 54 56 58 60 62 64 66 68 71 74 76 79 82 86 89 92 96 100 104 108 112 117 121 125 128 128 128 128 128 128 128 128 128 128 128 128 128 128 128 128 128 128 136 182 190 188 187 187 185 184 183 182 181 180 179 178 177 175 174 173 172 170 169 168 166 165 163 162 160 159 157 156 154 152 151 149 147 146 144 142 141 139 137 135 134 132 130 129 128 128 121 28 24 25 25 26 26 27 27 28 28 28 29 29 30 31 31 32 33 33 34 35 36 36 37 38 39 40 41 42 43 44 46 47 48 49 51 52 54 56 58 60 62 64 66 68 71 74 76 79 82 86 89 92 96 100 104 108 112 117 121 125 127 127 127 127 127 127 127 127 127 127 127 127 127 127 127 127 127 127 127 127 127 127 127 127 127 127 127 127 127 127 127 127 127 0 0 0 0 0 0 0 0 0 0 0 0 0 0 0 0 0 0 0 0 0 0 0 0 0 0 0 0 0 0 0 0 0 0 0 0 0 0 0 0 0 0 0 0 0 0 0 0 0 0 0 0 0 0 0 0 0 0 0 0 0 127 127 127 127 127 127 127 127 127 127 127 127 127 127 127 127 127 127 127 127 127 127 127 127 127 127 127 127 127 127 127 127 127 127 127 127 139 143 147 151 155 159 163 166 169 173 176 179 182 184 187 189 191 193 196 197 199 201 202 204 205 207 208 209 211 212 213 214 215 216 217 218 219 220 220 221 222 222 223 224 224 225 225 226 227 227 227 228 229 229 229 230 230 231 225 164 131 128 127 125 123 121 120 118 116 114 113 111 109 107 106 104 102 101 99 98 96 95 93 92 90 89 87 86 85 83 82 81 80 78 77 76 75 74 73 72 71 70 68 68 66 70 89 120 127 128 128 128 128 128 128 128 128 128 128 128 128 128 128 128 128 128 130 134 139 143 147 151 155 159 163 166 169 173 176 179 182 184 187 189 191 193 196 197 199 201 202 204 205 207 208 209 211 212 213 214 215 216 217 218 219 220 220 221 222 222 223 224 224 225 225 226 227 227 227 228 229 229 229 230 230 231 225 164 131 128
128 128 102 23 23 24 24 24 25 25 26 26 27 27 28 28 29 29 30 30 31 32 32 33 34 35 35 36 37 38 39 40 41 42 44 45 46 47 49 50 52 54 55 57 59 62 64 66 69 71 74 77 80 84 87 91 95 99 103 107 112 116 120 125 128 128 128 128 128 128 128 128 128 128 128 128 128 128 128 128 128 128 128 135 178 188 187 186 185 184 183 182 180 179 178 177 176 175 173 172 171 169 168 167 166 164 163 161 160 158 157 155 154 152 150 149 147 146 144 142 140 139 137 135 133 132 130 128 128 128 102 23 23 24 24 24 25 25 26 26 27 27 28 28 29 29 30 30 31 32 32 33 34 35 35 36 37 38 39 40 41 42 44 45 46 47 49 50 52 54 55 57 59 62 64 66 69 71 74 77 80 84 87 91 95 99 103 107 112 116 120 125 127 127 127 127 127 127 127 127 127 127 127 127 127 127 127 127 127 127 127 127 127 127 127 127 127 127 127 127 127 127 127 127 127 0 0 0 0 0 0 0 0 0 0 0 0 0 0 0 0 0 0 0 0 0 0 0 0 0 0 0 0 0 0 0 0 0 0 0 0 0 0 0 0 0 0 0 0 0 0 0 0 0 0 0 0 0 0 0 0 0 0 0 0 0 127 127 127 127 127 127 127 127 127 127 127 127 127 127 127 127 127 127 127 127 127 127 127 127 127 127 127 127 127 127 127 127 127 127 127 127 139 144 148 152 156 160 164 168 172 175 178 181 184 186 189 191 193 196 198 200 201 203 205 206 208 209 210 212 213 214 215 216 217 218 219 220 220 221 222 223 223 224 225 225 226 226 227 228 228 229 229 229 230 230 231 231 231 232 229 191 135 128 127 125 123 121 120 118 116 114 113 111 110 108 106 105 103 101 100 98 97 95 94 92 91 90 88 87 86 84 83 82 80 79 78 77 75 74 73 72 71 70 69 68 72 93 121 127 128 128 128 128 128 128 128 128 128 128 128 128 128 128 128 128 128 128 130 134 139 144 148 152 156 160 164 168 172 175 178 181 184 186 189 191 193 196 198 200 201 203 205 206 208 209 210 212 213 214 215 216 217 218 219 220 220 221 222 223 223 224 225 225 226 226 227 228 228 229 229 229 230 230 231 231 231 232 229 191 135 128
128 128 77 22 22 22 23 23 23 24 24 25 25 25 26 27 27 28 28 29 29 30 31 32 32 33 34 35 35 36 37 38 39 40 41 43 44 45 47 48 50 51 53 55 57 59 61 64 66 69 72 75 78 82 85 89 93 97 101 106 110 115 120 125 128 128 128 128 128 128 128 128 128 128 128 128 128 128 128 128 128 128 128 128 133 173 186 185 184 183 182 181 180 179 177 176 175 174 173 171 170 169 167 166 165 163 162 161 159 158 156 155 153 152 150 148 147 145 144 142 140 138 137 135 133 132 130 128 128 128 77 22 22 22 23 23 23 24 24 25 25 25 26 27 27 28 28 29 29 30 31 32 32 33 34 35 35 36 37 38 39 40 41 43 44 45 47 48 50 51 53 55 57 59 61 64 66 69 72 75 78 82 85 89 93 97 101 106 110 115 120 125 127 127 127 127 127 127 127 127 127 127 127 127 127 127 127 127 127 127 127 127 127 127 127 127 127 127 127 127 127 127 127 127 127 0 0 0 0 0 0 0 0 0 0 0 0 0 0 0 0 0 0 0 0 0 0 0 0 0 0 0 0 0 0 0 0 0 0 0 0 0 0 0 0 0 0 0 0 0 0 0 0 0 0 0 0 0 0 0 0 0 0 0 0 0 127 127 127 127 127 127 127 127 127 127 127 127 127 127 127 127 127 127 127 127 127 127 127 127 127 127 127 127 127 127 127 127 127 127 127 127 140 144 149 154 158 162 166 170 173 177 180 183 186 189 191 194 196 198 200 202 204 205 207 209 210 211 212 214 215 216 217 218 219 220 221 221 222 223 224 224 225 226 226 227 227 228 228 229 229 230 230 231 231 231 232 232 232 233 232 212 140 128 127 125 123 122 120 118 117 115 113 112 110 108 107 105 103 102 100 99 97 96 94 93 92 90 89 88 86 85 84 82 81 80 79 77 76 75 74 73 72 71 70 75 98 123 128 128 128 128 128 128 128 128 128 128 128 128 128 128 128 128 128 128 128 128 130 135 140 144 149 154 158 162 166 170 173 177 180 183 186 189 191 194 196 198 200 202 204 205 207 209 210 211 212 214 215 216 217 218 219 220 221 221 222 223 224 224 225 226 226 227 227 228 228 229 229 230 230 231 231 231 232 232 232 233 232 212 140 128
128 129 34 20 21 21 21 22 22 22 23 23 24 24 25 25 25 26 27 27 28 28 29 29 30 31 32 33 34 34 35 36 37 38 39 40 42 43 44 46 47 49 51 53 55 56 59 61 64 66 69 72 76 79 83 87 91 95 100 104 109 115 120 125 128 128 128 128 128 128 128 128 128 128 128 128 128 128 128 128 128 128 128 128 128 131 167 184 183 182 181 180 179 178 177 175 174 173 172 171 169 168 167 165 164 163 161 160 159 157 156 154 153 151 150 148 146 145 143 142 140 138 137 135 133 131 130 128 128 129 34 20 21 21 21 22 22 22 23 23 24 24 25 25 25 26 27 27 28 28 29 29 30 31 32 33 34 34 35 36 37 38 39 40 42 43 44 46 47 49 51 53 55 56 59 61 64 66 69 72 76 79 83 87 91 95 100 104 109 115 120 125 127 127 127 127 127 127 127 127 127 127 127 127 127 127 127 127 127 127 127 127 127 127 127 127 127 127 127 127 127 127 127 127 127 0 0 0 0 0 0 0 0 0 0 0 0 0 0 0 0 0 0 0 0 0 0 0 0 0 0 0 0 0 0 0 0 0 0 0 0 0 0 0 0 0 0 0 0 0 0 0 0 0 0 0 0 0 0 0 0 0 0 0 0 0 127 127 127 127 127 127 127 127 127 127 127 127 127 127 127 127 127 127 127 127 127 127 127 127 127 127 127 127 127 127 127 127 127 127 127 127 140 146 151 155 160 164 168 172 176 179 183 186 189 191 194 196 198 200 202 204 206 208 209 211 212 213 214 216 217 218 219 220 221 222 222 223 224 225 225 226 227 227 228 228 229 229 230 230 231 231 232 232 232 233 233 234 234 234 235 226 151 129 127 125 123 122 120 118 117 115 114 112 110 109 107 105 104 102 101 99 98 96 95 94 92 91 89 88 87 86 84 83 82 81 80 79 77 76 75 74 73 73 78 102 124 128 128 128 128 128 128 128 128 128 128 128 128 128 128 128 128 128 128 128 128 128 130 135 140 146 151 155 160 164 168 172 176 179 183 186 189 191 194 196 198 200 202 204 206 208 209 211 212 213 214 216 217 218 219 220 221 222 222 223 224 225 225 226 227 227 228 228 229 229 230 230 231 231 232 232 232 233 233 234 234 234 235 226 151 129
128 116 20 19 20 20 20 20 21 21 21 22 22 23 23 24 24 25 25 26 26 27 27 28 29 29 30 31 32 32 33 34 35 36 37 38 39 41 42 44 45 46 48 50 52 54 56 59 61 64 67 70 73 77 80 85 89 93 98 103 108 114 119 125 128 128 128 128 128 128 128 128 128 128 128 128 128 128 128 128 128 128 128 128 128 128 129 157 181 181 180 179 178 177 176 175 174 172 171 170 169 167 166 165 164 162 161 159 158 156 155 154 152 151 149 148 146 144 143 141 140 138 137 135 133 132 130 128 128 116 20 19 20 20 20 20 21 21 21 22 22 23 23 24 24 25 25 26 26 27 27 28 29 29 30 31 32 32 33 34 35 36 37 38 39 41 42 44 45 46 48 50 52 54 56 59 61 64 67 70 73 77 80 85 89 93 98 103 108 114 119 125 127 127 127 127 127 127 127 127 127 127 127 127 127 127 127 127 127 127 127 127 127 127 127 127 127 127 127 127 127 127 127 127 127 0 0 0 0 0 0 0 0 0 0 0 0 0 0 0 0 0 0 0 0 0 0 0 0 0 0 0 0 0 0 0 0 0 0 0 0 0 0 0 0 0 0 0 0 0 0 0 0 0 0 0 0 0 0 0 0 0 0 0 0 0 127 127 127 127 127 127 127 127 127 127 127 127 127 127 127 127 127 127 127 127 127 127 127 127 127 127 127 127 127 127 127 127 127 127 127 127 141 147 152 157 162 166 170 174 178 182 185 188 191 194 197 199 201 203 205 207 209 210 212 213 214 216 217 218 219 220 221 222 223 224 224 225 226 226 227 228 228 229 229 230 231 231 231 232 232 233 233 234 234 234 235 235 235 236 236 231 173 132 127 125 123 122 120 119 117 115 114 112 110 109 107 106 104 103 101 100 99 97 96 94 93 91 90 89 88 86 85 84 83 81 80 79 78 77 76 75 75 82 109 125 128 128 128 128 128 128 128 128 128 128 128 128 128 128 128 128 128 128 128 128 128 128 130 136 141 147 152 157 162 166 170 174 178 182 185 188 191 194 197 199 201 203 205 207 209 210 212 213 214 216 217 218 219 220 221 222 223 224 224 225 226 226 227 228 228 229 229 230 231 231 231 232 232 233 233 234 234 234 235 235 235 236 236 231 173 132
128 100 18 18 18 18 19 19 19 20 20 21 21 21 22 22 22 23 23 24 24 25 26 26 27 28 28 29 30 30 31 32 33 34 35 36 37 38 40 41 42 44 45 47 49 51 53 56 58 61 63 67 70 74 78 82 86 91 96 101 107 113 119 125 128 128 128 128 128 128 128 128 128 128 128 128 128 128 128 128 128 128 128 128 128 128 128 128 146 177 179 178 177 176 175 174 173 172 171 169 168 167 166 164 163 161 160 159 157 156 155 153 152 150 149 147 145 144 143 141 140 138 136 135 133 132 130 128 128 100 18 18 18 18 19 19 19 20 20 21 21 21 22 22 22 23 23 24 24 25 26 26 27 28 28 29 30 30 31 32 33 34 35 36 37 38 40 41 42 44 45 47 49 51 53 56 58 61 63 67 70 74 78 82 86 91 96 101 107 113 119 125 127 127 127 127 127 127 127 127 127 127 127 127 127 127 127 127 127 127 127 127 127 127 127 127 127 127 127 127 127 127 127 127 127 0 0 0 0 0 0 0 0 0 0 0 0 0 0 0 0 0 0 0 0 0 0 0 0 0 0 0 0 0 0 0 0 0 0 0 0 0 0 0 0 0 0 0 0 0 0 0 0 0 0 0 0 0 0 0 0 0 0 0 0 0 127 127 127 127 127 127 127 127 127 127 127 127 127 127 127 127 127 127 127 127 127 127 127 127 127 127 127 127 127 127 127 127 127 127 127 127 142 148 154 159 164 169 173 177 181 185 188 191 194 197 199 202 204 206 208 210 211 213 214 216 217 218 219 220 221 222 223 224 225 226 226 227 228 228 229 229 230 231 231 231 232 232 233 233 234 234 234 235 235 236 236 236 237 237 237 234 194 135 127 125 123 122 120 119 117 115 114 112 111 110 108 106 105 103 102 100 99 98 96 95 93 92 91 90 88 87 86 85 84 82 81 80 79 78 77 78 89 116 126 128 128 128 128 128 128 128 128 128 128 128 128 128 128 128 128 128 128 128 128 128 128 128 131 137 142 148 154 159 164 169 173 177 181 185 188 191 194 197 199 202 204 206 208 210 211 213 214 216 217 218 219 220 221 222 223 224 225 226 226 227 228 228 229 229 230 231 231 231 232 232 233 233 234 234 234 235 235 236 236 236 237 237 237 234 194 136
128 81 16 16 17 17 17 18 18 18 19 19 19 20 20 20 21 21 22 22 23 23 24 24 25 25 26 27 28 28 29 30 31 31 33 34 35 36 37 38 40 41 43 44 46 48 51 53 55 58 61 64 67 71 75 79 84 89 94 99 105 111 118 124 128 128 128 128 128 128 128 128 128 128 128 128 128 128 128 128 128 128 128 128 128 128 128 128 128 136 168 178 176 175 174 173 172 171 170 169 167 166 165 164 162 161 160 158 157 156 154 153 151 150 148 147 145 144 142 141 139 138 136 135 133 131 130 128 128 81 16 16 17 17 17 18 18 18 19 19 19 20 20 20 21 21 22 22 23 23 24 24 25 25 26 27 28 28 29 30 31 31 33 34 35 36 37 38 40 41 43 44 46 48 51 53 55 58 61 64 67 71 75 79 84 89 94 99 105 111 118 124 127 127 127 127 127 127 127 127 127 127 127 127 127 127 127 127 127 127 127 127 127 127 127 127 127 127 127 127 127 127 127 127 127 0 0 0 0 0 0 0 0 0 0 0 0 0 0 0 0 0 0 0 0 0 0 0 0 0 0 0 0 0 0 0 0 0 0 0 0 0 0 0 0 0 0 0 0 0 0 0 0 0 0 0 0 0 0 0 0 0 0 0 0 0 127 127 127 127 127 127 127 127 127 127 127 127 127 127 127 127 127 127 127 127 127 127 127 127 127 127 127 127 127 127 127 127 127 127 127 127 144 150 156 161 166 171 176 180 184 188 191 195 197 200 202 205 207 209 211 212 214 215 217 218 219 220 221 222 223 224 225 226 227 228 228 229 229 230 231 231 232 232 233 233 234 234 235 235 235 236 236 236 237 237 237 238 238 238 238 237 212 138 127 125 123 122 120 119 117 116 114 113 111 110 108 107 105 104 102 101 100 98 97 95 94 93 91 90 89 88 87 85 84 83 82 81 80 79 82 98 121 127 128 128 128 128 128 128 128 128 128 128 128 128 128 128 128 128 128 128 128 128 128 128 128 128 131 137 144 150 156 161 166 171 176 180 184 188 191 195 197 200 202 205 207 209 211 212 214 215 217 218 219 220 221 222 223 224 225 226 227 228 228 229 229 230 231 231 232 232 233 233 234 234 235 235 235 236 236 236 237 237 237 238 238 238 238 237 212 139
128 63 15 15 15 16 16 16 17 17 17 18 18 18 18 19 19 20 20 20 21 22 22 23 23 24 24 25 25 26 27 28 29 29 30 31 32 33 34 36 37 38 40 42 43 45 47 49 52 54 57 60 64 67 72 76 81 86 91 97 104 110 117 124 128 128 128 128 128 128 128 128 128 128 128 128 128 128 128 128 128 128 128 128 128 128 128 128 128 128 130 155 175 175 173 173 171 170 169 168 167 165 164 163 162 160 159 158 156 155 154 152 151 149 148 146 145 144 142 140 139 138 136 135 133 131 130 128 128 63 15 15 15 16 16 16 17 17 17 18 18 18 18 19 19 20 20 20 21 22 22 23 23 24 24 25 25 26 27 28 29 29 30 31 32 33 34 36 37 38 40 42 43 45 47 49 52 54 57 60 64 67 72 76 81 86 91 97 104 110 117 124 127 127 127 127 127 127 127 127 127 127 127 127 127 127 127 127 127 127 127 127 127 127 127 127 127 127 127 127 127 127 127 127 127 0 0 0 0 0 0 0 0 0 0 0 0 0 0 0 0 0 0 0 0 0 0 0 0 0 0 0 0 0 0 0 0 0 0 0 0 0 0 0 0 0 0 0 0 0 0 0 0 0 0 0 0 0 0 0 0 0 0 0 0 0 127 127 127 127 127 127 127 127 127 127 127 127 127 127 127 127 127 127 127 127 127 127 127 127 127 127 127 127 127 127 127 127 127 127 127 127 145 152 158 164 169 174 179 183 187 191 195 198 201 203 205 208 210 212 213 215 217 218 219 220 222 223 224 225 226 227 227 228 229 229 230 231 231 232 233 233 234 234 234 235 235 236 236 237 237 237 238 238 238 238 239 239 239 239 240 239 226 143 127 125 124 122 120 119 117 116 115 113 111 110 109 107 106 104 103 101 100 99 97 96 95 93 92 91 89 88 87 86 85 84 83 81 82 88 109 125 128 128 128 128 128 128 128 128 128 128 128 128 128 128 128 128 128 128 128 128 128 128 128 128 128 128 131 138 145 152 158 164 169 174 179 183 187 191 195 198 201 203 205 208 210 212 213 215 217 218 219 220 222 223 224 225 226 227 227 228 229 229 230 231 231 232 233 233 234 234 234 235 235 236 236 237 237 237 238 238 238 238 239 239 239 239 240 239 226 145
130 25 14 14 14 14 15 15 15 16 16 16 16 17 17 17 18 18 19 19 19 20 20 20 21 22 22 23 23 24 25 25 26 27 28 29 30 31 32 33 34 36 37 39 40 42 44 46 48 51 54 57 60 64 68 72 77 83 88 95 101 109 116 124 128 128 128 128 128 128 128 128 128 128 128 128 128 128 128 128 128 128 128 128 128 128 128 128 128 128 128 128 140 166 173 172 171 170 168 167 166 165 164 162 161 160 159 157 156 155 153 152 150 149 148 146 145 143 142 140 139 137 136 134 133 131 130 128 130 25 14 14 14 14 15 15 15 16 16 16 16 17 17 17 18 18 19 19 19 20 20 20 21 22 22 23 23 24 25 25 26 27 28 29 30 31 32 33 34 36 37 39 40 42 44 46 48 51 54 57 60 64 68 72 77 83 88 95 101 109 116 124 127 127 127 127 127 127 127 127 127 127 127 127 127 127 127 127 127 127 127 127 127 127 127 127 127 127 127 127 127 127 127 127 127 0 0 0 0 0 0 0 0 0 0 0 0 0 0 0 0 0 0 0 0 0 0 0 0 0 0 0 0 0 0 0 0 0 0 0 0 0 0 0 0 0 0 0 0 0 0 0 0 0 0 0 0 0 0 0 0 0 0 0 0 0 127 127 127 127 127 127 127 127 127 127 127 127 127 127 127 127 127 127 127 127 127 127 127 127 127 127 127 127 127 127 127 127 127 127 127 127 147 154 160 167 173 178 183 187 191 195 198 201 204 207 209 211 213 215 217 218 220 221 222 223 224 225 226 227 228 229 230 230 231 232 232 233 233 234 234 235 235 236 236 237 237 237 238 238 238 239 239 239 240 240 240 240 241 241 241 241 234 154 128 125 124 122 121 119 118 116 115 113 112 110 109 108 106 105 103 102 100 99 98 96 95 94 92 91 90 89 88 87 86 84 84 86 98 119 126 128 128 128 128 128 128 128 128 128 128 128 128 128 128 128 128 128 128 128 128 128 128 128 128 128 128 128 132 139 147 154 160 167 173 178 183 187 191 195 198 201 204 207 209 211 213 215 217 218 220 221 222 223 224 225 226 227 228 229 230 230 231 232 232 233 233 234 234 235 235 236 236 237 237 237 238 238 238 239 239 239 240 240 240 240 241 241 241 241 234 157
116 14 12 13 13 13 13 14 14 14 14 15 15 15 16 16 16 16 17 17 17 18 18 19 19 19 20 21 21 22 22 23 24 24 25 26 27 28 29 30 31 32 34 35 37 39 40 42 45 47 50 53 56 60 64 68 73 79 85 92 99 106 115 123 128 128 128 128 128 128 128 128 128 128 128 128 128 128 128 128 128 128 128 128 128 128 128 128 128 128 128 128 128 130 151 169 170 169 168 167 165 164 163 162 161 159 158 157 155 154 153 151 150 149 147 146 145 143 142 140 139 137 136 134 133 131 130 128 116 14 12 13 13 13 13 14 14 14 14 15 15 15 16 16 16 16 17 17 17 18 18 19 19 19 20 21 21 22 22 23 24 24 25 26 27 28 29 30 31 32 34 35 37 39 40 42 45 47 50 53 56 60 64 68 73 79 85 92 99 106 115 123 127 127 127 127 127 127 127 127 127 127 127 127 127 127 127 127 127 127 127 127 127 127 127 127 127 127 127 127 127 127 127 127 127 0 0 0 0 0 0 0 0 0 0 0 0 0 0 0 0 0 0 0 0 0 0 0 0 0 0 0 0 0 0 0 0 0 0 0 0 0 0 0 0 0 0 0 0 0 0 0 0 0 0 0 0 0 0 0 0 0 0 0 0 0 127 127 127 127 127 127 127 127 127 127 127 127 127 127 127 127 127 127 127 127 127 127 127 127 127 127 127 127 127 127 127 127 127 127 127 127 148 156 163 170 176 182 187 191 195 199 202 205 208 210 213 215 216 218 220 221 222 224 225 226 227 228 229 230 231 231 232 233 233 234 234 235 236 236 236 237 237 238 238 238 239 239 239 240 240 240 241 241 241 241 241 242 242 242 242 243 238 172 131 125 124 122 121 119 118 116 115 113 112 111 109 108 106 105 104 102 101 100 98 97 96 94 93 92 91 90 89 87 86 87 93 111 125 127 128 128 128 128 128 128 128 128 128 128 128 128 128 128 128 128 128 128 128 128 128 128 128 128 128 128 128 128 132 140 148 156 163 170 176 182 187 191 195 199 202 205 208 210 213 215 216 218 220 221 222 224 225 226 227 228 229 230 231 231 232 233 233 234 234 235 236 236 236 237 237 238 238 238 239 239 239 240 240 240 241 241 241 241 241 242 242 242 242 243 238 176
114 11 11 12 12 12 12 12 12 13 13 13 13 14 14 14 14 15 15 15 16 16 17 17 17 18 18 19 19 20 20 21 22 22 23 24 24 25 26 27 28 29 31 32 33 35 37 39 41 43 46 48 52 55 59 64 69 75 81 88 96 104 113 123 128 128 128 128 128 128 128 128 128 128 128 128 128 128 128 128 128 128 128 128 128 128 128 128 128 128 128 128 128 128 128 134 156 168 167 166 165 164 163 161 160 159 157 156 155 154 152 151 150 148 147 145 144 143 141 140 138 137 136 134 132 131 130 128 114 11 11 12 12 12 12 12 12 13 13 13 13 14 14 14 14 15 15 15 16 16 17 17 17 18 18 19 19 20 20 21 22 22 23 24 24 25 26 27 28 29 31 32 33 35 37 39 41 43 46 48 52 55 59 64 69 75 81 88 96 104 113 123 127 127 127 127 127 127 127 127 127 127 127 127 127 127 127 127 127 127 127 127 127 127 127 127 127 127 127 127 127 127 127 127 127 0 0 0 0 0 0 0 0 0 0 0 0 0 0 0 0 0 0 0 0 0 0 0 0 0 0 0 0 0 0 0 0 0 0 0 0 0 0 0 0 0 0 0 0 0 0 0 0 0 0 0 0 0 0 0 0 0 0 0 0 0 127 127 127 127 127 127 127 127 127 127 127 127 127 127 127 127 127 127 127 127 127 127 127 127 127 127 127 127 127 127 127 127 127 127 127 127 151 159 167 174 180 186 191 196 200 203 206 209 212 214 216 218 220 222 223 224 226 227 228 229 230 231 231 232 233 234 234 235 235 236 236 237 237 238 238 239 239 239 240 240 240 241 241 241 241 242 242 242 242 243 243 243 243 243 244 244 240 186 133 125 124 122 121 120 118 117 115 114 112 111 109 108 107 105 104 103 101 100 99 97 96 95 94 93 91 90 89 90 93 107 122 127 128 128 128 128 128 128 128 128 128 128 128 128 128 128 128 128 128 128 128 128 128 128 128 128 128 128 128 128 128 128 133 142 151 159 167 174 180 186 191 196 200 203 206 209 212 214 216 218 220 222 223 224 226 227 228 229 230 231 231 232 233 234 234 235 235 236 236 237 237 238 238 239 239 239 240 240 240 241 241 241 241 242 242 242 242 243 243 243 243 243 244 244 240 192
95 10 10 10 10 10 11 11 11 11 11 11 12 12 12 13 13 13 13 13 14 14 15 15 15 16 16 16 17 17 18 18 19 20 20 21 22 22 23 24 25 26 27 28 30 31 33 35 36 39 41 44 47 50 54 59 64 70 76 84 92 102 111 122 128 128 128 128 128 128 128 128 128 128 128 128 128 128 128 128 128 128 128 128 128 128 128 128 128 128 128 128 128 128 128 128 128 138 157 165 164 163 162 161 159 158 157 156 154 153 152 151 149 148 146 145 144 142 141 140 138 137 135 134 132 131 130 128 96 10 10 10 10 10 11 11 11 11 11 11 12 12 12 13 13 13 13 13 14 14 15 15 15 16 16 16 17 17 18 18 19 20 20 21 22 22 23 24 25 26 27 28 30 31 33 35 36 39 41 44 47 50 54 59 64 70 76 84 92 102 111 122 127 127 127 127 127 127 127 127 127 127 127 127 127 127 127 127 127 127 127 127 127 127 127 127 127 127 127 127 127 127 127 127 127 0 0 0 0 0 0 0 0 0 0 0 0 0 0 0 0 0 0 0 0 0 0 0 0 0 0 0 0 0 0 0 0 0 0 0 0 0 0 0 0 0 0 0 0 0 0 0 0 0 0 0 0 0 0 0 0 0 0 0 0 0 127 127 127 127 127 127 127 127 127 127 127 127 127 127 127 127 127 127 127 127 127 127 127 127 127 127 127 127 127 127 127 127 127 127 127 127 154 163 171 179 185 191 196 201 205 208 211 214 216 218 220 222 224 225 227 228 229 230 231 232 232 233 234 235 235 236 237 237 238 238 239 239 239 240 240 240 241 241 241 242 242 242 243 243 243 243 244 244 244 244 244 244 245 245 245 245 242 199 135 125 124 123 121 120 118 117 115 114 113 111 110 108 107 106 104 103 102 100 99 98 97 96 94 93 92 92 94 106 120 126 128 128 128 128 128 128 128 128 128 128 128 128 128 128 128 128 128 128 128 128 128 128 128 128 128 128 128 128 128 128 128 128 134 144 154 163 171 179 185 191 196 201 205 208 211 214 216 218 220 222 224 225 227 228 229 230 231 232 232 233 234 235 235 236 237 237 238 238 239 239 239 240 240 240 241 241 241 242 242 242 243 243 243 243 244 244 244 244 244 244 245 245 245 245 242 205
98 8 9 9 9 9 9 9 9 10 10 10 10 10 11 11 11 11 11 12 12 12 13 13 13 14 14 14 15 15 16 16 17 17 18 18 19 19 20 21 22 23 24 25 26 27 29 31 32 34 36 39 42 45 49 53 58 64 71 78 87 98 109 121 128 128 128 128 128 128 128 128 128 128 128 128 128 128 128 128 128 128 128 128 128 128 128 128 128 128 128 128 128 128 128 128 128 128 128 138 155 162 161 160 159 158 157 155 154 153 152 150 149 148 146 145 143 142 141 139 138 137 135 134 132 131 130 128 99 8 9 9 9 9 9 9 9 10 10 10 10 10 11 11 11 11 11 12 12 12 13 13 13 14 14 14 15 15 16 16 17 17 18 18 19 19 20 21 22 23 24 25 26 27 29 31 32 34 36 39 42 45 49 53 58 64 71 78 87 98 109 121 127 127 127 127 127 127 127 127 127 127 127 127 127 127 127 127 127 127 127 127 127 127 127 127 127 127 127 127 127 127 127 127 127 0 0 0 0 0 0 0 0 0 0 0 0 0 0 0 0 0 0 0 0 0 0 0 0 0 0 0 0 0 0 0 0 0 0 0 0 0 0 0 0 0 0 0 0 0 0 0 0 0 0 0 0 0 0 0 0 0 0 0 0 0 127 127 127 127 127 127 127 127 127 127 127 127 127 127 127 127 127 127 127 127 127 127 127 127 127 127 127 127 127 127 127 127 127 127 127 127 157 168 177 184 191 197 202 206 210 213 216 219 221 223 224 226 228 229 230 231 232 233 234 235 235 236 237 237 238 238 239 239 240 240 241 241 241 242 242 242 243 243 243 244 244 244 244 244 245 245 245 245 245 246 246 246 246 246 246 247 244 209 137 125 124 123 121 120 118 117 116 114 113 112 110 109 107 106 105 103 102 101 100 98 97 96 95 95 97 107 120 126 128 128 128 128 128 128 128 128 128 128 128 128 128 128 128 128 128 128 128 128 128 128 128 128 128 128 128 128 128 128 128 128 128 129 135 146 157 168 177 184 191 197 202 206 210 213 216 219 221 223 224 226 228 229 230 231 232 233 234 235 235 236 237 237 238 238 239 239 240 240 241 241 241 242 242 242 243 243 243 244 244 244 244 244 245 245 245 245 245 246 246 246 246 246 246 247 244 216
71 7 7 7 8 8 8 8 8 8 8 8 9 9 9 9 9 10 10 10 10 11 11 11 11 12 12 12 12 13 13 14 14 14 15 16 16 17 17 18 19 19 20 21 22 23 25 26 28 30 32 34 36 39 43 47 51 57 64 72 82 93 106 120 128 128 128 128 128 128 128 128 128 128 128 128 128 128 128 128 128 128 128 128 128 128 128 128 128 128 128 128 128 128 128 128 128 128 128 128 128 136 150 159 159 157 156 155 154 152 151 150 148 147 146 145 143 142 140 139 138 136 135 134 132 131 130 128 73 7 7 7 8 8 8 8 8 8 8 8 9 9 9 9 9 10 10 10 10 11 11 11 11 12 12 12 12 13 13 14 14 14 15 16 16 17 17 18 19 19 20 21 22 23 25 26 28 30 32 34 36 39 43 47 51 57 64 72 82 93 106 120 127 127 127 127 127 127 127 127 127 127 127 127 127 127 127 127 127 127 127 127 127 127 127 127 127 127 127 127 127 127 127 127 127 0 0 0 0 0 0 0 0 0 0 0 0 0 0 0 0 0 0 0 0 0 0 0 0 0 0 0 0 0 0 0 0 0 0 0 0 0 0 0 0 0 0 0 0 0 0 0 0 0 0 0 0 0 0 0 0 0 0 0 0 0 127 127 127 127 127 127 127 127 127 127 127 127 127 127 127 127 127 127 127 127 127 127 127 127 127 127 127 127 127 127 127 127 127 127 127 127 162 174 183 191 198 204 209 213 216 219 222 224 226 227 229 230 231 233 234 235 236 236 237 238 238 239 240 240 240 241 241 242 242 243 243 243 244 244 244 244 245 245 245 245 245 246 246 246 246 246 246 247 247 247 247 247 247 248 248 248 246 220 139 125 124 123 121 120 118 117 116 114 113 112 111 109 108 106 105 104 102 101 100 99 99 99 100 110 122 126 127 128 128 128 128 128 128 128 128 128 128 128 128 128 128 128 128 128 128 128 128 128 128 128 128 128 128 128 128 128 128 128 128 128 128 129 136 149 162 174 183 191 198 204 209 213 216 219 222 224 226 227 229 230 231 233 234 235 236 236 237 238 238 239 240 240 240 241 241 242 242 243 243 243 244 244 244 244 245 245 245 245 245 246 246 246 246 246 246 247 247 247 247 247 247 248 248 248 246 228
71 6 6 6 6 6 6 6 7 7 7 7 7 7 8 8 8 8 8 8 9 8 9 9 9 10 10 10 10 11 11 11 12 12 12 13 13 13 14 15 15 16 17 18 19 19 21 22 23 25 26 28 30 33 36 40 44 49 56 64 74 86 101 119 128 128 128 128 128 128 128 128 128 128 128 128 128 128 128 128 128 128 128 128 128 128 128 128 128 128 128 128 128 128 128 128 128 128 128 128 128 128 128 132 143 153 156 154 153 152 151 150 148 147 146 144 143 142 140 139 138 136 135 134 132 131 129 128 73 6 6 6 6 6 6 6 7 7 7 7 7 7 8 8 8 8 8 8 9 8 9 9 9 10 10 10 10 11 11 11 12 12 12 13 13 13 14 15 15 16 17 18 19 19 21 22 23 25 26 28 30 33 36 40 44 49 56 64 74 86 101 119 127 127 127 127 127 127 127 127 127 127 127 127 127 127 127 127 127 127 127 127 127 127 127 127 127 127 127 127 127 127 127 127 127 0 0 0 0 0 0 0 0 0 0 0 0 0 0 0 0 0 0 0 0 0 0 0 0 0 0 0 0 0 0 0 0 0 0 0 0 0 0 0 0 0 0 0 0 0 0 0 0 0 0 0 0 0 0 0 0 0 0 0 0 0 127 127 127 127 127 127 127 127 127 127 127 127 127 127 127 127 127 127 127 127 127 127 127 127 127 127 127 127 127 127 127 127 127 127 127 127 169 181 191 199 206 211 215 219 222 225 227 229 231 232 233 235 236 237 237 238 239 240 240 241 241 242 242 243 243 244 244 244 245 245 245 245 246 246 246 246 247 247 247 247 247 247 248 248 248 248 248 248 248 248 249 249 249 249 249 249 247 225 139 125 124 123 121 120 119 117 116 115 113 112 111 109 108 107 106 104 103 102 102 102 106 116 124 126 128 128 128 128 128 128 128 128 128 128 128 128 128 128 128 128 128 128 128 128 128 128 128 128 128 128 128 128 128 128 128 128 128 128 128 128 128 129 137 154 169 181 191 199 206 211 215 219 222 225 227 229 231 232 233 235 236 237 237 238 239 240 240 241 241 242 242 243 243 244 244 244 245 245 245 245 246 246 246 246 247 247 247 247 247 247 248 248 248 248 248 248 248 248 249 249 249 249 249 249 248 233
76 4 5 5 5 5 5 5 5 5 5 5 5 6 6 6 6 6 6 6 6 7 7 7 7 7 8 8 8 8 8 9 9 9 10 10 10 11 11 12 12 13 13 14 14 15 16 17 18 19 21 22 24 26 29 32 36 40 46 54 64 77 95 116 128 128 128 128 128 128 128 128 128 128 128 128 128 128 128 128 128 128 128 128 128 128 128 128 128 128 128 128 128 128 128 128 128 128 128 128 128 128 128 128 128 128 135 144 150 152 150 149 148 146 145 144 143 141 140 139 138 136 135 133 132 131 130 128 77 4 5 5 5 5 5 5 5 5 5 5 5 6 6 6 6 6 6 6 6 7 7 7 7 7 8 8 8 8 8 9 9 9 10 10 10 11 11 12 12 13 13 14 14 15 16 17 18 19 21 22 24 26 29 32 36 40 46 54 64 77 95 116 127 127 127 127 127 127 127 127 127 127 127 127 127 127 127 127 127 127 127 127 127 127 127 127 127 127 127 127 127 127 127 127 127 0 0 0 0 0 0 0 0 0 0 0 0 0 0 0 0 0 0 0 0 0 0 0 0 0 0 0 0 0 0 0 0 0 0 0 0 0 0 0 0 0 0 0 0 0 0 0 0 0 0 0 0 0 0 0 0 0 0 0 0 0 127 127 127 127 127 127 127 127 127 127 127 127 127 127 127 127 127 127 127 127 127 127 127 127 127 127 127 127 127 127 127 127 127 127 127 127 178 191 201 209 215 220 223 226 229 231 233 234 236 237 238 239 240 241 241 242 242 243 244 244 244 245 245 246 246 246 247 246 247 247 247 247 247 248 248 248 248 249 249 249 249 249 249 249 249 249 250 250 250 250 250 250 250 250 250 251 249 230 140 126 124 123 121 120 119 117 116 115 113 112 111 110 108 107 107 106 106 109 115 122 126 127 128 128 128 128 128 128 128 128 128 128 128 128 128 128 128 128 128 128 128 128 128 128 128 128 128 128 128 128 128 128 128 128 128 128 128 128 128 128 128 129 140 161 178 191 201 209 215 220 223 226 229 231 233 234 236 237 238 239 240 241 241 242 242 243 244 244 244 245 245 246 246 246 247 246 247 247 247 247 247 248 248 248 248 249 249 249 249 249 249 249 249 249 250 250 250 250 250 250 250 250 250 251 249 238
70 3 3 3 3 3 4 4 4 4 4 4 4 4 4 4 4 4 4 5 5 5 5 5 5 5 5 6 6 6 6 6 6 7 7 7 7 8 8 8 9 9 9 10 10 11 12 12 13 14 15 16 17 19 21 23 26 30 35 41 51 64 84 112 128 128 128 128 128 128 128 128 128 128 128 128 128 128 128 128 128 128 128 128 128 128 128 128 128 128 128 128 128 128 128 128 128 128 128 128 128 128 128 128 128 128 128 128 128 134 140 145 147 146 145 144 142 141 140 139 137 136 135 133 132 131 129 128 72 3 3 3 3 3 4 4 4 4 4 4 4 4 4 4 4 4 4 5 5 5 5 5 5 5 5 6 6 6 6 6 6 7 7 7 7 8 8 8 9 9 9 10 10 11 12 12 13 14 15 16 17 19 21 23 26 30 35 41 51 64 84 112 127 127 127 127 127 127 127 127 127 127 127 127 127 127 127 127 127 127 127 127 127 127 127 127 127 127 127 127 127 127 127 127 127 0 0 0 0 0 0 0 0 0 0 0 0 0 0 0 0 0 0 0 0 0 0 0 0 0 0 0 0 0 0 0 0 0 0 0 0 0 0 0 0 0 0 0 0 0 0 0 0 0 0 0 0 0 0 0 0 0 0 0 0 0 127 127 127 127 127 127 127 127 127 127 127 127 127 127 127 127 127 127 127 127 127 127 127 127 127 127 127 127 127 127 127 127 127 127 127 127 192 205 214 220 225 229 232 234 236 238 239 240 241 242 243 244 244 245 245 246 246 246 247 247 247 248 248 248 248 249 249 249 249 249 249 250 250 250 250 250 250 250 251 250 251 251 251 251 251 251 251 251 251 251 251 252 252 252 252 252 251 236 141 126 124 123 122 120 119 117 116 115 114 112 112 111 110 110 114 118 123 126 127 128 128 128 128 128 128 128 128 128 128 128 128 128 128 128 128 128 128 128 128 128 128 128 128 128 128 128 128 128 128 128 128 128 128 128 128 128 128 128 128 128 128 129 146 172 192 205 214 220 225 229 232 234 236 238 239 240 241 242 243 244 244 245 245 246 246 246 247 247 247 248 248 248 248 249 249 249 249 249 249 250 250 250 250 250 250 250 251 250 251 251 251 251 251 251 251 251 251 251 251 252 252 252 252 252 251 245
50 2 2 2 2 2 2 2 2 2 2 2 2 3 2 2 3 3 3 3 3 3 3 3 3 3 3 3 4 4 4 4 4 4 4 4 5 5 5 5 5 5 6 6 6 7 7 7 8 8 9 10 10 12 13 14 16 19 22 27 34 45 65 103 128 128 128 128 128 128 128 128 128 128 128 128 128 128 128 128 128 128 128 128 128 128 128 128 128 128 128 128 128 128 128 128 128 128 128 128 128 128 128 128 128 128 128 128 128 128 128 128 129 133 137 139 141 141 140 138 137 136 135 133 132 131 129 128 53 2 2 2 2 2 2 2 2 2 2 2 2 3 2 2 3 3 3 3 3 3 3 3 3 3 3 3 4 4 4 4 4 4 4 4 5 5 5 5 5 5 6 6 6 7 7 7 8 8 9 10 10 12 13 14 16 19 22 27 34 45 65 103 127 127 127 127 127 127 127 127 127 127 127 127 127 127 127 127 127 127 127 127 127 127 127 127 127 127 127 127 127 127 127 127 127 0 0 0 0 0 0 0 0 0 0 0 0 0 0 0 0 0 0 0 0 0 0 0 0 0 0 0 0 0 0 0 0 0 0 0 0 0 0 0 0 0 0 0 0 0 0 0 0 0 0 0 0 0 0 0 0 0 0 0 0 0 127 127 127 127 127 127 127 127 127 127 127 127 127 127 127 127 127 127 127 127 127 127 127 127 127 127 127 127 127 127 127 127 127 127 127 127 211 222 229 234 236 239 241 242 244 244 245 246 247 247 248 248 248 249 249 249 250 250 250 250 250 251 251 251 251 251 251 251 252 252 252 252 252 252 252 252 252 252 252 252 252 252 252 253 253 253 253 253 253 253 253 253 253 253 253 253 252 241 142 125 124 123 122 120 119 118 117 116 115 116 118 120 123 126 127 127 128 128 128 128 128 128 128 128 128 128 128 128 128 128 128 128 128 128 128 128 128 128 128 128 128 128 128 128 128 128 128 128 128 128 128 128 128 128 128 128 128 128 128 128 128 131 159 193 211 222 229 234 236 239 241 242 244 244 245 246 247 247 248 248 248 249 249 249 250 250 250 250 250 251 251 251 251 251 251 251 252 252 252 252 252 252 252 252 252 252 252 252 252 252 252 253 253 253 253 253 253 253 253 253 253 253 253 253 253 250
45 40 40 40 40 40 40 40 40 40 40 40 40 40 40 40 40 40 40 40 40 40 40 40 40 40 40 40 40 40 40 40 40 40 40 40 40 40 40 40 40 40 40 40 40 40 40 40 40 40 41 41 41 41 41 41 41 41 42 42 43 45 51 81 128 128 128 128 128 128 128 128 128 128 128 128 128 128 128 128 128 128 128 128 128 128 128 128 128 128 128 128 128 128 128 128 128 128 128 128 128 128 128 128 128 128 128 128 128 128 128 128 128 128 128 128 128 129 131 132 133 133 133 132 131 130 129 128 48 40 40 40 40 40 40 40 40 40 40 40 40 40 40 40 40 40 40 40 40 40 40 40 40 40 40 40 40 40 40 40 40 40 40 40 40 40 40 40 40 40 40 40 40 40 40 40 40 40 41 41 41 41 41 41 41 41 42 42 43 45 51 81 127 127 127 127 127 127 127 127 127 127 127 127 127 127 127 127 127 127 127 127 127 127 127 127 127 127 127 127 127 127 127 127 127 0 0 0 0 0 0 0 0 0 0 0 0 0 0 0 0 0 0 0 0 0 0 0 0 0 0 0 0 0 0 0 0 0 0 0 0 0 0 0 0 0 0 0 0 0 0 0 0 0 0 0 0 0 0 0 0 0 0 0 0 0 127 127 127 127 127 127 127 127 127 127 127 127 127 127 127 127 127 127 127 127 127 127 127 127 127 127 127 127 127 127 127 127 127 127 127 127 226 231 234 235 236 237 238 238 239 239 240 240 241 241 241 241 241 241 242 242 242 242 242 242 242 242 242 242 242 242 242 243 242 242 243 243 243 243 243 243 243 243 243 243 243 243 243 243 243 243 243 243 243 243 243 243 243 243 243 243 243 234 141 126 125 125 124 124 124 124 124 125 126 127 127 127 128 128 128 128 128 128 128 128 128 128 128 128 128 128 128 128 128 128 128 128 128 128 128 128 128 128 128 128 128 128 128 128 128 128 128 128 128 128 128 128 128 128 128 128 128 128 128 128 128 134 182 214 226 231 234 235 236 237 238 238 239 239 240 240 241 241 241 241 241 241 242 242 242 242 242 242 242 242 242 242 242 242 242 243 242 242 243 243 243 243 243 243 243 243 243 243 243 243 243 243 243 243 243 243 243 243 243 243 243 243 243 243 243 243
252 252 252 252 252 252 252 252 252 252 252 252 252 252 252 252 252 252 252 252 252 252 252 252 252 252 252 252 251 251 252 251 251 251 251 251 251 251 251 251 251 251 251 251 250 250 250 250 250 250 250 249 249 249 248 248 247 246 245 244 241 237 227 192 128 128 128 128 128 128 128 128 128 128 128 128 128 128 128 128 128 128 128 128 128 128 128 128 128 128 128 128 128 128 128 128 128 128 128 128 128 128 128 128 128 128 128 128 128 128 128 128 128 128 128 128 128 127 125 124 123 123 123 123 124 125 126 127 250 252 252 252 252 252 252 252 252 252 252 252 252 252 252 252 252 252 252 252 252 252 252 252 252 252 252 252 251 251 252 251 251 251 251 251 251 251 251 251 251 251 251 251 250 250 250 250 250 250 250 249 249 249 248 248 247 246 245 244 241 237 227 192 127 127 127 127 127 127 127 127 127 127 127 127 127 127 127 127 127 127 127 127 127 127 127 127 127 127 127 127 127 127 127 127 127 0 0 0 0 0 0 0 0 0 0 0 0 0 0 0 0 0 0 0 0 0 0 0 0 0 0 0 0 0 0 0 0 0 0 0 0 0 0 0 0 0 0 0 0 0 0 0 0 0 0 0 0 0 0 0 0 0 0 0 0 0 127 127 127 127 127 127 127 127 127 127 127 127 127 127 127 127 127 127 127 127 127 127 127 127 127 127 127 127 127 127 127 127 127 127 127 127 87 87 87 87 87 87 88 88 88 88 88 88 88 88 88 88 88 88 88 88 88 88 88 88 88 88 88 88 88 88 88 89 88 88 89 89 89 89 89 89 89 89 89 89 89 89 89 89 89 89 89 89 89 89 89 89 89 89 89 89 89 95 125 129 130 131 131 132 132 132 132 131 130 129 129 129 128 128 128 128 128 128 128 128 128 128 128 128 128 128 128 128 128 128 128 128 128 128 128 128 128 128 128 128 128 128 128 128 128 128 128 128 128 128 128 128 128 128 128 128 128 128 128 128 128 126 101 88 87 87 87 87 87 87 88 88 88 88 88 88 88 88 88 88 88 88 88 88 88 88 88 88 88 88 88 88 88 88 88 89 88 88 89 89 89 89 89 89 89 89 89 89 89 89 89 89 89 89 89 89 89 89 89 89 89 89 89 89 89 91
250 253 253 253 253 253 253 253 253 253 253 253 253 253 253 252 252 252 252 252 252 252 252 252 252 252 252 252 252 252 251 251 251 251 251 251 251 250 250 250 250 250 249 249 249 248 248 248 247 247 246 245 244 244 242 241 239 236 234 229 222 211 192 155 128 128 128 128 128 128 128 128 128 128 128 128 128 128 128 128 128 128 128 128 128 128 128 128 128 128 128 128 128 128 128 128 128 128 128 128 128 128 128 128 128 128 128 128 128 128 128 128 127 124 120 117 115 114 115 117 118 119 120 122 123 124 125 127 248 253 253 253 253 253 253 253 253 253 253 253 253 253 253 252 252 252 252 252 252 252 252 252 252 252 252 252 252 252 251 251 251 251 251 251 251 250 250 250 250 250 249 249 249 248 248 248 247 247 246 245 244 244 242 241 239 236 234 229 222 211 192 155 127 127 127 127 127 127 127 127 127 127 127 127 127 127 127 127 127 127 127 127 127 127 127 127 127 127 127 127 127 127 127 127 127 0 0 0 0 0 0 0 0 0 0 0 0 0 0 0 0 0 0 0 0 0 0 0 0 0 0 0 0 0 0 0 0 0 0 0 0 0 0 0 0 0 0 0 0 0 0 0 0 0 0 0 0 0 0 0 0 0 0 0 0 0 127 127 127 127 127 127 127 127 127 127 127 127 127 127 127 127 127 127 127 127 127 127 127 127 127 127 127 127 127 127 127 127 127 127 127 127 48 37 30 26 23 20 18 18 17 15 15 14 13 13 13 12 12 12 12 11 11 11 11 11 11 11 10 10 10 10 10 10 10 10 9 9 9 9 9 9 9 9 9 9 9 9 8 8 9 8 8 8 8 8 8 8 8 8 8 8 16 63 124 129 131 132 133 135 136 137 138 139 140 140 139 137 134 131 130 129 129 128 128 128 128 128 128 128 128 128 128 128 128 128 128 128 128 128 128 128 128 128 128 128 128 128 128 128 128 128 128 128 128 128 128 128 128 128 128 128 128 128 128 128 128 126 102 68 48 37 30 26 23 20 18 18 17 15 15 14 13 13 13 12 12 12 12 11 11 11 11 11 11 11 10 10 10 10 10 10 10 10 9 9 9 9 9 9 9 9 9 9 9 9 8 8 9 8 8 8 8 8 8 8 8 8 8 8 15 49
244 252 252 252 252 252 252 251 251 251 251 251 251 251 251 251 251 251 250 251 250 250 250 250 250 250 250 249 249 249 249 249 249 248 248 248 248 247 247 247 246 246 246 245 245 244 244 243 242 241 240 239 238 236 234 232 229 225 220 214 205 192 172 144 128 128 128 128 128 128 128 128 128 128 128 128 128 128 128 128 128 128 128 128 128 128 128 128 128 128 128 128 128 128 128 128 128 128 128 128 128 128 128 128 128 128 128 128 128 124 118 113 108 109 110 111 112 114 115 116 117 119 120 122 123 124 126 127 242 252 252 252 252 252 252 251 251 251 251 251 251 251 251 251 251 251 250 251 250 250 250 250 250 250 250 249 249 249 249 249 249 248 248 248 248 247 247 247 246 246 246 245 245 244 244 243 242 241 240 239 238 236 234 232 229 225 220 214 205 192 172 144 127 127 127 127 127 127 127 127 127 127 127 127 127 127 127 127 127 127 127 127 127 127 127 127 127 127 127 127 127 127 127 127 127 0 0 0 0 0 0 0 0 0 0 0 0 0 0 0 0 0 0 0 0 0 0 0 0 0 0 0 0 0 0 0 0 0 0 0 0 0 0 0 0 0 0 0 0 0 0 0 0 0 0 0 0 0 0 0 0 0 0 0 0 0 127 127 127 127 127 127 127 127 127 127 127 127 127 127 127 127 127 127 127 127 127 127 127 127 127 127 127 127 127 127 127 127 127 127 127 127 65 52 42 35 30 26 23 21 19 17 16 15 14 13 12 12 11 10 10 9 9 9 8 8 8 7 7 7 7 6 6 6 6 6 6 5 5 5 5 5 5 5 5 4 4 4 4 4 4 4 4 4 4 4 4 4 3 3 3 3 18 75 125 129 131 132 133 135 136 137 139 140 141 142 144 144 145 145 144 140 135 130 129 129 128 128 128 128 128 128 128 128 128 128 128 128 128 128 128 128 128 128 128 128 128 128 128 128 128 128 128 128 128 128 128 128 128 128 128 128 128 128 128 128 128 127 111 85 65 52 42 35 30 26 23 21 19 17 16 15 14 13 12 12 11 10 10 9 9 9 8 8 8 7 7 7 7 6 6 6 6 6 6 5 5 5 5 5 5 5 5 4 4 4 4 4 4 4 4 4 4 4 4 4 3 3 3 3 17 66
237 250 251 250 250 250 250 250 250 250 250 250 249 249 249 249 249 249 249 249 249 248 248 248 248 247 247 247 247 247 246 247 246 246 246 245 245 244 244 244 243 242 242 241 241 240 239 238 237 236 234 233 231 229 226 223 220 215 209 201 191 178 160 139 128 128 128 128 128 128 128 128 128 128 128 128 128 128 128 128 128 128 128 128 128 128 128 128 128 128 128 128 128 128 128 128 128 128 128 128 128 128 128 128 128 128 124 114 107 104 105 106 107 108 110 111 112 113 115 116 117 119 120 121 123 124 126 127 235 250 251 250 250 250 250 250 250 250 250 250 249 249 249 249 249 249 249 249 249 248 248 248 248 247 247 247 247 247 246 247 246 246 246 245 245 244 244 244 243 242 242 241 241 240 239 238 237 236 234 233 231 229 226 223 220 215 209 201 191 178 160 139 127 127 127 127 127 127 127 127 127 127 127 127 127 127 127 127 127 127 127 127 127 127 127 127 127 127 127 127 127 127 127 127 127 0 0 0 0 0 0 0 0 0 0 0 0 0 0 0 0 0 0 0 0 0 0 0 0 0 0 0 0 0 0 0 0 0 0 0 0 0 0 0 0 0 0 0 0 0 0 0 0 0 0 0 0 0 0 0 0 0 0 0 0 0 127 127 127 127 127 127 127 127 127 127 127 127 127 127 127 127 127 127 127 127 127 127 127 127 127 127 127 127 127 127 127 127 127 127 127 127 78 64 54 46 40 36 32 29 26 24 22 21 19 18 17 16 15 14 14 13 13 12 12 11 11 10 10 10 9 9 9 8 8 8 8 8 7 7 7 7 7 6 6 6 6 6 6 6 6 5 5 5 5 5 5 5 5 5 5 5 20 79 125 130 131 132 133 135 136 138 139 140 141 143 144 145 146 148 149 149 150 148 143 136 131 129 128 128 128 128 128 128 128 128 128 128 128 128 128 128 128 128 128 128 128 128 128 128 128 128 128 128 128 128 128 128 128 128 128 128 128 128 128 128 128 127 115 95 78 64 54 46 40 36 32 29 26 24 22 21 19 18 17 16 15 14 14 13 13 12 12 11 11 10 10 10 9 9 9 8 8 8 8 8 7 7 7 7 7 6 6 6 6 6 6 6 6 5 5 5 5 5 5 5 5 5 5 5 20 72
231 249 249 249 249 249 249 249 248 248 248 248 248 248 248 248 247 247 247 247 247 247 246 246 246 246 245 245 245 245 244 244 244 243 243 242 242 241 241 240 240 239 238 237 237 236 235 233 232 231 229 227 225 222 219 215 211 206 199 191 181 169 154 136 128 128 128 128 128 128 128 128 128 128 128 128 128 128 128 128 128 128 128 128 128 128 128 128 128 128 128 128 128 128 128 128 128 128 128 128 128 128 128 126 116 104 100 101 102 103 104 106 107 108 109 111 112 113 115 116 117 119 120 121 123 124 125 127 230 249 249 249 249 249 249 249 248 248 248 248 248 248 248 248 247 247 247 247 247 247 246 246 246 246 245 245 245 245 244 244 244 243 243 242 242 241 241 240 240 239 238 237 237 236 235 233 232 231 229 227 225 222 219 215 211 206 199 191 181 169 154 136 127 127 127 127 127 127 127 127 127 127 127 127 127 127 127 127 127 127 127 127 127 127 127 127 127 127 127 127 127 127 127 127 127 0 0 0 0 0 0 0 0 0 0 0 0 0 0 0 0 0 0 0 0 0 0 0 0 0 0 0 0 0 0 0 0 0 0 0 0 0 0 0 0 0 0 0 0 0 0 0 0 0 0 0 0 0 0 0 0 0 0 0 0 0 127 127 127 127 127 127 127 127 127 127 127 127 127 127 127 127 127 127 127 127 127 127 127 127 127 127 127 127 127 127 127 127 127 127 127 127 86 74 64 56 49 44 40 36 33 30 28 26 25 23 22 21 19 19 18 17 16 15 15 14 13 13 13 12 12 12 11 11 11 10 10 10 10 9 9 9 8 9 8 8 8 8 8 8 7 7 7 7 7 7 6 6 6 6 6 6 21 77 125 129 131 132 134 135 136 138 139 140 142 143 144 146 147 148 150 151 152 153 153 154 151 143 135 130 129 128 128 128 128 128 128 128 128 128 128 128 128 128 128 128 128 128 128 128 128 128 128 128 128 128 128 128 128 128 128 128 128 128 128 128 128 127 118 101 86 74 64 56 49 44 40 36 33 30 28 26 25 23 22 21 19 19 18 17 16 15 15 14 13 13 13 12 12 12 11 11 11 10 10 10 10 9 9 9 8 9 8 8 8 8 8 8 7 7 7 7 7 7 6 6 6 6 6 6 20 68
226 248 248 248 248 247 247 247 247 247 247 246 246 246 246 246 246 245 245 245 245 245 244 244 244 244 243 243 243 242 242 241 241 240 240 240 239 238 238 237 236 236 235 234 233 231 230 229 227 226 224 222 219 216 213 209 204 198 191 183 174 162 149 135 128 128 128 128 128 128 128 128 128 128 128 128 128 128 128 128 128 128 128 128 128 128 128 128 128 128 128 128 128 128 128 128 128 128 128 128 128 124 109 97 97 98 99 100 101 102 104 105 106 108 109 111 112 113 114 116 117 118 120 121 123 124 125 127 225 248 248 248 248 247 247 247 247 247 247 246 246 246 246 246 246 245 245 245 245 245 244 244 244 244 243 243 243 242 242 241 241 240 240 240 239 238 238 237 236 236 235 234 233 231 230 229 227 226 224 222 219 216 213 209 204 198 191 183 174 162 149 135 127 127 127 127 127 127 127 127 127 127 127 127 127 127 127 127 127 127 127 127 127 127 127 127 127 127 127 127 127 127 127 127 127 0 0 0 0 0 0 0 0 0 0 0 0 0 0 0 0 0 0 0 0 0 0 0 0 0 0 0 0 0 0 0 0 0 0 0 0 0 0 0 0 0 0 0 0 0 0 0 0 0 0 0 0 0 0 0 0 0 0 0 0 0 127 127 127 127 127 127 127 127 127 127 127 127 127 127 127 127 127 127 127 127 127 127 127 127 127 127 127 127 127 127 127 127 127 127 127 127 93 82 72 64 57 51 47 43 39 36 34 32 30 28 26 25 23 22 21 20 19 19 18 17 17 16 16 15 14 14 14 13 13 12 12 12 12 11 11 11 11 10 10 10 10 9 9 9 9 9 8 8 8 8 8 8 8 8 7 7 22 79 125 130 131 132 134 135 136 138 139 140 142 143 145 146 147 148 150 151 152 154 155 156 157 158 156 149 138 131 129 128 128 128 128 128 128 128 128 128 128 128 128 128 128 128 128 128 128 128 128 128 128 128 128 128 128 128 128 128 128 128 128 128 128 127 120 106 93 82 72 64 57 51 47 43 39 36 34 32 30 28 26 25 23 22 21 20 19 19 18 17 17 16 16 15 14 14 14 13 13 12 12 12 12 11 11 11 11 10 10 10 10 9 9 9 9 9 8 8 8 8 8 8 8 8 7 7 21 70
212 247 247 246 246 246 246 246 246 245 245 245 245 245 244 244 244 244 244 243 243 243 242 242 242 241 241 241 240 240 239 239 238 238 237 237 236 235 235 234 233 232 231 230 229 228 226 224 223 221 219 216 213 210 206 202 197 191 184 177 168 157 146 134 128 128 128 128 128 128 128 128 128 128 128 128 128 128 128 128 128 128 128 128 128 128 128 128 128 128 128 128 128 128 128 128 128 128 128 122 105 93 94 95 96 97 98 100 101 102 103 105 106 107 109 110 112 113 114 116 117 118 120 121 123 124 125 127 211 247 247 246 246 246 246 246 246 245 245 245 245 245 244 244 244 244 244 243 243 243 242 242 242 241 241 241 240 240 239 239 238 238 237 237 236 235 235 234 233 232 231 230 229 228 226 224 223 221 219 216 213 210 206 202 197 191 184 177 168 157 146 134 127 127 127 127 127 127 127 127 127 127 127 127 127 127 127 127 127 127 127 127 127 127 127 127 127 127 127 127 127 127 127 127 127 0 0 0 0 0 0 0 0 0 0 0 0 0 0 0 0 0 0 0 0 0 0 0 0 0 0 0 0 0 0 0 0 0 0 0 0 0 0 0 0 0 0 0 0 0 0 0 0 0 0 0 0 0 0 0 0 0 0 0 0 0 127 127 127 127 127 127 127 127 127 127 127 127 127 127 127 127 127 127 127 127 127 127 127 127 127 127 127 127 127 127 127 127 127 127 127 127 98 87 78 71 64 58 53 49 45 42 39 36 34 32 31 29 27 26 25 24 23 22 21 20 19 19 18 18 17 17 16 16 15 15 14 14 14 13 13 13 12 12 12 11 11 11 11 11 10 10 10 10 10 9 9 9 9 9 9 9 29 96 126 130 131 132 134 135 137 138 139 141 142 143 145 146 148 149 150 152 153 154 155 157 158 159 160 160 160 153 140 131 129 128 128 128 128 128 128 128 128 128 128 128 128 128 128 128 128 128 128 128 128 128 128 128 128 128 128 128 128 128 128 128 128 127 121 109 98 87 78 71 64 58 53 49 45 42 39 36 34 32 31 29 27 26 25 24 23 22 21 20 19 19 18 18 17 17 16 16 15 15 14 14 14 13 13 13 12 12 12 11 11 11 11 11 10 10 10 10 10 9 9 9 9 9 9 9 28 92
201 245 245 245 245 245 244 244 244 244 244 244 243 243 243 243 242 242 242 241 241 241 240 240 240 239 239 239 238 238 237 237 236 235 235 234 233 232 232 231 230 229 228 227 225 224 222 220 218 216 214 211 208 205 201 196 191 185 179 171 163 154 144 133 128 128 128 128 128 128 128 128 128 128 128 128 128 128 128 128 128 128 128 128 128 128 128 128 128 128 128 128 128 128 128 128 128 123 104 90 91 92 93 94 96 97 98 99 100 102 103 104 106 107 108 110 111 113 114 115 117 118 120 121 123 124 125 127 200 245 245 245 245 245 244 244 244 244 244 244 243 243 243 243 242 242 242 241 241 241 240 240 240 239 239 239 238 238 237 237 236 235 235 234 233 232 232 231 230 229 228 227 225 224 222 220 218 216 214 211 208 205 201 196 191 185 179 171 163 154 144 133 127 127 127 127 127 127 127 127 127 127 127 127 127 127 127 127 127 127 127 127 127 127 127 127 127 127 127 127 127 127 127 127 127 0 0 0 0 0 0 0 0 0 0 0 0 0 0 0 0 0 0 0 0 0 0 0 0 0 0 0 0 0 0 0 0 0 0 0 0 0 0 0 0 0 0 0 0 0 0 0 0 0 0 0 0 0 0 0 0 0 0 0 0 0 127 127 127 127 127 127 127 127 127 127 127 127 127 127 127 127 127 127 127 127 127 127 127 127 127 127 127 127 127 127 127 127 127 127 127 127 102 92 84 76 70 64 59 54 50 47 44 41 39 36 35 33 31 30 28 27 26 25 24 23 22 22 21 20 20 19 18 18 17 17 16 16 16 15 15 15 14 14 13 13 13 13 13 12 12 12 11 11 11 11 11 11 10 10 10 10 30 97 126 130 131 132 134 135 137 138 140 141 142 144 145 146 148 149 151 152 153 154 156 157 158 159 161 162 163 163 162 155 141 131 129 128 128 128 128 128 128 128 128 128 128 128 128 128 128 128 128 128 128 128 128 128 128 128 128 128 128 128 128 128 128 128 122 111 102 92 84 76 70 64 59 54 50 47 44 41 39 36 35 33 31 30 28 27 26 25 24 23 22 22 21 20 20 19 18 18 17 17 16 16 16 15 15 15 14 14 13 13 13 13 13 12 12 12 11 11 11 11 11 11 10 10 10 10 29 93
185 244 244 244 243 243 243 243 243 242 242 242 242 241 241 241 241 240 240 240 239 239 239 238 238 237 237 236 236 235 235 234 234 233 232 231 231 230 229 228 227 226 224 223 222 220 218 216 214 212 209 206 203 200 196 191 186 180 174 167 159 151 142 132 128 128 128 128 128 128 128 128 128 128 128 128 128 128 128 128 128 128 128 128 128 128 128 128 128 128 128 128 128 128 128 125 106 88 88 89 90 91 93 94 95 96 97 99 100 101 103 104 105 107 108 109 111 112 114 115 117 118 120 121 122 124 125 127 184 244 244 244 243 243 243 243 243 242 242 242 242 241 241 241 241 240 240 240 239 239 239 238 238 237 237 236 236 235 235 234 234 233 232 231 231 230 229 228 227 226 224 223 222 220 218 216 214 212 209 206 203 200 196 191 186 180 174 167 159 151 142 132 127 127 127 127 127 127 127 127 127 127 127 127 127 127 127 127 127 127 127 127 127 127 127 127 127 127 127 127 127 127 127 127 127 0 0 0 0 0 0 0 0 0 0 0 0 0 0 0 0 0 0 0 0 0 0 0 0 0 0 0 0 0 0 0 0 0 0 0 0 0 0 0 0 0 0 0 0 0 0 0 0 0 0 0 0 0 0 0 0 0 0 0 0 0 127 127 127 127 127 127 127 127 127 127 127 127 127 127 127 127 127 127 127 127 127 127 127 127 127 127 127 127 127 127 127 127 127 127 127 127 104 96 88 81 75 69 64 59 55 52 48 46 43 41 39 37 35 33 32 31 29 28 27 26 25 24 24 23 22 22 21 20 20 19 19 18 18 17 17 17 16 16 15 15 15 14 14 14 14 13 13 13 13 12 12 12 12 12 12 11 35 110 127 130 131 132 134 136 137 138 140 141 143 144 145 147 148 150 151 152 154 155 156 157 159 160 161 163 164 165 166 166 165 155 138 131 128 128 128 128 128 128 128 128 128 128 128 128 128 128 128 128 128 128 128 128 128 128 128 128 128 128 128 128 128 128 123 113 104 96 88 81 75 69 64 59 55 52 48 46 43 41 39 37 35 33 32 31 29 28 27 26 25 24 24 23 22 22 21 20 20 19 19 18 18 17 17 17 16 16 15 15 15 14 14 14 14 13 13 13 13 12 12 12 12 12 12 11 35 108
168 243 243 242 242 242 242 241 241 241 241 241 240 240 240 239 239 239 238 238 238 237 237 236 236 236 235 234 234 233 233 232 231 231 230 229 228 227 226 225 224 222 221 220 218 216 215 213 210 208 205 202 199 195 191 187 182 176 170 163 156 148 140 132 128 128 128 128 128 128 128 128 128 128 128 128 128 128 128 128 128 128 128 128 128 128 128 128 128 128 128 128 128 128 112 88 85 86 87 89 90 91 92 93 94 96 97 98 100 101 102 104 105 106 108 109 111 112 113 115 116 118 119 121 122 124 125 127 167 243 243 242 242 242 242 241 241 241 241 241 240 240 240 239 239 239 238 238 238 237 237 236 236 236 235 234 234 233 233 232 231 231 230 229 228 227 226 225 224 222 221 220 218 216 215 213 210 208 205 202 199 195 191 187 182 176 170 163 156 148 140 132 127 127 127 127 127 127 127 127 127 127 127 127 127 127 127 127 127 127 127 127 127 127 127 127 127 127 127 127 127 127 127 127 127 0 0 0 0 0 0 0 0 0 0 0 0 0 0 0 0 0 0 0 0 0 0 0 0 0 0 0 0 0 0 0 0 0 0 0 0 0 0 0 0 0 0 0 0 0 0 0 0 0 0 0 0 0 0 0 0 0 0 0 0 0 127 127 127 127 127 127 127 127 127 127 127 127 127 127 127 127 127 127 127 127 127 127 127 127 127 127 127 127 127 127 127 127 127 127 127 127 106 99 92 85 79 73 68 64 60 56 53 50 47 45 42 40 39 37 35 34 32 31 30 29 28 27 26 25 24 24 23 22 22 21 21 20 19 19 19 18 18 17 17 17 16 16 16 16 15 15 15 14 14 14 14 13 13 13 13 12 38 114 127 130 131 133 134 136 137 139 140 142 143 145 146 147 149 150 151 153 154 155 157 158 159 161 162 163 164 165 167 168 169 169 166 151 135 129 128 128 128 128 128 128 128 128 128 128 128 128 128 128 128 128 128 128 128 128 128 128 128 128 128 128 128 128 123 115 106 99 92 85 79 73 68 64 60 56 53 50 47 45 42 40 39 37 35 34 32 31 30 29 28 27 26 25 24 24 23 22 22 21 21 20 19 19 19 18 18 17 17 17 16 16 16 16 15 15 15 14 14 14 14 13 13 13 13 12 37 112
143 240 241 241 241 241 240 240 240 240 239 239 239 238 238 238 237 237 237 236 236 235 235 234 234 233 233 232 232 231 230 230 229 228 227 226 225 224 223 222 221 220 218 217 215 213 211 209 207 204 201 198 195 191 187 183 178 173 167 160 154 147 139 131 128 128 128 128 128 128 128 128 128 128 128 128 128 128 128 128 128 128 128 128 128 128 128 128 128 128 128 128 122 95 82 83 84 86 87 88 89 90 91 92 94 95 96 98 99 100 102 103 105 106 108 109 110 112 113 115 116 118 119 121 122 124 125 127 143 240 241 241 241 241 240 240 240 240 239 239 239 238 238 238 237 237 237 236 236 235 235 234 234 233 233 232 232 231 230 230 229 228 227 226 225 224 223 222 221 220 218 217 215 213 211 209 207 204 201 198 195 191 187 183 178 173 167 160 154 147 139 131 127 127 127 127 127 127 127 127 127 127 127 127 127 127 127 127 127 127 127 127 127 127 127 127 127 127 127 127 127 127 127 127 127 0 0 0 0 0 0 0 0 0 0 0 0 0 0 0 0 0 0 0 0 0 0 0 0 0 0 0 0 0 0 0 0 0 0 0 0 0 0 0 0 0 0 0 0 0 0 0 0 0 0 0 0 0 0 0 0 0 0 0 0 0 127 127 127 127 127 127 127 127 127 127 127 127 127 127 127 127 127 127 127 127 127 127 127 127 127 127 127 127 127 127 127 127 127 127 127 127 109 101 95 88 83 77 72 68 64 60 57 54 51 48 46 44 42 40 39 37 36 34 33 32 31 30 29 28 27 26 25 25 24 23 23 22 22 21 20 20 20 19 19 19 18 18 17 17 17 16 16 16 16 15 15 15 14 14 14 16 48 124 128 130 131 133 134 136 137 139 140 142 143 145 146 148 149 150 152 153 155 156 157 159 160 161 162 164 165 166 167 168 170 171 172 171 163 143 131 128 128 128 128 128 128 128 128 128 128 128 128 128 128 128 128 128 128 128 128 128 128 128 128 128 128 128 124 116 109 101 95 88 83 77 72 68 64 60 57 54 51 48 46 44 42 40 39 37 36 34 33 32 31 30 29 28 27 26 25 25 24 23 23 22 22 21 20 20 20 19 19 19 18 18 17 17 17 16 16 16 16 15 15 15 14 14 14 16 47 123
131 232 240 240 239 239 239 239 238 238 238 238 237 237 237 236 236 235 235 234 234 234 233 233 232 231 231 230 229 229 228 227 227 226 225 224 223 222 220 219 218 217 215 213 212 210 208 205 203 201 198 195 191 187 183 179 174 169 164 158 152 145 138 131 128 128 128 128 128 128 128 128 128 128 128 128 128 128 128 128 128 128 128 128 128 128 128 128 128 128 128 110 82 80 81 83 84 85 86 87 88 89 91 92 93 95 96 97 99 100 101 103 104 106 107 109 110 111 113 115 116 117 119 120 122 124 125 127 131 232 240 240 239 239 239 239 238 238 238 238 237 237 237 236 236 235 235 234 234 234 233 233 232 231 231 230 229 229 228 227 227 226 225 224 223 222 220 219 218 217 215 213 212 210 208 205 203 201 198 195 191 187 183 179 174 169 164 158 152 145 138 131 127 127 127 127 127 127 127 127 127 127 127 127 127 127 127 127 127 127 127 127 127 127 127 127 127 127 127 127 127 127 127 127 127 0 0 0 0 0 0 0 0 0 0 0 0 0 0 0 0 0 0 0 0 0 0 0 0 0 0 0 0 0 0 0 0 0 0 0 0 0 0 0 0 0 0 0 0 0 0 0 0 0 0 0 0 0 0 0 0 0 0 0 0 0 127 127 127 127 127 127 127 127 127 127 127 127 127 127 127 127 127 127 127 127 127 127 127 127 127 127 127 127 127 127 127 127 127 127 127 127 110 104 97 91 86 81 76 72 67 64 60 57 54 52 49 47 45 43 42 40 38 37 36 34 33 32 31 30 29 29 28 27 26 25 25 24 24 23 23 22 22 21 20 20 20 19 19 18 18 18 18 17 17 17 16 16 16 15 15 23 69 124 128 130 131 133 135 136 138 139 140 142 144 145 146 148 149 151 152 154 155 156 158 159 160 162 163 164 165 167 168 169 170 171 173 173 174 171 155 135 129 128 128 128 128 128 128 128 128 128 128 128 128 128 128 128 128 128 128 128 128 128 128 128 128 128 124 117 110 104 97 91 86 81 76 72 67 64 60 57 54 52 49 47 45 43 42 40 38 37 36 34 33 32 31 30 29 29 28 27 26 25 25 24 24 23 23 22 22 21 20 20 20 19 19 18 18 18 18 17 17 17 16 16 16 15 15 23 69 124
128 216 239 238 238 238 238 237 237 237 236 236 236 235 235 235 234 234 233 233 232 232 231 231 230 229 229 228 228 227 226 225 224 223 222 221 220 219 218 217 215 214 212 211 209 207 205 202 200 197 195 191 188 184 180 176 171 166 161 156 150 144 137 131 128 128 128 128 128 128 128 128 128 128 128 128 128 128 128 128 128 128 128 128 128 128 128 128 128 125 95 77 79 80 81 82 83 84 85 87 88 89 90 91 93 94 95 97 98 100 101 102 104 105 107 108 110 111 113 114 116 117 119 120 122 123 125 127 128 216 239 238 238 238 238 237 237 237 236 236 236 235 235 235 234 234 233 233 232 232 231 231 230 229 229 228 228 227 226 225 224 223 222 221 220 219 218 217 215 214 212 211 209 207 205 202 200 197 195 191 188 184 180 176 171 166 161 156 150 144 137 131 127 127 127 127 127 127 127 127 127 127 127 127 127 127 127 127 127 127 127 127 127 127 127 127 127 127 127 127 127 127 127 127 127 0 0 0 0 0 0 0 0 0 0 0 0 0 0 0 0 0 0 0 0 0 0 0 0 0 0 0 0 0 0 0 0 0 0 0 0 0 0 0 0 0 0 0 0 0 0 0 0 0 0 0 0 0 0 0 0 0 0 0 0 0 127 127 127 127 127 127 127 127 127 127 127 127 127 127 127 127 127 127 127 127 127 127 127 127 127 127 127 127 127 127 127 127 127 127 127 127 111 105 99 94 89 84 79 75 71 67 64 61 58 55 53 51 48 46 44 43 41 40 38 37 36 35 34 33 31 31 30 29 28 28 27 26 25 25 24 24 23 23 22 22 21 21 20 20 20 19 19 19 18 18 18 17 17 17 16 28 84 125 128 130 131 133 135 136 138 139 141 142 144 145 147 148 150 151 153 154 156 157 158 160 161 162 164 165 166 167 169 170 171 172 173 174 175 176 175 165 141 130 128 128 128 128 128 128 128 128 128 128 128 128 128 128 128 128 128 128 128 128 128 128 128 128 124 118 111 105 99 94 89 84 79 75 71 67 64 61 58 55 53 51 48 46 44 43 41 40 38 37 36 35 34 33 31 31 30 29 28 28 27 26 25 25 24 24 23 23 22 22 21 21 20 20 20 19 19 19 18 18 18 17 17 17 16 28 84 125
128 194 237 237 237 237 236 236 236 235 235 234 234 234 233 233 232 232 231 231 231 230 229 229 228 228 227 226 226 225 224 223 222 221 220 219 218 217 216 214 213 211 210 208 206 204 202 199 197 194 191 188 185 181 177 173 169 164 159 154 148 142 137 131 128 128 128 128 128 128 128 128 128 128 128 128 128 128 128 128 128 128 128 128 128 128 128 128 119 83 76 77 78 79 80 81 82 84 85 86 87 88 90 91 92 93 95 96 98 99 100 102 103 105 106 108 110 111 112 114 115 117 119 120 122 123 125 127 128 194 237 237 237 237 236 236 236 235 235 234 234 234 233 233 232 232 231 231 231 230 229 229 228 228 227 226 226 225 224 223 222 221 220 219 218 217 216 214 213 211 210 208 206 204 202 199 197 194 191 188 185 181 177 173 169 164 159 154 148 142 137 131 127 127 127 127 127 127 127 127 127 127 127 127 127 127 127 127 127 127 127 127 127 127 127 127 127 127 127 127 127 127 127 127 127 0 0 0 0 0 0 0 0 0 0 0 0 0 0 0 0 0 0 0 0 0 0 0 0 0 0 0 0 0 0 0 0 0 0 0 0 0 0 0 0 0 0 0 0 0 0 0 0 0 0 0 0 0 0 0 0 0 0 0 0 0 127 127 127 127 127 127 127 127 127 127 127 127 127 127 127 127 127 127 127 127 127 127 127 127 127 127 127 127 127 127 127 127 127 127 127 127 113 107 101 96 91 86 82 78 74 70 67 63 61 58 56 53 51 49 47 45 44 42 41 40 38 37 36 35 34 33 32 31 30 30 29 28 28 27 26 26 25 24 24 23 23 22 22 22 21 21 21 20 20 19 19 19 18 18 18 34 99 126 128 130 132 133 135 136 138 140 141 143 144 145 147 149 150 152 153 155 156 157 159 160 161 163 164 166 167 168 169 171 172 173 174 175 176 177 178 178 173 149 132 128 128 128 128 128 128 128 128 128 128 128 128 128 128 128 128 128 128 128 128 128 128 128 125 119 113 107 101 96 91 86 82 78 74 70 67 63 61 58 56 53 51 49 47 45 44 42 41 40 38 37 36 35 34 33 32 31 30 30 29 28 28 27 26 26 25 24 24 23 23 22 22 22 21 21 21 20 20 19 19 19 18 18 18 34 99 126
128 169 236 236 236 235 235 235 234 234 234 233 233 232 232 231 231 231 230 229 229 228 228 227 226 226 225 224 224 223 222 221 220 219 218 217 216 214 213 212 210 209 207 205 203 201 199 197 194 191 188 185 182 178 174 170 166 162 157 152 147 141 136 130 128 128 128 128 128 128 128 128 128 128 128 128 128 128 128 128 128 128 128 128 128 128 128 111 75 74 75 76 77 78 79 80 81 83 84 85 86 88 89 90 91 93 94 96 97 99 100 101 103 104 106 107 109 110 112 114 115 117 119 120 122 123 125 127 128 169 236 236 236 235 235 235 234 234 234 233 233 232 232 231 231 231 230 229 229 228 228 227 226 226 225 224 224 223 222 221 220 219 218 217 216 214 213 212 210 209 207 205 203 201 199 197 194 191 188 185 182 178 174 170 166 162 157 152 147 141 136 130 127 127 127 127 127 127 127 127 127 127 127 127 127 127 127 127 127 127 127 127 127 127 127 127 127 127 127 127 127 127 127 127 127 0 0 0 0 0 0 0 0 0 0 0 0 0 0 0 0 0 0 0 0 0 0 0 0 0 0 0 0 0 0 0 0 0 0 0 0 0 0 0 0 0 0 0 0 0 0 0 0 0 0 0 0 0 0 0 0 0 0 0 0 0 127 127 127 127 127 127 127 127 127 127 127 127 127 127 127 127 127 127 127 127 127 127 127 127 127 127 127 127 127 127 127 127 127 127 127 127 114 108 103 98 93 89 85 80 77 73 70 67 64 61 59 56 54 52 50 48 46 45 44 42 41 39 38 37 36 35 34 33 32 32 31 30 29 29 28 27 27 26 26 25 25 24 24 23 23 22 22 21 21 21 20 20 20 20 19 40 113 127 128 130 132 133 135 137 138 140 141 143 144 146 148 149 151 152 154 155 156 158 159 161 162 164 165 166 167 169 170 171 172 174 175 176 177 178 179 180 181 177 157 135 129 128 128 128 128 128 128 128 128 128 128 128 128 128 128 128 128 128 128 128 128 128 125 119 114 108 103 98 93 89 85 80 77 73 70 67 64 61 59 56 54 52 50 48 46 45 44 42 41 39 38 37 36 35 34 33 32 32 31 30 29 29 28 27 27 26 26 25 25 24 24 23 23 22 22 21 21 21 20 20 20 20 19 40 113 127
128 139 233 235 234 234 234 233 233 232 232 232 231 231 230 230 229 229 228 228 227 227 226 225 225 224 223 222 222 221 220 219 218 217 216 214 213 212 211 209 208 206 204 202 200 198 196 194 191 189 186 183 179 176 172 168 164 160 155 151 146 140 135 130 128 128 128 128 128 128 128 128 128 128 128 128 128 128 128 128 128 128 128 128 128 128 101 72 72 73 74 75 76 77 79 80 81 82 83 84 86 87 88 89 91 92 94 95 96 98 99 101 102 104 105 107 109 110 112 114 115 117 118 120 122 123 125 127 128 139 233 235 234 234 234 233 233 232 232 232 231 231 230 230 229 229 228 228 227 227 226 225 225 224 223 222 222 221 220 219 218 217 216 214 213 212 211 209 208 206 204 202 200 198 196 194 191 189 186 183 179 176 172 168 164 160 155 151 146 140 135 130 127 127 127 127 127 127 127 127 127 127 127 127 127 127 127 127 127 127 127 127 127 127 127 127 127 127 127 127 127 127 127 127 127 0 0 0 0 0 0 0 0 0 0 0 0 0 0 0 0 0 0 0 0 0 0 0 0 0 0 0 0 0 0 0 0 0 0 0 0 0 0 0 0 0 0 0 0 0 0 0 0 0 0 0 0 0 0 0 0 0 0 0 0 0 127 127 127 127 127 127 127 127 127 127 127 127 127 127 127 127 127 127 127 127 127 127 127 127 127 127 127 127 127 127 127 127 127 127 127 127 115 109 104 100 95 91 87 83 79 76 72 69 66 64 61 59 56 55 53 51 49 47 46 44 43 42 40 39 38 37 36 35 34 34 33 32 31 30 29 29 28 28 27 27 26 25 25 25 24 24 23 23 22 22 22 21 21 21 22 53 123 128 128 130 131 133 135 137 138 140 142 143 145 146 148 150 151 153 154 156 157 159 160 161 163 164 165 167 168 169 171 172 173 174 175 177 178 179 180 181 182 183 181 165 137 129 128 128 128 128 128 128 128 128 128 128 128 128 128 128 128 128 128 128 128 128 125 120 115 109 104 100 95 91 87 83 79 76 72 69 66 64 61 59 56 55 53 51 49 47 46 44 43 42 40 39 38 37 36 35 34 34 33 32 31 30 29 29 28 28 27 27 26 25 25 25 24 24 23 23 22 22 22 21 21 21 22 53 123 128
128 129 216 233 233 232 232 232 231 231 231 230 230 229 229 228 228 227 227 226 226 225 224 224 223 222 221 221 220 219 218 217 216 215 214 212 211 210 209 207 205 204 202 200 198 196 194 191 189 186 183 180 177 173 170 166 162 158 154 149 144 140 135 130 128 128 128 128 128 128 128 128 128 128 128 128 128 128 128 128 128 128 128 128 127 96 69 70 71 72 73 74 75 76 77 79 80 81 82 84 85 86 88 89 90 92 93 94 96 97 99 100 102 103 105 107 108 110 112 113 115 117 118 120 122 123 125 127 128 129 216 233 233 232 232 232 231 231 231 230 230 229 229 228 228 227 227 226 226 225 224 224 223 222 221 221 220 219 218 217 216 215 214 212 211 210 209 207 205 204 202 200 198 196 194 191 189 186 183 180 177 173 170 166 162 158 154 149 144 140 135 130 127 127 127 127 127 127 127 127 127 127 127 127 127 127 127 127 127 127 127 127 127 127 127 127 127 127 127 127 127 127 127 127 127 0 0 0 0 0 0 0 0 0 0 0 0 0 0 0 0 0 0 0 0 0 0 0 0 0 0 0 0 0 0 0 0 0 0 0 0 0 0 0 0 0 0 0 0 0 0 0 0 0 0 0 0 0 0 0 0 0 0 0 0 0 127 127 127 127 127 127 127 127 127 127 127 127 127 127 127 127 127 127 127 127 127 127 127 127 127 127 127 127 127 127 127 127 127 127 127 127 115 110 106 101 97 93 89 85 82 78 75 72 69 66 64 61 59 57 55 53 51 50 48 47 45 44 43 41 40 39 38 37 36 35 35 34 33 32 32 31 30 29 29 28 28 27 27 26 25 25 25 24 24 23 23 23 22 22 31 80 125 128 128 130 132 133 135 137 138 140 142 144 145 147 148 150 152 153 155 156 158 159 161 162 163 165 166 167 169 170 171 173 174 175 176 177 179 180 181 182 183 184 185 184 170 140 129 128 128 128 128 128 128 128 128 128 128 128 128 128 128 128 128 128 128 128 125 120 115 110 106 101 97 93 89 85 82 78 75 72 69 66 64 61 59 57 55 53 51 50 48 47 45 44 43 41 40 39 38 37 36 35 35 34 33 32 32 31 30 29 29 28 28 27 27 26 25 25 25 24 24 23 23 23 22 22 31 80 125 128
128 128 191 232 232 231 231 231 230 230 229 229 229 228 228 227 226 226 225 225 224 223 223 222 221 220 220 219 218 217 216 215 214 213 212 210 209 208 206 205 203 201 200 198 196 193 191 189 186 184 181 178 175 172 168 164 160 156 152 148 144 139 134 130 128 128 128 128 128 128 128 128 128 128 128 128 128 128 128 128 128 128 128 125 89 67 68 69 70 71 72 73 74 75 77 78 79 80 82 83 84 86 87 88 90 91 92 94 95 97 98 100 101 103 105 106 108 110 111 113 114 116 118 120 121 123 125 127 128 128 191 232 232 231 231 231 230 230 229 229 229 228 228 227 226 226 225 225 224 223 223 222 221 220 220 219 218 217 216 215 214 213 212 210 209 208 206 205 203 201 200 198 196 193 191 189 186 184 181 178 175 172 168 164 160 156 152 148 144 139 134 130 127 127 127 127 127 127 127 127 127 127 127 127 127 127 127 127 127 127 127 127 127 127 127 127 127 127 127 127 127 127 127 127 127 0 0 0 0 0 0 0 0 0 0 0 0 0 0 0 0 0 0 0 0 0 0 0 0 0 0 0 0 0 0 0 0 0 0 0 0 0 0 0 0 0 0 0 0 0 0 0 0 0 0 0 0 0 0 0 0 0 0 0 0 0 127 127 127 127 127 127 127 127 127 127 127 127 127 127 127 127 127 127 127 127 127 127 127 127 127 127 127 127 127 127 127 127 127 127 127 127 116 112 107 103 99 95 91 87 84 80 77 74 71 69 66 64 62 59 57 55 54 52 50 49 47 46 45 44 42 41 40 39 38 37 36 35 35 34 33 32 32 31 30 30 29 29 28 28 27 27 26 26 25 25 24 24 24 23 38 101 126 128 128 130 132 133 135 137 139 140 142 144 146 147 149 150 152 154 155 157 158 160 161 163 164 166 167 168 169 171 172 173 175 176 177 178 179 180 182 183 184 185 186 187 186 174 142 130 128 128 128 128 128 128 128 128 128 128 128 128 128 128 128 128 128 128 125 120 116 112 107 103 99 95 91 87 84 80 77 74 71 69 66 64 62 59 57 55 54 52 50 49 47 46 45 44 42 41 40 39 38 37 36 35 35 34 33 32 32 31 30 30 29 29 28 28 27 27 26 26 25 25 24 24 24 23 38 101 126 128
128 128 158 231 231 230 230 229 229 229 228 227 227 227 226 225 225 224 224 223 222 222 221 220 220 219 218 217 216 215 214 213 212 211 209 208 207 205 204 202 201 199 197 196 193 191 189 187 184 182 179 176 173 169 166 163 159 155 151 147 143 139 134 130 128 128 128 128 128 128 128 128 128 128 128 128 128 128 128 128 128 128 125 83 66 66 68 68 70 71 72 73 74 75 76 77 78 80 81 82 83 85 86 87 89 90 92 93 95 96 98 99 101 102 104 106 107 109 111 113 114 116 118 120 121 123 125 127 128 128 158 231 231 230 230 229 229 229 228 227 227 227 226 225 225 224 224 223 222 222 221 220 220 219 218 217 216 215 214 213 212 211 209 208 207 205 204 202 201 199 197 196 193 191 189 187 184 182 179 176 173 169 166 163 159 155 151 147 143 139 134 130 127 127 127 127 127 127 127 127 127 127 127 127 127 127 127 127 127 127 127 127 127 127 127 127 127 127 127 127 127 127 127 127 127 0 0 0 0 0 0 0 0 0 0 0 0 0 0 0 0 0 0 0 0 0 0 0 0 0 0 0 0 0 0 0 0 0 0 0 0 0 0 0 0 0 0 0 0 0 0 0 0 0 0 0 0 0 0 0 0 0 0 0 0 0 127 127 127 127 127 127 127 127 127 127 127 127 127 127 127 127 127 127 127 127 127 127 127 127 127 127 127 127 127 127 127 127 127 127 127 127 117 112 108 104 100 96 92 89 86 82 79 76 74 71 68 66 64 62 60 58 56 54 52 51 49 48 47 46 44 43 42 41 40 39 38 37 36 36 35 34 33 33 32 31 31 30 29 29 28 28 28 27 27 26 26 25 25 25 47 116 127 128 129 130 132 134 135 137 139 141 142 144 146 147 149 151 152 154 156 157 159 160 162 163 165 166 168 169 170 172 173 174 175 177 178 179 180 181 182 183 184 185 187 187 188 188 177 143 130 128 128 128 128 128 128 128 128 128 128 128 128 128 128 128 128 128 125 121 117 112 108 104 100 96 92 89 86 82 79 76 74 71 68 66 64 62 60 58 56 54 52 51 49 48 47 46 44 43 42 41 40 39 38 37 36 36 35 34 33 33 32 31 31 30 29 29 28 28 28 27 27 26 26 25 25 25 47 116 127 128
128 128 131 221 229 229 229 228 228 227 227 226 226 225 224 224 223 223 222 221 221 220 219 219 218 217 216 215 214 213 212 211 210 209 208 206 205 204 202 200 199 197 195 193 191 189 187 184 182 180 177 174 171 168 164 161 157 154 150 146 142 138 134 130 128 128 128 128 128 128 128 128 128 128 128 128 128 128 128 128 128 125 82 64 65 66 67 68 68 70 71 72 73 74 75 76 78 79 80 81 83 84 85 87 88 89 91 93 94 95 97 99 100 102 104 105 107 109 110 112 114 116 117 119 121 123 125 126 128 128 131 221 229 229 229 228 228 227 227 226 226 225 224 224 223 223 222 221 221 220 219 219 218 217 216 215 214 213 212 211 210 209 208 206 205 204 202 200 199 197 195 193 191 189 187 184 182 180 177 174 171 168 164 161 157 154 150 146 142 138 134 130 127 127 127 127 127 127 127 127 127 127 127 127 127 127 127 127 127 127 127 127 127 127 127 127 127 127 127 127 127 127 127 127 127 0 0 0 0 0 0 0 0 0 0 0 0 0 0 0 0 0 0 0 0 0 0 0 0 0 0 0 0 0 0 0 0 0 0 0 0 0 0 0 0 0 0 0 0 0 0 0 0 0 0 0 0 0 0 0 0 0 0 0 0 0 127 127 127 127 127 127 127 127 127 127 127 127 127 127 127 127 127 127 127 127 127 127 127 127 127 127 127 127 127 127 127 127 127 127 127 127 117 113 109 105 102 98 94 91 88 84 81 78 76 73 70 68 66 64 62 60 58 56 55 53 52 50 49 47 46 45 44 43 42 41 40 39 38 37 36 36 35 34 33 33 32 32 31 31 30 29 29 28 28 27 27 27 26 31 70 124 128 128 128 130 132 134 136 138 139 141 143 145 146 148 150 151 153 155 156 158 160 161 163 164 165 167 168 170 171 172 174 175 176 177 179 180 181 182 183 184 185 186 187 188 189 190 190 178 143 129 128 128 128 128 128 128 128 128 128 128 128 128 128 128 128 128 125 121 117 113 109 105 102 98 94 91 88 84 81 78 76 73 70 68 66 64 62 60 58 56 55 53 52 50 49 47 46 45 44 43 42 41 40 39 38 37 36 36 35 34 33 33 32 32 31 31 30 29 29 28 28 27 27 27 26 31 70 124 128 128
128 128 128 195 228 228 227 227 226 226 225 225 224 224 223 222 222 221 221 220 219 219 218 217 216 215 214 213 213 211 210 209 208 207 206 204 203 202 200 199 197 195 193 191 189 187 185 182 180 177 175 172 169 166 163 159 156 152 149 145 141 137 134 129 128 128 128 128 128 128 128 128 128 128 128 128 128 128 128 128 127 87 62 63 64 64 66 67 68 69 70 71 72 73 74 76 77 78 79 80 82 83 84 86 87 89 90 92 93 95 96 98 100 101 103 105 107 108 110 112 114 115 117 119 121 123 125 127 128 128 128 195 228 228 227 227 226 226 225 225 224 224 223 222 222 221 221 220 219 219 218 217 216 215 214 213 213 211 210 209 208 207 206 204 203 202 200 199 197 195 193 191 189 187 185 182 180 177 175 172 169 166 163 159 156 152 149 145 141 137 134 129 127 127 127 127 127 127 127 127 127 127 127 127 127 127 127 127 127 127 127 127 127 127 127 127 127 127 127 127 127 127 127 127 127 0 0 0 0 0 0 0 0 0 0 0 0 0 0 0 0 0 0 0 0 0 0 0 0 0 0 0 0 0 0 0 0 0 0 0 0 0 0 0 0 0 0 0 0 0 0 0 0 0 0 0 0 0 0 0 0 0 0 0 0 0 127 127 127 127 127 127 127 127 127 127 127 127 127 127 127 127 127 127 127 127 127 127 127 127 127 127 127 127 127 127 127 127 127 127 127 127 118 114 110 106 103 99 96 92 89 86 83 80 78 75 73 70 68 66 64 62 60 58 57 55 53 52 51 49 48 47 46 45 44 43 42 41 40 39 38 37 36 36 35 34 34 33 32 32 31 31 30 30 29 28 28 28 27 39 96 126 128 128 129 130 132 134 136 138 140 141 143 145 147 148 150 152 154 155 157 159 160 162 163 165 166 168 169 170 172 173 175 176 177 178 180 181 182 183 184 185 186 187 188 189 190 191 192 191 179 142 129 128 128 128 128 128 128 128 128 128 128 128 128 128 128 128 126 122 118 114 110 106 103 99 96 92 89 86 83 80 78 75 73 70 68 66 64 62 60 58 57 55 53 52 51 49 48 47 46 45 44 43 42 41 40 39 38 37 36 36 35 34 34 33 32 32 31 31 30 30 29 28 28 28 27 39 96 126 128 128
128 128 128 158 226 227 226 226 225 224 224 223 223 222 222 221 220 220 219 219 218 217 216 215 215 214 213 212 211 210 209 208 206 205 204 203 201 200 198 196 195 193 191 189 187 185 183 181 178 176 173 170 167 164 161 158 155 151 148 144 141 137 133 129 128 128 128 128 128 128 128 128 128 128 128 128 128 128 128 128 93 60 61 62 63 64 65 66 67 68 69 70 71 72 73 74 76 77 78 80 81 82 84 85 87 88 89 91 93 94 96 98 99 101 102 104 106 108 110 112 113 115 117 119 121 123 125 127 128 128 128 158 226 227 226 226 225 224 224 223 223 222 222 221 220 220 219 219 218 217 216 215 215 214 213 212 211 210 209 208 206 205 204 203 201 200 198 196 195 193 191 189 187 185 183 181 178 176 173 170 167 164 161 158 155 151 148 144 141 137 133 129 127 127 127 127 127 127 127 127 127 127 127 127 127 127 127 127 127 127 127 127 127 127 127 127 127 127 127 127 127 127 127 127 127 0 0 0 0 0 0 0 0 0 0 0 0 0 0 0 0 0 0 0 0 0 0 0 0 0 0 0 0 0 0 0 0 0 0 0 0 0 0 0 0 0 0 0 0 0 0 0 0 0 0 0 0 0 0 0 0 0 0 0 0 0 127 127 127 127 127 127 127 127 127 127 127 127 127 127 127 127 127 127 127 127 127 127 127 127 127 127 127 127 127 127 127 127 127 127 127 127 118 114 111 107 104 100 97 94 91 88 85 82 79 77 74 72 70 68 66 64 62 60 59 57 55 54 52 51 50 49 48 46 45 44 43 42 41 40 40 39 38 37 37 36 35 35 34 33 33 32 31 31 30 30 30 29 30 49 116 127 128 128 128 130 132 134 136 138 140 142 143 145 147 149 151 153 154 156 158 159 161 162 164 165 167 169 170 171 173 174 175 177 178 179 180 182 183 184 185 186 187 188 189 190 191 192 193 194 193 177 139 129 128 128 128 128 128 128 128 128 128 128 128 128 128 128 126 122 118 114 111 107 104 100 97 94 91 88 85 82 79 77 74 72 70 68 66 64 62 60 59 57 55 54 52 51 50 49 48 46 45 44 43 42 41 40 40 39 38 37 37 36 35 35 34 33 33 32 31 31 30 30 30 29 30 49 116 127 128 128
128 128 128 130 215 225 225 224 224 223 223 222 222 221 220 220 219 218 218 217 216 216 215 214 213 212 211 210 209 208 207 206 205 203 202 201 199 198 196 195 193 191 189 187 185 183 181 179 176 174 171 169 166 163 160 157 154 150 147 144 140 136 133 129 128 128 128 128 128 128 128 128 128 128 128 128 128 128 128 97 58 59 60 61 62 63 64 65 66 67 68 69 70 71 73 74 75 76 77 79 80 81 83 84 86 87 89 90 92 93 95 97 98 100 102 104 105 107 109 111 113 115 117 119 121 123 125 127 128 128 128 130 215 225 225 224 224 223 223 222 222 221 220 220 219 218 218 217 216 216 215 214 213 212 211 210 209 208 207 206 205 203 202 201 199 198 196 195 193 191 189 187 185 183 181 179 176 174 171 169 166 163 160 157 154 150 147 144 140 136 133 129 127 127 127 127 127 127 127 127 127 127 127 127 127 127 127 127 127 127 127 127 127 127 127 127 127 127 127 127 127 127 127 127 127 0 0 0 0 0 0 0 0 0 0 0 0 0 0 0 0 0 0 0 0 0 0 0 0 0 0 0 0 0 0 0 0 0 0 0 0 0 0 0 0 0 0 0 0 0 0 0 0 0 0 0 0 0 0 0 0 0 0 0 0 0 127 127 127 127 127 127 127 127 127 127 127 127 127 127 127 127 127 127 127 127 127 127 127 127 127 127 127 127 127 127 127 127 127 127 127 127 119 115 111 108 105 101 98 95 92 89 86 84 81 79 76 74 72 70 68 66 64 62 60 59 57 56 54 53 52 50 49 48 47 46 45 44 43 42 41 40 40 39 38 37 37 36 35 35 34 33 33 32 32 31 31 30 35 74 124 128 128 128 129 130 133 134 136 138 140 142 144 146 148 149 151 153 155 156 158 160 162 163 165 166 168 169 171 172 174 175 176 178 179 180 181 183 184 185 186 187 188 189 190 191 192 193 194 195 196 194 174 136 128 128 128 128 128 128 128 128 128 128 128 128 128 128 126 122 119 115 111 108 105 101 98 95 92 89 86 84 81 79 76 74 72 70 68 66 64 62 60 59 57 56 54 53 52 50 49 48 47 46 45 44 43 42 41 40 40 39 38 37 37 36 35 35 34 33 33 32 32 31 31 30 35 74 124 128 128 128
128 128 128 128 182 224 224 223 222 222 221 221 220 220 219 218 218 217 216 215 215 214 213 212 212 211 209 209 207 207 205 204 203 202 200 199 197 196 194 193 191 189 188 186 184 182 179 177 175 172 170 167 164 161 159 156 153 149 146 143 139 136 133 129 128 128 128 128 128 128 128 128 128 128 128 128 128 128 108 58 57 58 59 60 61 62 63 64 65 66 67 68 69 70 71 73 74 75 76 78 79 80 82 83 85 86 88 89 91 93 94 96 98 100 101 103 105 107 109 111 113 115 117 119 121 123 124 127 128 128 128 128 182 224 224 223 222 222 221 221 220 220 219 218 218 217 216 215 215 214 213 212 212 211 209 209 207 207 205 204 203 202 200 199 197 196 194 193 191 189 188 186 184 182 179 177 175 172 170 167 164 161 159 156 153 149 146 143 139 136 133 129 127 127 127 127 127 127 127 127 127 127 127 127 127 127 127 127 127 127 127 127 127 127 127 127 127 127 127 127 127 127 127 127 127 0 0 0 0 0 0 0 0 0 0 0 0 0 0 0 0 0 0 0 0 0 0 0 0 0 0 0 0 0 0 0 0 0 0 0 0 0 0 0 0 0 0 0 0 0 0 0 0 0 0 0 0 0 0 0 0 0 0 0 0 0 127 127 127 127 127 127 127 127 127 127 127 127 127 127 127 127 127 127 127 127 127 127 127 127 127 127 127 127 127 127 127 127 127 127 127 127 119 116 112 109 106 102 99 96 93 91 88 85 83 80 78 76 73 71 69 67 66 64 62 61 59 57 56 55 53 52 51 50 48 48 46 46 45 44 43 42 41 40 39 39 38 37 37 36 35 35 34 34 33 32 32 31 44 104 126 128 128 128 129 130 133 134 137 139 140 142 144 146 148 150 152 154 156 157 159 161 162 164 166 167 169 170 171 173 175 176 177 179 180 181 182 184 185 186 187 188 189 190 191 192 193 194 195 196 197 198 194 167 134 128 128 128 128 128 128 128 128 128 128 128 128 128 126 122 119 116 112 109 106 102 99 96 93 91 88 85 83 80 78 76 73 71 69 67 66 64 62 61 59 57 56 55 53 52 51 50 48 48 46 46 45 44 43 42 41 40 39 39 38 37 37 36 35 35 34 34 33 32 32 31 44 104 126 128 128 128
128 128 128 128 142 220 222 222 221 221 220 220 219 218 218 217 216 216 215 214 213 213 212 211 210 209 208 207 206 205 204 203 201 200 199 197 196 194 193 191 190 188 186 184 182 180 178 176 173 171 169 166 163 160 157 155 152 149 145 142 139 136 133 129 128 128 128 128 128 128 128 128 128 128 128 128 128 118 59 56 56 57 58 59 60 61 62 63 64 65 66 67 68 69 70 72 73 74 75 77 78 80 81 82 84 85 87 89 90 92 94 95 97 99 101 103 105 106 108 110 112 114 116 118 120 122 124 127 128 128 128 128 142 220 222 222 221 221 220 220 219 218 218 217 216 216 215 214 213 213 212 211 210 209 208 207 206 205 204 203 201 200 199 197 196 194 193 191 190 188 186 184 182 180 178 176 173 171 169 166 163 160 157 155 152 149 145 142 139 136 133 129 127 127 127 127 127 127 127 127 127 127 127 127 127 127 127 127 127 127 127 127 127 127 127 127 127 127 127 127 127 127 127 127 127 0 0 0 0 0 0 0 0 0 0 0 0 0 0 0 0 0 0 0 0 0 0 0 0 0 0 0 0 0 0 0 0 0 0 0 0 0 0 0 0 0 0 0 0 0 0 0 0 0 0 0 0 0 0 0 0 0 0 0 0 0 127 127 127 127 127 127 127 127 127 127 127 127 127 127 127 127 127 127 127 127 127 127 127 127 127 127 127 127 127 127 127 127 127 127 127 127 119 116 113 109 106 104 100 97 95 92 89 86 84 82 79 77 75 73 71 69 67 65 64 62 60 59 58 56 55 54 52 51 50 49 48 47 46 45 44 43 42 42 41 40 39 39 38 37 37 36 35 35 34 34 33 35 61 120 128 128 128 128 129 131 133 135 137 139 141 143 145 147 149 151 152 154 156 158 160 161 163 165 166 168 169 171 172 174 175 177 178 180 181 182 183 185 186 187 188 189 190 191 192 193 194 195 196 197 198 199 199 194 158 132 128 128 128 128 128 128 128 128 128 128 128 128 126 122 119 116 113 109 106 104 100 97 95 92 89 86 84 82 79 77 75 73 71 69 67 65 64 62 60 59 58 56 55 54 52 51 50 49 48 47 46 45 44 43 42 42 41 40 39 39 38 37 37 36 35 35 34 34 33 35 61 120 128 128 128 128
128 128 128 128 128 195 221 221 220 219 219 218 218 217 216 216 215 214 213 213 212 211 210 209 208 208 206 205 204 203 202 201 200 199 197 196 194 193 191 190 188 186 184 183 181 178 176 174 172 169 167 164 162 159 157 154 151 148 145 142 139 136 132 129 128 128 128 128 128 128 128 128 128 128 128 128 125 67 54 54 55 56 57 58 59 60 61 62 63 64 65 66 67 68 69 70 72 73 75 76 77 79 80 81 83 85 86 88 89 91 93 95 97 98 100 102 104 106 108 110 112 114 116 118 120 122 124 127 128 128 128 128 128 195 221 221 220 219 219 218 218 217 216 216 215 214 213 213 212 211 210 209 208 208 206 205 204 203 202 201 200 199 197 196 194 193 191 190 188 186 184 183 181 178 176 174 172 169 167 164 162 159 157 154 151 148 145 142 139 136 132 129 127 127 127 127 127 127 127 127 127 127 127 127 127 127 127 127 127 127 127 127 127 127 127 127 127 127 127 127 127 127 127 127 127 0 0 0 0 0 0 0 0 0 0 0 0 0 0 0 0 0 0 0 0 0 0 0 0 0 0 0 0 0 0 0 0 0 0 0 0 0 0 0 0 0 0 0 0 0 0 0 0 0 0 0 0 0 0 0 0 0 0 0 0 0 127 127 127 127 127 127 127 127 127 127 127 127 127 127 127 127 127 127 127 127 127 127 127 127 127 127 127 127 127 127 127 127 127 127 127 127 120 116 113 110 107 104 101 98 96 93 91 88 86 83 81 79 77 74 73 71 69 67 65 64 62 61 59 58 57 55 54 53 52 51 50 48 47 46 46 45 44 43 42 41 41 40 39 38 38 37 37 36 36 35 35 43 92 125 128 128 128 128 129 131 133 135 137 139 141 143 145 147 149 151 153 155 157 159 160 162 164 166 167 169 171 172 173 175 176 178 179 181 182 183 184 186 187 188 189 190 191 192 194 194 195 196 197 198 199 200 201 200 192 149 130 128 128 128 128 128 128 128 128 128 128 128 126 123 120 116 113 110 107 104 101 98 96 93 91 88 86 83 81 79 77 74 73 71 69 67 65 64 62 61 59 58 57 55 54 53 52 51 50 48 47 46 46 45 44 43 42 41 41 40 39 38 38 37 37 36 36 35 35 43 92 125 128 128 128 128
128 128 128 128 128 153 219 219 219 218 218 217 216 216 215 214 214 213 212 211 211 210 209 208 207 206 205 204 203 202 201 200 198 197 196 194 193 191 190 188 186 185 183 181 179 177 175 173 170 168 166 163 161 158 155 153 150 147 144 141 138 135 132 129 128 128 128 128 128 128 128 128 128 128 128 128 85 52 53 54 54 55 56 57 58 59 60 61 62 63 64 65 66 67 68 69 71 72 73 75 76 78 79 81 82 84 85 87 89 91 92 94 96 98 99 101 103 105 107 109 111 114 116 118 120 122 124 126 128 128 128 128 128 153 219 219 219 218 218 217 216 216 215 214 214 213 212 211 211 210 209 208 207 206 205 204 203 202 201 200 198 197 196 194 193 191 190 188 186 185 183 181 179 177 175 173 170 168 166 163 161 158 155 153 150 147 144 141 138 135 132 129 127 127 127 127 127 127 127 127 127 127 127 127 127 127 127 127 127 127 127 127 127 127 127 127 127 127 127 127 127 127 127 127 127 0 0 0 0 0 0 0 0 0 0 0 0 0 0 0 0 0 0 0 0 0 0 0 0 0 0 0 0 0 0 0 0 0 0 0 0 0 0 0 0 0 0 0 0 0 0 0 0 0 0 0 0 0 0 0 0 0 0 0 0 0 127 127 127 127 127 127 127 127 127 127 127 127 127 127 127 127 127 127 127 127 127 127 127 127 127 127 127 127 127 127 127 127 127 127 127 127 120 117 114 111 108 105 102 100 97 94 92 89 87 85 82 80 78 76 74 72 70 69 67 65 64 62 61 59 58 57 56 54 53 52 51 50 49 48 47 46 45 44 44 43 42 41 41 40 39 39 38 37 37 36 37 56 117 127 128 128 128 128 129 131 133 135 137 139 141 143 146 148 150 152 154 156 158 159 161 163 165 166 168 170 171 173 174 176 178 179 180 182 183 184 185 187 188 189 190 191 192 193 194 195 196 197 198 199 200 201 202 202 201 185 140 129 128 128 128 128 128 128 128 128 128 128 126 123 120 117 114 111 108 105 102 100 97 94 92 89 87 85 82 80 78 76 74 72 70 69 67 65 64 62 61 59 58 57 56 54 53 52 51 50 49 48 47 46 45 44 44 43 42 41 41 40 39 39 38 37 37 36 37 56 117 127 128 128 128 128
128 128 128 128 128 129 199 218 218 217 217 216 215 215 214 213 212 212 211 210 209 208 208 207 206 205 203 203 202 200 199 198 197 195 194 193 191 190 188 187 185 183 181 180 177 175 174 171 169 167 164 162 160 157 154 152 149 146 144 141 138 135 132 129 128 128 128 128 128 128 128 128 128 128 128 104 50 51 52 53 53 54 55 56 57 58 59 59 61 62 63 64 65 66 67 68 70 71 72 74 75 77 78 80 81 83 84 86 88 89 91 93 95 97 99 101 103 105 107 109 111 113 115 117 120 122 124 126 128 128 128 128 128 129 199 218 218 217 217 216 215 215 214 213 212 212 211 210 209 208 208 207 206 205 203 203 202 200 199 198 197 195 194 193 191 190 188 187 185 183 181 180 177 175 174 171 169 167 164 162 160 157 154 152 149 146 144 141 138 135 132 129 127 127 127 127 127 127 127 127 127 127 127 127 127 127 127 127 127 127 127 127 127 127 127 127 127 127 127 127 127 127 127 127 127 0 0 0 0 0 0 0 0 0 0 0 0 0 0 0 0 0 0 0 0 0 0 0 0 0 0 0 0 0 0 0 0 0 0 0 0 0 0 0 0 0 0 0 0 0 0 0 0 0 0 0 0 0 0 0 0 0 0 0 0 0 127 127 127 127 127 127 127 127 127 127 127 127 127 127 127 127 127 127 127 127 127 127 127 127 127 127 127 127 127 127 127 127 127 127 127 127 120 117 114 112 109 106 103 100 98 95 93 90 88 86 84 81 80 77 75 74 72 70 68 67 65 64 62 61 60 58 57 56 55 54 52 51 50 49 48 48 47 46 45 44 43 43 42 41 40 40 39 39 38 37 44 88 125 128 128 128 128 128 129 131 133 135 138 140 142 144 146 148 150 152 154 156 158 160 162 164 166 167 169 171 172 174 176 177 179 180 181 183 184 185 186 188 189 190 191 192 193 194 196 196 197 198 199 200 201 202 203 203 204 201 173 134 128 128 128 128 128 128 128 128 128 128 126 123 120 117 114 112 109 106 103 100 98 95 93 90 88 86 84 81 80 77 75 74 72 70 68 67 65 64 62 61 60 58 57 56 55 54 52 51 50 49 48 48 47 46 45 44 43 43 42 41 40 40 39 39 38 37 44 88 125 128 128 128 128 128
128 128 128 128 128 128 157 217 216 216 215 215 214 213 213 212 211 210 210 209 208 207 206 205 204 203 202 201 200 199 198 197 195 194 193 191 190 188 187 185 183 182 180 178 176 174 172 170 168 166 163 161 159 156 154 151 148 146 143 140 137 135 132 129 128 128 128 128 128 128 128 128 128 128 121 57 49 50 51 51 52 53 54 55 56 57 57 58 59 60 61 63 64 65 66 67 69 70 71 73 74 76 77 79 80 82 83 85 87 88 90 92 94 96 98 100 102 104 106 108 111 113 115 117 120 122 124 126 128 128 128 128 128 128 157 217 216 216 215 215 214 213 213 212 211 210 210 209 208 207 206 205 204 203 202 201 200 199 198 197 195 194 193 191 190 188 187 185 183 182 180 178 176 174 172 170 168 166 163 161 159 156 154 151 148 146 143 140 137 135 132 129 127 127 127 127 127 127 127 127 127 127 127 127 127 127 127 127 127 127 127 127 127 127 127 127 127 127 127 127 127 127 127 127 127 0 0 0 0 0 0 0 0 0 0 0 0 0 0 0 0 0 0 0 0 0 0 0 0 0 0 0 0 0 0 0 0 0 0 0 0 0 0 0 0 0 0 0 0 0 0 0 0 0 0 0 0 0 0 0 0 0 0 0 0 0 127 127 127 127 127 127 127 127 127 127 127 127 127 127 127 127 127 127 127 127 127 127 127 127 127 127 127 127 127 127 127 127 127 127 127 127 120 118 115 112 109 107 104 101 99 96 94 92 89 87 85 83 81 79 77 75 73 72 70 68 67 65 64 62 61 60 58 57 56 55 54 53 52 51 50 49 48 47 46 45 45 44 43 42 42 41 40 40 39 39 56 115 127 128 128 128 128 128 129 131 133 135 138 140 142 144 147 149 151 153 155 157 159 161 163 165 166 168 170 172 173 175 176 178 179 181 182 184 185 187 188 189 190 191 192 193 194 195 197 198 199 199 200 201 202 203 204 205 205 206 200 155 130 128 128 128 128 128 128 128 128 128 126 123 120 118 115 112 109 107 104 101 99 96 94 92 89 87 85 83 81 79 77 75 73 72 70 68 67 65 64 62 61 60 58 57 56 55 54 53 52 51 50 49 48 47 46 45 45 44 43 42 42 41 40 40 39 39 56 115 127 128 128 128 128 128
128 128 128 128 128 128 129 197 215 215 214 214 213 212 211 211 210 209 208 208 207 206 205 204 203 202 201 200 199 198 196 195 194 192 191 190 188 187 185 184 182 180 179 177 175 173 171 169 167 165 162 160 157 155 153 150 148 145 142 140 137 134 132 129 128 128 128 128 128 128 128 128 128 128 79 47 48 49 50 50 51 52 53 54 54 55 56 57 58 59 61 61 63 64 65 66 67 69 70 71 73 74 76 77 79 81 82 84 86 87 89 91 93 95 97 99 101 104 106 108 110 112 115 117 119 122 124 126 128 128 128 128 128 128 129 197 215 215 214 214 213 212 211 211 210 209 208 208 207 206 205 204 203 202 201 200 199 198 196 195 194 192 191 190 188 187 185 184 182 180 179 177 175 173 171 169 167 165 162 160 157 155 153 150 148 145 142 140 137 134 132 129 127 127 127 127 127 127 127 127 127 127 127 127 127 127 127 127 127 127 127 127 127 127 127 127 127 127 127 127 127 127 127 127 127 0 0 0 0 0 0 0 0 0 0 0 0 0 0 0 0 0 0 0 0 0 0 0 0 0 0 0 0 0 0 0 0 0 0 0 0 0 0 0 0 0 0 0 0 0 0 0 0 0 0 0 0 0 0 0 0 0 0 0 0 0 127 127 127 127 127 127 127 127 127 127 127 127 127 127 127 127 127 127 127 127 127 127 127 127 127 127 127 127 127 127 127 127 127 127 127 127 121 118 115 113 110 107 105 102 100 97 95 93 90 88 86 84 82 80 78 76 75 73 71 70 68 67 65 64 62 61 60 59 57 56 55 54 53 52 51 50 49 49 47 47 46 45 44 44 43 42 42 41 40 46 89 125 128 128 128 128 128 128 129 131 133 136 138 140 143 145 147 149 151 154 156 158 160 162 164 166 167 169 171 173 174 176 178 179 181 182 184 185 186 188 188 190 191 192 194 195 196 197 198 199 200 201 201 203 203 204 205 206 206 207 207 191 141 129 128 128 128 128 128 128 128 128 126 124 121 118 115 113 110 107 105 102 100 97 95 93 90 88 86 84 82 80 78 76 75 73 71 70 68 67 65 64 62 61 60 59 57 56 55 54 53 52 51 50 49 49 47 47 46 45 44 44 43 42 42 41 40 46 89 125 128 128 128 128 128 128
128 128 128 128 128 128 128 152 214 214 213 212 212 211 210 210 209 208 207 206 205 204 203 203 202 201 199 199 197 196 195 194 192 191 190 188 187 185 184 182 181 179 177 175 174 172 170 168 166 164 161 159 157 154 152 150 147 145 142 139 137 134 131 129 128 128 128 128 128 128 128 128 128 106 45 46 47 47 48 49 50 51 51 52 53 54 55 56 57 58 59 60 61 63 64 65 66 68 69 70 72 73 75 76 78 79 81 83 85 87 88 90 92 94 96 99 101 103 105 107 110 112 114 117 119 121 124 126 128 128 128 128 128 128 128 152 214 214 213 212 212 211 210 210 209 208 207 206 205 204 203 203 202 201 199 199 197 196 195 194 192 191 190 188 187 185 184 182 181 179 177 175 174 172 170 168 166 164 161 159 157 154 152 150 147 145 142 139 137 134 131 129 127 127 127 127 127 127 127 127 127 127 127 127 127 127 127 127 127 127 127 127 127 127 127 127 127 127 127 127 127 127 127 127 127 0 0 0 0 0 0 0 0 0 0 0 0 0 0 0 0 0 0 0 0 0 0 0 0 0 0 0 0 0 0 0 0 0 0 0 0 0 0 0 0 0 0 0 0 0 0 0 0 0 0 0 0 0 0 0 0 0 0 0 0 0 127 127 127 127 127 127 127 127 127 127 127 127 127 127 127 127 127 127 127 127 127 127 127 127 127 127 127 127 127 127 127 127 127 127 127 127 121 118 116 113 111 108 105 103 101 98 96 94 91 89 87 85 83 81 79 78 76 74 73 71 69 68 67 65 64 63 61 60 59 58 56 56 54 53 52 52 50 50 49 48 47 46 46 45 44 43 43 42 42 59 116 127 128 128 128 128 128 128 129 131 134 136 138 141 143 145 148 150 152 154 157 159 161 163 165 167 168 170 172 174 175 177 179 180 182 183 185 186 187 189 190 191 192 193 195 196 197 198 199 200 201 202 202 203 204 205 206 207 207 208 209 206 174 134 128 128 128 128 128 128 128 128 126 123 121 118 116 113 111 108 105 103 101 98 96 94 91 89 87 85 83 81 79 78 76 74 73 71 69 68 67 65 64 63 61 60 59 58 56 56 54 53 52 52 50 50 49 48 47 46 46 45 44 43 43 42 42 59 116 127 128 128 128 128 128 128
128 128 128 128 128 128 128 128 189 213 212 211 211 210 209 208 207 207 206 205 204 203 202 201 200 199 198 197 196 195 194 192 191 190 189 187 186 184 183 181 179 178 176 174 172 170 169 167 165 163 160 158 156 154 151 149 146 144 141 139 136 134 131 129 128 128 128 128 128 128 128 128 125 57 44 45 46 47 47 48 49 50 50 51 52 53 54 55 56 57 58 59 60 61 63 64 65 66 68 69 71 72 73 75 77 78 80 82 84 86 87 89 91 93 95 98 100 102 105 107 109 111 114 116 119 121 124 126 128 128 128 128 128 128 128 128 189 213 212 211 211 210 209 208 207 207 206 205 204 203 202 201 200 199 198 197 196 195 194 192 191 190 189 187 186 184 183 181 179 178 176 174 172 170 169 167 165 163 160 158 156 154 151 149 146 144 141 139 136 134 131 129 127 127 127 127 127 127 127 127 127 127 127 127 127 127 127 127 127 127 127 127 127 127 127 127 127 127 127 127 127 127 127 127 127 0 0 0 0 0 0 0 0 0 0 0 0 0 0 0 0 0 0 0 0 0 0 0 0 0 0 0 0 0 0 0 0 0 0 0 0 0 0 0 0 0 0 0 0 0 0 0 0 0 0 0 0 0 0 0 0 0 0 0 0 0 127 127 127 127 127 127 127 127 127 127 127 127 127 127 127 127 127 127 127 127 127 127 127 127 127 127 127 127 127 127 127 127 127 127 127 127 121 118 116 113 111 109 106 104 102 99 97 95 92 90 88 86 84 83 81 79 77 76 74 72 71 69 68 66 65 64 63 61 60 59 58 57 56 55 54 53 52 51 50 49 48 47 47 46 45 45 44 43 50 95 125 128 128 128 128 128 128 128 129 131 134 136 139 141 144 146 148 151 153 155 157 160 161 164 166 168 169 171 173 175 176 178 180 182 183 184 186 187 189 190 191 192 194 195 196 197 198 199 200 201 202 203 204 205 206 206 207 208 209 209 210 210 202 151 130 128 128 128 128 128 128 128 126 124 121 118 116 113 111 109 106 104 102 99 97 95 92 90 88 86 84 83 81 79 77 76 74 72 71 69 68 66 65 64 63 61 60 59 58 57 56 55 54 53 52 51 50 49 48 47 47 46 45 45 44 43 50 95 125 128 128 128 128 128 128 128
128 128 128 128 128 128 128 128 142 208 210 210 209 209 208 207 206 206 205 204 203 202 201 200 199 198 197 196 195 194 192 191 190 189 187 186 184 183 182 180 178 176 175 173 171 169 168 166 164 161 160 157 155 153 151 148 146 144 141 139 136 134 131 129 128 128 128 128 128 128 128 128 94 42 43 44 45 45 46 47 47 48 49 50 51 52 53 54 55 56 57 58 59 60 61 63 64 65 66 68 69 71 72 74 76 77 79 81 83 84 86 88 90 92 95 97 99 102 104 106 109 111 113 116 118 121 124 126 128 128 128 128 128 128 128 128 142 208 210 210 209 209 208 207 206 206 205 204 203 202 201 200 199 198 197 196 195 194 192 191 190 189 187 186 184 183 182 180 178 176 175 173 171 169 168 166 164 161 160 157 155 153 151 148 146 144 141 139 136 134 131 129 127 127 127 127 127 127 127 127 127 127 127 127 127 127 127 127 127 127 127 127 127 127 127 127 127 127 127 127 127 127 127 127 127 0 0 0 0 0 0 0 0 0 0 0 0 0 0 0 0 0 0 0 0 0 0 0 0 0 0 0 0 0 0 0 0 0 0 0 0 0 0 0 0 0 0 0 0 0 0 0 0 0 0 0 0 0 0 0 0 0 0 0 0 0 127 127 127 127 127 127 127 127 127 127 127 127 127 127 127 127 127 127 127 127 127 127 127 127 127 127 127 127 127 127 127 127 127 127 127 127 121 119 116 114 111 109 107 105 102 100 98 95 93 91 89 87 86 84 82 80 78 77 75 73 72 71 69 68 66 65 64 63 61 60 59 58 57 56 55 54 53 52 51 50 50 49 48 47 47 46 45 46 68 120 128 128 128 128 128 128 128 128 129 131 134 136 139 141 144 146 149 151 154 156 158 160 163 165 167 169 170 172 174 176 178 179 181 183 184 186 187 189 190 191 192 194 195 196 197 198 199 200 201 202 203 204 205 206 207 207 208 209 210 211 211 212 211 186 136 128 128 128 128 128 128 128 126 124 121 119 116 114 111 109 107 105 102 100 98 95 93 91 89 87 86 84 82 80 78 77 75 73 72 71 69 68 66 65 64 63 61 60 59 58 57 56 55 54 53 52 51 50 50 49 48 47 47 46 45 46 68 120 128 128 128 128 128 128 128 128
128 128 128 128 128 128 128 128 128 173 210 209 208 207 207 206 205 204 203 202 202 201 200 199 198 197 196 195 193 192 191 190 189 187 186 185 183 182 180 179 177 175 174 172 170 168 167 165 163 161 159 157 154 152 150 148 145 143 141 138 136 134 131 129 128 128 128 128 128 128 128 121 44 41 42 43 43 44 45 46 46 47 48 49 50 50 52 52 53 54 56 56 58 59 60 61 63 64 65 67 68 69 71 73 74 76 78 79 81 83 85 87 89 91 94 96 98 101 103 105 108 111 113 116 118 121 123 126 128 128 128 128 128 128 128 128 128 173 210 209 208 207 207 206 205 204 203 202 202 201 200 199 198 197 196 195 193 192 191 190 189 187 186 185 183 182 180 179 177 175 174 172 170 168 167 165 163 161 159 157 154 152 150 148 145 143 141 138 136 134 131 129 127 127 127 127 127 127 127 127 127 127 127 127 127 127 127 127 127 127 127 127 127 127 127 127 127 127 127 127 127 127 127 127 127 0 0 0 0 0 0 0 0 0 0 0 0 0 0 0 0 0 0 0 0 0 0 0 0 0 0 0 0 0 0 0 0 0 0 0 0 0 0 0 0 0 0 0 0 0 0 0 0 0 0 0 0 0 0 0 0 0 0 0 0 0 127 127 127 127 127 127 127 127 127 127 127 127 127 127 127 127 127 127 127 127 127 127 127 127 127 127 127 127 127 127 127 127 127 127 127 127 121 119 117 114 112 110 107 105 103 101 99 96 94 92 90 88 87 85 83 81 79 78 76 75 73 72 70 69 68 66 65 64 63 61 60 59 58 57 56 55 54 53 52 51 51 50 49 48 47 47 46 56 104 126 128 128 128 128 128 128 128 128 129 131 134 137 139 142 145 147 150 152 154 157 159 161 164 166 168 170 172 174 175 177 179 181 182 184 185 187 188 190 191 192 194 195 196 197 199 199 201 202 203 203 204 205 206 207 208 209 210 210 211 212 212 213 214 208 159 131 128 128 128 128 128 128 126 124 121 119 117 114 112 110 107 105 103 101 99 96 94 92 90 88 87 85 83 81 79 78 76 75 73 72 70 69 68 66 65 64 63 61 60 59 58 57 56 55 54 53 52 51 51 50 49 48 47 47 46 56 104 126 128 128 128 128 128 128 128 128
128 128 128 128 128 128 128 128 128 131 196 208 207 206 206 205 204 203 203 201 201 200 199 198 197 196 195 194 192 191 190 188 188 186 185 184 182 181 179 178 176 174 173 171 169 167 166 164 162 160 158 156 154 151 149 147 145 143 140 138 136 133 131 129 128 128 128 128 128 128 128 86 40 40 41 42 42 43 44 44 45 46 47 47 49 49 50 51 52 53 54 55 56 57 59 60 61 62 64 65 67 68 70 71 73 75 76 78 80 82 84 86 88 90 93 95 97 100 102 105 107 110 113 115 118 121 124 126 128 128 128 128 128 128 128 128 128 131 196 208 207 206 206 205 204 203 203 201 201 200 199 198 197 196 195 194 192 191 190 188 188 186 185 184 182 181 179 178 176 174 173 171 169 167 166 164 162 160 158 156 154 151 149 147 145 143 140 138 136 133 131 129 127 127 127 127 127 127 127 127 127 127 127 127 127 127 127 127 127 127 127 127 127 127 127 127 127 127 127 127 127 127 127 127 127 0 0 0 0 0 0 0 0 0 0 0 0 0 0 0 0 0 0 0 0 0 0 0 0 0 0 0 0 0 0 0 0 0 0 0 0 0 0 0 0 0 0 0 0 0 0 0 0 0 0 0 0 0 0 0 0 0 0 0 0 0 127 127 127 127 127 127 127 127 127 127 127 127 127 127 127 127 127 127 127 127 127 127 127 127 127 127 127 127 127 127 127 127 127 127 127 127 122 119 117 115 112 110 108 106 104 101 99 97 95 93 91 89 87 86 84 82 81 79 77 76 74 73 71 70 69 67 66 65 64 63 61 61 59 58 57 56 55 54 54 53 52 51 50 50 49 48 52 84 124 128 128 128 128 128 128 128 128 128 129 132 134 137 140 142 145 148 150 153 155 157 160 162 165 167 169 171 173 175 177 179 180 182 184 185 187 188 190 191 192 194 195 196 198 199 200 201 202 203 204 205 206 207 208 208 209 210 211 211 212 213 214 214 215 213 193 138 128 128 128 128 128 128 126 124 122 119 117 115 112 110 108 106 104 101 99 97 95 93 91 89 87 86 84 82 81 79 77 76 74 73 71 70 69 67 66 65 64 63 61 61 59 58 57 56 55 54 54 53 52 51 50 50 49 48 52 84 124 128 128 128 128 128 128 128 128 128
128 128 128 128 128 128 128 128 128 128 149 205 206 205 205 204 203 202 201 200 199 199 198 197 195 194 193 192 191 190 189 188 187 185 184 182 181 179 178 176 175 173 172 170 168 166 165 163 161 159 157 155 153 151 149 147 144 142 140 138 135 133 131 129 128 128 128 128 128 128 120 41 38 39 40 40 41 42 42 43 44 45 45 46 47 48 49 50 51 52 53 54 55 56 57 58 60 61 62 64 65 67 68 70 72 73 75 77 79 81 83 85 87 89 92 94 96 99 101 104 107 109 112 115 118 120 123 126 128 128 128 128 128 128 128 128 128 128 149 205 206 205 205 204 203 202 201 200 199 199 198 197 195 194 193 192 191 190 189 188 187 185 184 182 181 179 178 176 175 173 172 170 168 166 165 163 161 159 157 155 153 151 149 147 144 142 140 138 135 133 131 129 127 127 127 127 127 127 127 127 127 127 127 127 127 127 127 127 127 127 127 127 127 127 127 127 127 127 127 127 127 127 127 127 127 0 0 0 0 0 0 0 0 0 0 0 0 0 0 0 0 0 0 0 0 0 0 0 0 0 0 0 0 0 0 0 0 0 0 0 0 0 0 0 0 0 0 0 0 0 0 0 0 0 0 0 0 0 0 0 0 0 0 0 0 0 127 127 127 127 127 127 127 127 127 127 127 127 127 127 127 127 127 127 127 127 127 127 127 127 127 127 127 127 127 127 127 127 127 127 127 127 122 120 117 115 113 111 108 106 104 102 100 98 96 94 92 90 88 87 85 83 82 80 79 77 76 74 73 71 70 69 67 66 65 64 63 61 60 59 58 57 57 56 55 54 53 52 51 51 50 50 68 116 127 128 128 128 128 128 128 128 128 128 129 132 135 137 140 143 146 148 151 154 156 159 161 163 166 168 170 172 174 176 178 180 182 183 185 187 188 190 191 193 194 195 197 198 199 200 201 202 203 204 205 206 207 208 209 210 210 211 212 213 213 214 215 215 216 216 212 163 131 128 128 128 128 128 126 124 122 120 117 115 113 111 108 106 104 102 100 98 96 94 92 90 88 87 85 83 82 80 79 77 76 74 73 71 70 69 67 66 65 64 63 61 60 59 58 57 57 56 55 54 53 52 51 51 50 50 68 116 127 128 128 128 128 128 128 128 128 128
128 128 128 128 128 128 128 128 128 128 128 173 205 204 203 203 202 201 200 199 198 197 196 196 194 193 192 191 190 189 188 186 185 184 183 181 180 179 177 176 174 172 171 169 167 166 164 162 160 158 156 154 152 150 148 146 144 142 140 138 135 133 131 129 128 128 128 128 128 128 86 37 37 38 39 39 40 40 41 42 43 43 44 45 46 47 48 48 49 50 51 52 54 55 56 57 58 60 61 62 64 65 67 68 70 72 74 75 77 80 81 84 86 88 90 93 95 98 100 103 106 109 112 114 117 120 123 126 128 128 128 128 128 128 128 128 128 128 128 173 205 204 203 203 202 201 200 199 198 197 196 196 194 193 192 191 190 189 188 186 185 184 183 181 180 179 177 176 174 172 171 169 167 166 164 162 160 158 156 154 152 150 148 146 144 142 140 138 135 133 131 129 127 127 127 127 127 127 127 127 127 127 127 127 127 127 127 127 127 127 127 127 127 127 127 127 127 127 127 127 127 127 127 127 127 0 0 0 0 0 0 0 0 0 0 0 0 0 0 0 0 0 0 0 0 0 0 0 0 0 0 0 0 0 0 0 0 0 0 0 0 0 0 0 0 0 0 0 0 0 0 0 0 0 0 0 0 0 0 0 0 0 0 0 0 0 127 127 127 127 127 127 127 127 127 127 127 127 127 127 127 127 127 127 127 127 127 127 127 127 127 127 127 127 127 127 127 127 127 127 127 127 122 120 117 115 113 111 109 107 105 103 101 99 97 95 93 91 89 88 86 84 83 81 80 78 77 75 74 72 71 70 68 67 66 65 64 63 62 61 59 59 58 57 56 55 54 53 53 52 51 60 103 126 128 128 128 128 128 128 128 128 128 128 129 132 135 138 141 144 146 149 152 154 157 160 162 164 167 169 171 174 175 177 180 181 183 185 187 188 190 191 193 194 195 197 198 199 200 202 203 203 205 206 207 208 208 209 210 211 212 212 213 214 215 215 216 217 217 218 216 195 138 128 128 128 128 128 126 124 122 120 117 115 113 111 109 107 105 103 101 99 97 95 93 91 89 88 86 84 83 81 80 78 77 75 74 72 71 70 68 67 66 65 64 63 62 61 59 59 58 57 56 55 54 53 53 52 51 60 103 126 128 128 128 128 128 128 128 128 128 128
128 128 128 128 128 128 128 128 128 128 128 131 189 203 202 202 201 200 199 198 197 196 195 194 193 192 191 190 189 188 187 185 184 183 182 180 179 178 176 174 173 171 170 168 166 165 163 161 159 158 156 154 152 150 148 146 143 141 139 137 135 133 131 129 128 128 128 128 128 122 39 36 36 37 37 38 39 39 40 41 41 42 43 44 44 45 46 47 48 49 50 51 52 53 54 56 57 58 59 61 62 64 65 67 69 70 72 74 76 78 80 82 85 87 89 92 94 97 100 102 105 108 111 114 117 120 123 126 128 128 128 128 128 128 128 128 128 128 128 131 189 203 202 202 201 200 199 198 197 196 195 194 193 192 191 190 189 188 187 185 184 183 182 180 179 178 176 174 173 171 170 168 166 165 163 161 159 158 156 154 152 150 148 146 143 141 139 137 135 133 131 129 127 127 127 127 127 127 127 127 127 127 127 127 127 127 127 127 127 127 127 127 127 127 127 127 127 127 127 127 127 127 127 127 127 0 0 0 0 0 0 0 0 0 0 0 0 0 0 0 0 0 0 0 0 0 0 0 0 0 0 0 0 0 0 0 0 0 0 0 0 0 0 0 0 0 0 0 0 0 0 0 0 0 0 0 0 0 0 0 0 0 0 0 0 0 127 127 127 127 127 127 127 127 127 127 127 127 127 127 127 127 127 127 127 127 127 127 127 127 127 127 127 127 127 127 127 127 127 127 127 127 122 120 118 116 114 111 109 107 105 103 101 99 98 96 94 92 91 89 87 85 84 82 81 79 78 76 75 73 72 71 69 68 67 66 65 64 63 62 61 60 59 58 57 56 55 54 54 53 57 89 124 128 128 128 128 128 128 128 128 128 128 128 129 132 135 138 141 144 147 150 153 155 158 161 163 166 168 170 173 175 177 179 181 183 185 186 188 190 191 193 194 196 197 198 200 201 202 203 204 205 206 207 208 209 210 211 211 212 213 214 214 215 216 216 217 218 218 219 219 213 160 131 128 128 128 128 126 124 122 120 118 116 114 111 109 107 105 103 101 99 98 96 94 92 91 89 87 85 84 82 81 79 78 76 75 73 72 71 69 68 67 66 65 64 63 62 61 60 59 58 57 56 55 54 54 53 57 89 124 128 128 128 128 128 128 128 128 128 128 128
128 128 128 128 128 128 128 128 128 128 128 128 141 198 201 201 200 199 198 197 196 195 194 194 192 191 190 189 188 187 186 184 183 182 181 179 178 176 175 173 172 171 169 167 166 164 162 160 159 157 155 153 151 149 147 145 143 141 139 137 135 133 131 129 128 128 128 128 128 91 34 35 35 36 36 37 37 38 38 39 40 41 41 42 43 44 45 46 46 47 48 50 51 52 53 54 55 57 58 59 61 62 64 65 67 69 71 73 74 77 79 81 83 86 88 91 93 96 98 101 104 107 110 113 116 120 123 126 128 128 128 128 128 128 128 128 128 128 128 128 141 198 201 201 200 199 198 197 196 195 194 194 192 191 190 189 188 187 186 184 183 182 181 179 178 176 175 173 172 171 169 167 166 164 162 160 159 157 155 153 151 149 147 145 143 141 139 137 135 133 131 129 127 127 127 127 127 127 127 127 127 127 127 127 127 127 127 127 127 127 127 127 127 127 127 127 127 127 127 127 127 127 127 127 127 0 0 0 0 0 0 0 0 0 0 0 0 0 0 0 0 0 0 0 0 0 0 0 0 0 0 0 0 0 0 0 0 0 0 0 0 0 0 0 0 0 0 0 0 0 0 0 0 0 0 0 0 0 0 0 0 0 0 0 0 0 127 127 127 127 127 127 127 127 127 127 127 127 127 127 127 127 127 127 127 127 127 127 127 127 127 127 127 127 127 127 127 127 127 127 127 127 122 120 118 116 114 112 110 108 106 104 102 100 98 97 95 93 91 89 88 86 85 83 81 80 79 77 76 75 73 72 70 69 68 67 66 65 64 63 62 61 60 59 58 57 56 55 54 56 77 120 128 128 128 128 128 128 128 128 128 128 128 128 129 132 136 139 142 145 148 151 154 157 159 162 164 167 169 172 174 176 178 181 183 184 186 188 190 191 193 194 196 197 199 200 201 202 203 204 205 206 208 208 209 210 211 212 213 213 214 215 216 216 217 218 218 219 219 220 221 219 192 136 128 128 128 128 127 124 122 120 118 116 114 112 110 108 106 104 102 100 98 97 95 93 91 89 88 86 85 83 81 80 79 77 76 75 73 72 70 69 68 67 66 65 64 63 62 61 60 59 58 57 56 55 54 56 77 120 128 128 128 128 128 128 128 128 128 128 128 128
128 128 128 128 128 128 128 128 128 128 128 128 128 154 199 199 199 198 197 196 195 194 193 192 191 190 189 188 187 186 185 183 182 181 180 178 177 175 174 172 171 169 168 166 165 163 161 160 158 156 154 152 151 149 147 145 143 141 139 137 135 133 131 129 128 128 128 128 125 48 33 33 34 34 35 35 36 37 37 38 39 39 40 41 42 42 43 44 45 46 47 48 49 50 51 52 54 55 56 58 59 60 62 64 65 67 69 71 73 75 77 79 82 84 86 89 92 95 97 100 104 106 109 113 116 119 122 126 128 128 128 128 128 128 128 128 128 128 128 128 128 154 199 199 199 198 197 196 195 194 193 192 191 190 189 188 187 186 185 183 182 181 180 178 177 175 174 172 171 169 168 166 165 163 161 160 158 156 154 152 151 149 147 145 143 141 139 137 135 133 131 129 127 127 127 127 127 127 127 127 127 127 127 127 127 127 127 127 127 127 127 127 127 127 127 127 127 127 127 127 127 127 127 127 127 0 0 0 0 0 0 0 0 0 0 0 0 0 0 0 0 0 0 0 0 0 0 0 0 0 0 0 0 0 0 0 0 0 0 0 0 0 0 0 0 0 0 0 0 0 0 0 0 0 0 0 0 0 0 0 0 0 0 0 0 0 127 127 127 127 127 127 127 127 127 127 127 127 127 127 127 127 127 127 127 127 127 127 127 127 127 127 127 127 127 127 127 127 127 127 127 127 122 120 118 116 114 112 110 108 106 105 103 101 99 97 95 94 92 90 89 87 85 84 82 81 80 78 77 75 74 73 72 70 69 68 67 66 65 64 63 62 61 60 59 58 57 56 57 70 114 127 128 128 128 128 128 128 128 128 128 128 128 128 129 133 136 139 142 145 149 152 155 157 160 163 166 169 171 173 176 178 180 182 184 186 188 190 191 193 194 196 197 199 200 201 203 204 205 206 207 208 209 210 211 212 213 213 214 215 216 216 217 218 218 219 220 220 221 221 222 222 214 152 130 128 128 128 127 124 122 120 118 116 114 112 110 108 106 105 103 101 99 97 95 94 92 90 89 87 85 84 82 81 80 78 77 75 74 73 72 70 69 68 67 66 65 64 63 62 61 60 59 58 57 56 57 70 114 127 128 128 128 128 128 128 128 128 128 128 128 128
128 128 128 128 128 128 128 128 128 128 128 128 128 128 167 198 198 197 196 195 194 193 192 191 190 189 188 187 186 185 184 182 181 180 179 177 176 175 173 171 170 169 167 166 164 162 161 159 157 156 154 152 150 148 146 144 142 140 139 137 134 133 130 129 128 128 128 128 106 31 31 32 32 33 34 34 35 35 36 37 37 38 39 39 40 41 42 43 44 45 46 46 48 48 50 51 52 53 55 56 57 59 61 62 64 66 67 69 71 73 76 78 80 83 85 88 91 93 96 99 102 106 109 112 116 119 122 126 128 128 128 128 128 128 128 128 128 128 128 128 128 128 167 198 198 197 196 195 194 193 192 191 190 189 188 187 186 185 184 182 181 180 179 177 176 175 173 171 170 169 167 166 164 162 161 159 157 156 154 152 150 148 146 144 142 140 139 137 134 133 130 129 127 127 127 127 127 127 127 127 127 127 127 127 127 127 127 127 127 127 127 127 127 127 127 127 127 127 127 127 127 127 127 127 127 0 0 0 0 0 0 0 0 0 0 0 0 0 0 0 0 0 0 0 0 0 0 0 0 0 0 0 0 0 0 0 0 0 0 0 0 0 0 0 0 0 0 0 0 0 0 0 0 0 0 0 0 0 0 0 0 0 0 0 0 0 127 127 127 127 127 127 127 127 127 127 127 127 127 127 127 127 127 127 127 127 127 127 127 127 127 127 127 127 127 127 127 127 127 127 127 127 123 121 119 117 115 113 111 109 107 105 103 101 100 98 96 94 93 91 89 88 86 85 83 82 80 79 78 76 75 74 73 71 70 69 68 67 66 65 64 63 62 61 60 59 58 58 67 106 126 128 128 128 128 128 128 128 128 128 128 128 128 128 129 133 136 139 143 146 149 153 156 159 161 164 167 170 172 175 177 179 182 184 186 188 189 191 193 194 196 197 199 200 202 203 204 205 207 207 209 209 211 212 212 213 214 215 215 216 217 218 218 219 220 220 221 221 222 222 223 224 221 183 134 128 128 128 127 124 123 121 119 117 115 113 111 109 107 105 103 101 100 98 96 94 93 91 89 88 86 85 83 82 80 79 78 76 75 74 73 71 70 69 68 67 66 65 64 63 62 61 60 59 58 58 67 106 126 128 128 128 128 128 128 128 128 128 128 128 128 128
128 128 128 128 128 128 128 128 128 128 128 128 128 128 129 176 197 196 195 194 193 192 191 190 189 188 187 186 185 184 183 181 180 179 178 176 175 174 172 171 169 168 166 165 163 162 160 158 156 155 153 151 149 148 146 144 142 140 138 136 134 133 130 129 128 128 128 128 67 30 30 31 31 32 32 33 33 34 35 35 36 37 37 38 39 40 40 41 42 43 44 45 46 47 48 49 50 52 53 54 56 57 59 60 62 64 66 68 70 72 74 76 79 81 84 86 89 92 95 98 101 105 108 111 115 119 122 126 128 128 128 128 128 128 128 128 128 128 128 128 128 128 129 176 197 196 195 194 193 192 191 190 189 188 187 186 185 184 183 181 180 179 178 176 175 174 172 171 169 168 166 165 163 162 160 158 156 155 153 151 149 148 146 144 142 140 138 136 134 133 130 129 127 127 127 127 127 127 127 127 127 127 127 127 127 127 127 127 127 127 127 127 127 127 127 127 127 127 127 127 127 127 127 127 127 0 0 0 0 0 0 0 0 0 0 0 0 0 0 0 0 0 0 0 0 0 0 0 0 0 0 0 0 0 0 0 0 0 0 0 0 0 0 0 0 0 0 0 0 0 0 0 0 0 0 0 0 0 0 0 0 0 0 0 0 0 127 127 127 127 127 127 127 127 127 127 127 127 127 127 127 127 127 127 127 127 127 127 127 127 127 127 127 127 127 127 127 127 127 127 127 127 123 121 119 117 115 113 111 109 107 105 104 102 100 98 97 95 93 92 90 89 87 86 84 83 81 80 79 77 76 75 74 73 71 70 69 68 67 66 65 64 63 62 61 60 59 65 98 125 128 128 128 128 128 128 128 128 128 128 128 128 128 128 129 133 136 140 144 147 150 154 157 160 163 166 169 171 174 176 179 181 183 185 187 189 191 193 195 196 198 199 201 202 203 205 206 207 208 209 210 211 212 213 214 215 216 216 217 218 218 219 220 220 221 222 222 223 223 224 224 225 224 209 141 128 128 128 127 125 123 121 119 117 115 113 111 109 107 105 104 102 100 98 97 95 93 92 90 89 87 86 84 83 81 80 79 77 76 75 74 73 71 70 69 68 67 66 65 64 63 62 61 60 59 65 98 125 128 128 128 128 128 128 128 128 128 128 128 128 128 128
128 128 128 128 128 128 128 128 128 128 128 128 128 128 128 131 180 195 194 193 192 191 190 189 188 187 186 185 184 183 182 180 179 178 177 175 174 173 171 170 169 167 165 164 162 161 159 158 156 154 153 151 149 147 145 143 142 140 138 136 134 132 130 128 128 128 128 121 31 29 29 30 30 30 31 31 32 33 33 34 35 35 36 37 37 38 39 40 40 41 42 43 44 45 46 48 49 50 51 52 54 55 57 59 60 62 64 66 68 70 72 74 77 79 82 85 88 91 94 97 100 104 107 111 114 118 122 126 128 128 128 128 128 128 128 128 128 128 128 128 128 128 128 131 180 195 194 193 192 191 190 189 188 187 186 185 184 183 182 180 179 178 177 175 174 173 171 170 169 167 165 164 162 161 159 158 156 154 153 151 149 147 145 143 142 140 138 136 134 132 130 128 127 127 127 127 127 127 127 127 127 127 127 127 127 127 127 127 127 127 127 127 127 127 127 127 127 127 127 127 127 127 127 127 127 0 0 0 0 0 0 0 0 0 0 0 0 0 0 0 0 0 0 0 0 0 0 0 0 0 0 0 0 0 0 0 0 0 0 0 0 0 0 0 0 0 0 0 0 0 0 0 0 0 0 0 0 0 0 0 0 0 0 0 0 0 127 127 127 127 127 127 127 127 127 127 127 127 127 127 127 127 127 127 127 127 127 127 127 127 127 127 127 127 127 127 127 127 127 127 127 127 123 121 119 117 115 113 112 110 108 106 104 102 101 99 98 96 94 93 91 89 88 87 85 84 82 81 80 78 77 76 74 73 72 71 70 69 68 67 66 65 64 63 62 61 66 95 124 128 128 128 128 128 128 128 128 128 128 128 128 128 128 128 129 133 137 141 144 148 151 155 158 161 164 167 170 173 176 178 181 183 185 187 189 191 193 195 196 198 200 201 203 204 205 206 208 209 210 211 212 213 214 215 215 216 217 218 219 219 220 220 221 222 222 223 223 224 224 225 226 226 227 221 164 131 128 128 127 125 123 121 119 117 115 113 112 110 108 106 104 102 101 99 98 96 94 93 91 89 88 87 85 84 82 81 80 78 77 76 74 73 72 71 70 69 68 67 66 65 64 63 62 61 66 95 124 128 128 128 128 128 128 128 128 128 128 128 128 128 128 128
128 128 128 128 128 128 128 128 128 128 128 128 128 128 128 128 134 183 193 192 191 190 189 188 187 186 185 184 183 182 181 180 178 177 176 175 173 172 170 169 168 166 165 163 162 160 159 157 155 154 152 150 148 147 145 143 141 140 138 136 134 132 130 129 128 128 128 96 27 27 28 28 28 29 30 30 31 31 32 32 33 34 34 35 36 36 37 38 39 40 41 42 43 44 45 46 47 48 49 51 52 53 55 57 58 60 62 64 66 68 70 73 75 78 80 83 86 89 92 96 99 103 106 110 114 118 122 126 128 128 128 128 128 128 128 128 128 128 128 128 128 128 128 128 134 183 193 192 191 190 189 188 187 186 185 184 183 182 181 180 178 177 176 175 173 172 170 169 168 166 165 163 162 160 159 157 155 154 152 150 148 147 145 143 141 140 138 136 134 132 130 129 127 127 127 127 127 127 127 127 127 127 127 127 127 127 127 127 127 127 127 127 127 127 127 127 127 127 127 127 127 127 127 127 127 0 0 0 0 0 0 0 0 0 0 0 0 0 0 0 0 0 0 0 0 0 0 0 0 0 0 0 0 0 0 0 0 0 0 0 0 0 0 0 0 0 0 0 0 0 0 0 0 0 0 0 0 0 0 0 0 0 0 0 0 0 127 127 127 127 127 127 127 127 127 127 127 127 127 127 127 127 127 127 127 127 127 127 127 127 127 127 127 127 127 127 127 127 127 127 127 127 123 121 119 117 115 114 112 110 108 107 105 103 101 100 98 96 95 93 92 90 89 87 86 84 83 82 80 79 78 77 76 74 73 72 71 70 69 68 67 66 64 64 63 66 91 122 128 128 128 128 128 128 128 128 128 128 128 128 128 128 128 128 129 134 137 141 145 149 152 156 159 163 166 169 172 175 177 180 182 185 187 189 191 193 195 197 199 200 202 203 204 206 207 208 209 210 211 213 213 214 215 216 217 218 219 219 220 221 221 222 222 223 224 224 225 225 226 226 227 227 228 225 193 135 128 128 127 125 123 121 119 117 115 114 112 110 108 107 105 103 101 100 98 96 95 93 92 90 89 87 86 84 83 82 80 79 78 77 76 74 73 72 71 70 69 68 67 66 64 64 63 66 91 122 128 128 128 128 128 128 128 128 128 128 128 128 128 128 128 128
128 128 128 128 128 128 128 128 128 128 128 128 128 128 128 128 128 136 183 191 190 189 188 187 186 185 184 183 182 181 180 179 177 176 175 174 172 171 170 168 167 165 164 163 161 160 158 156 155 153 151 150 148 146 145 143 141 139 138 136 134 132 130 128 128 128 128 62 26 26 27 27 27 28 28 29 29 30 31 31 32 32 33 33 34 35 36 36 37 38 39 40 41 42 43 44 45 46 47 49 50 52 53 55 56 58 60 62 64 66 68 70 73 76 78 81 84 88 91 94 98 102 105 109 113 117 121 125 128 128 128 128 128 128 128 128 128 128 128 128 128 128 128 128 128 136 183 191 190 189 188 187 186 185 184 183 182 181 180 179 177 176 175 174 172 171 170 168 167 165 164 163 161 160 158 156 155 153 151 150 148 146 145 143 141 139 138 136 134 132 130 128 127 127 127 127 127 127 127 127 127 127 127 127 127 127 127 127 127 127 127 127 127 127 127 127 127 127 127 127 127 127 127 127 127 0 0 0 0 0 0 0 0 0 0 0 0 0 0 0 0 0 0 0 0 0 0 0 0 0 0 0 0 0 0 0 0 0 0 0 0 0 0 0 0 0 0 0 0 0 0 0 0 0 0 0 0 0 0 0 0 0 0 0 0 0 127 127 127 127 127 127 127 127 127 127 127 127 127 127 127 127 127 127 127 127 127 127 127 127 127 127 127 127 127 127 127 127 127 127 127 127 123 121 119 117 116 114 112 110 109 107 105 104 102 100 99 97 95 94 93 91 89 88 87 85 84 83 81 80 79 78 76 75 74 73 72 71 70 68 68 67 66 65 68 88 121 127 128 128 128 128 128 128 128 128 128 128 128 128 128 128 128 128 130 134 138 142 146 150 154 157 161 164 168 171 174 177 180 182 184 187 189 191 193 195 197 199 200 202 204 205 206 208 209 210 211 212 213 214 215 216 217 218 219 219 220 221 221 222 223 223 224 224 225 226 226 227 227 228 228 229 229 228 215 143 128 128 126 125 123 121 119 117 116 114 112 110 109 107 105 104 102 100 99 97 95 94 93 91 89 88 87 85 84 83 81 80 79 78 76 75 74 73 72 71 70 68 68 67 66 65 68 88 121 127 128 128 128 128 128 128 128 128 128 128 128 128 128 128 128 128
128 128 128 128 128 128 128 128 128 128 128 128 128 128 128 128 128 128 136 182 190 188 187 187 185 184 183 182 181 180 179 178 177 175 174 173 172 170 169 168 166 165 163 162 160 159 157 156 154 152 151 149 147 146 144 142 141 139 137 135 134 132 130 129 128 128 121 28 24 25 25 26 26 27 27 28 28 28 29 29 30 31 31 32 33 33 34 35 36 36 37 38 39 40 41 42 43 44 46 47 48 49 51 52 54 56 58 60 62 64 66 68 71 74 76 79 82 86 89 92 96 100 104 108 112 117 121 125 128 128 128 128 128 128 128 128 128 128 128 128 128 128 128 128 128 128 136 182 190 188 187 187 185 184 183 182 181 180 179 178 177 175 174 173 172 170 169 168 166 165 163 162 160 159 157 156 154 152 151 149 147 146 144 142 141 139 137 135 134 132 130 129 127 127 127 127 127 127 127 127 127 127 127 127 127 127 127 127 127 127 127 127 127 127 127 127 127 127 127 127 127 127 127 127 127 0 0 0 0 0 0 0 0 0 0 0 0 0 0 0 0 0 0 0 0 0 0 0 0 0 0 0 0 0 0 0 0 0 0 0 0 0 0 0 0 0 0 0 0 0 0 0 0 0 0 0 0 0 0 0 0 0 0 0 0 0 127 127 127 127 127 127 127 127 127 127 127 127 127 127 127 127 127 127 127 127 127 127 127 127 127 127 127 127 127 127 127 127 127 127 127 127 123 121 120 118 116 114 113 111 109 107 106 104 102 101 99 98 96 95 93 92 90 89 87 86 85 83 82 81 80 78 77 76 75 74 73 72 71 70 68 68 66 70 89 120 127 128 128 128 128 128 128 128 128 128 128 128 128 128 128 128 128 128 130 134 139 143 147 151 155 159 163 166 169 173 176 179 182 184 187 189 191 193 196 197 199 201 202 204 205 207 208 209 211 212 213 214 215 216 217 218 219 220 220 221 222 222 223 224 224 225 225 226 227 227 227 228 229 229 229 230 230 231 225 164 131 128 127 125 123 121 120 118 116 114 113 111 109 107 106 104 102 101 99 98 96 95 93 92 90 89 87 86 85 83 82 81 80 78 77 76 75 74 73 72 71 70 68 68 66 70 89 120 127 128 128 128 128 128 128 128 128 128 128 128 128 128 128 128 128 128
128 128 128 128 128 128 128 128 128 128 128 128 128 128 128 128 128 128 128 135 178 188 187 186 185 184 183 182 180 179 178 177 176 175 173 172 171 169 168 167 166 164 163 161 160 158 157 155 154 152 150 149 147 146 144 142 140 139 137 135 133 132 130 128 128 128 102 23 23 24 24 24 25 25 26 26 27 27 28 28 29 29 30 30 31 32 32 33 34 35 35 36 37 38 39 40 41 42 44 45 46 47 49 50 52 54 55 57 59 62 64 66 69 71 74 77 80 84 87 91 95 99 103 107 112 116 120 125 128 128 128 128 128 128 128 128 128 128 128 128 128 128 128 128 128 128 128 135 178 188 187 186 185 184 183 182 180 179 178 177 176 175 173 172 171 169 168 167 166 164 163 161 160 158 157 155 154 152 150 149 147 146 144 142 140 139 137 135 133 132 130 128 127 127 127 127 127 127 127 127 127 127 127 127 127 127 127 127 127 127 127 127 127 127 127 127 127 127 127 127 127 127 127 127 127 0 0 0 0 0 0 0 0 0 0 0 0 0 0 0 0 0 0 0 0 0 0 0 0 0 0 0 0 0 0 0 0 0 0 0 0 0 0 0 0 0 0 0 0 0 0 0 0 0 0 0 0 0 0 0 0 0 0 0 0 0 127 127 127 127 127 127 127 127 127 127 127 127 127 127 127 127 127 127 127 127 127 127 127 127 127 127 127 127 127 127 127 127 127 127 127 127 123 121 120 118 116 114 113 111 110 108 106 105 103 101 100 98 97 95 94 92 91 90 88 87 86 84 83 82 80 79 78 77 75 74 73 72 71 70 69 68 72 93 121 127 128 128 128 128 128 128 128 128 128 128 128 128 128 128 128 128 128 128 130 134 139 144 148 152 156 160 164 168 172 175 178 181 184 186 189 191 193 196 198 200 201 203 205 206 208 209 210 212 213 214 215 216 217 218 219 220 220 221 222 223 223 224 225 225 226 226 227 228 228 229 229 229 230 230 231 231 231 232 229 191 135 128 127 125 123 121 120 118 116 114 113 111 110 108 106 105 103 101 100 98 97 95 94 92 91 90 88 87 86 84 83 82 80 79 78 77 75 74 73 72 71 70 69 68 72 93 121 127 128 128 128 128 128 128 128 128 128 128 128 128 128 128 128 128 128 128
128 128 128 128 128 128 128 128 128 128 128 128 128 128 128 128 128 128 128 128 133 173 186 185 184 183 182 181 180 179 177 176 175 174 173 171 170 169 167 166 165 163 162 161 159 158 156 155 153 152 150 148 147 145 144 142 140 138 137 135 133 132 130 128 128 128 77 22 22 22 23 23 23 24 24 25 25 25 26 27 27 28 28 29 29 30 31 32 32 33 34 35 35 36 37 38 39 40 41 43 44 45 47 48 50 51 53 55 57 59 61 64 66 69 72 75 78 82 85 89 93 97 101 106 110 115 120 125 128 128 128 128 128 128 128 128 128 128 128 128 128 128 128 128 128 128 128 128 133 173 186 185 184 183 182 181 180 179 177 176 175 174 173 171 170 169 167 166 165 163 162 161 159 158 156 155 153 152 150 148 147 145 144 142 140 138 137 135 133 132 130 128 127 127 127 127 127 127 127 127 127 127 127 127 127 127 127 127 127 127 127 127 127 127 127 127 127 127 127 127 127 127 127 127 127 0 0 0 0 0 0 0 0 0 0 0 0 0 0 0 0 0 0 0 0 0 0 0 0 0 0 0 0 0 0 0 0 0 0 0 0 0 0 0 0 0 0 0 0 0 0 0 0 0 0 0 0 0 0 0 0 0 0 0 0 0 127 127 127 127 127 127 127 127 127 127 127 127 127 127 127 127 127 127 127 127 127 127 127 127 127 127 127 127 127 127 127 127 127 127 127 127 123 122 120 118 117 115 113 112 110 108 107 105 103 102 100 99 97 96 94 93 92 90 89 88 86 85 84 82 81 80 79 77 76 75 74 73 72 71 70 75 98 123 128 128 128 128 128 128 128 128 128 128 128 128 128 128 128 128 128 128 128 128 130 135 140 144 149 154 158 162 166 170 173 177 180 183 186 189 191 194 196 198 200 202 204 205 207 209 210 211 212 214 215 216 217 218 219 220 221 221 222 223 224 224 225 226 226 227 227 228 228 229 229 230 230 231 231 231 232 232 232 233 232 212 140 128 127 125 123 122 120 118 117 115 113 112 110 108 107 105 103 102 100 99 97 96 94 93 92 90 89 88 86 85 84 82 81 80 79 77 76 75 74 73 72 71 70 75 98 123 128 128 128 128 128 128 128 128 128 128 128 128 128 128 128 128 128 128 128 128
128 128 128 128 128 128 128 128 128 128 128 128 128 128 128 128 128 128 128 128 128 131 167 184 183 182 181 180 179 178 177 175 174 173 172 171 169 168 167 165 164 163 161 160 159 157 156 154 153 151 150 148 146 145 143 142 140 138 137 135 133 131 130 128 128 129 34 20 21 21 21 22 22 22 23 23 24 24 25 25 25 26 27 27 28 28 29 29 30 31 32 33 34 34 35 36 37 38 39 40 42 43 44 46 47 49 51 53 55 56 59 61 64 66 69 72 76 79 83 87 91 95 100 104 109 115 120 125 128 128 128 128 128 128 128 128 128 128 128 128 128 128 128 128 128 128 128 128 128 131 167 184 183 182 181 180 179 178 177 175 174 173 172 171 169 168 167 165 164 163 161 160 159 157 156 154 153 151 150 148 146 145 143 142 140 138 137 135 133 131 130 128 127 127 127 127 127 127 127 127 127 127 127 127 127 127 127 127 127 127 127 127 127 127 127 127 127 127 127 127 127 127 127 127 127 0 0 0 0 0 0 0 0 0 0 0 0 0 0 0 0 0 0 0 0 0 0 0 0 0 0 0 0 0 0 0 0 0 0 0 0 0 0 0 0 0 0 0 0 0 0 0 0 0 0 0 0 0 0 0 0 0 0 0 0 0 127 127 127 127 127 127 127 127 127 127 127 127 127 127 127 127 127 127 127 127 127 127 127 127 127 127 127 127 127 127 127 127 127 127 127 127 123 122 120 118 117 115 114 112 110 109 107 105 104 102 101 99 98 96 95 94 92 91 89 88 87 86 84 83 82 81 80 79 77 76 75 74 73 73 78 102 124 128 128 128 128 128 128 128 128 128 128 128 128 128 128 128 128 128 128 128 128 128 130 135 140 146 151 155 160 164 168 172 176 179 183 186 189 191 194 196 198 200 202 204 206 208 209 211 212 213 214 216 217 218 219 220 221 222 222 223 224 225 225 226 227 227 228 228 229 229 230 230 231 231 232 232 232 233 233 234 234 234 235 226 151 129 127 125 123 122 120 118 117 115 114 112 110 109 107 105 104 102 101 99 98 96 95 94 92 91 89 88 87 86 84 83 82 81 80 79 77 76 75 74 73 73 78 102 124 128 128 128 128 128 128 128 128 128 128 128 128 128 128 128 128 128 128 128 128 128
128 128 128 128 128 128 128 128 128 128 128 128 128 128 128 128 128 128 128 128 128 128 129 157 181 181 180 179 178 177 176 175 174 172 171 170 169 167 166 165 164 162 161 159 158 156 155 154 152 151 149 148 146 144 143 141 140 138 137 135 133 132 130 128 128 116 20 19 20 20 20 20 21 21 21 22 22 23 23 24 24 25 25 26 26 27 27 28 29 29 30 31 32 32 33 34 35 36 37 38 39 41 42 44 45 46 48 50 52 54 56 59 61 64 67 70 73 77 80 85 89 93 98 103 108 114 119 125 128 128 128 128 128 128 128 128 128 128 128 128 128 128 128 128 128 128 128 128 128 128 129 157 181 181 180 179 178 177 176 175 174 172 171 170 169 167 166 165 164 162 161 159 158 156 155 154 152 151 149 148 146 144 143 141 140 138 137 135 133 132 130 128 127 127 127 127 127 127 127 127 127 127 127 127 127 127 127 127 127 127 127 127 127 127 127 127 127 127 127 127 127 127 127 127 127 0 0 0 0 0 0 0 0 0 0 0 0 0 0 0 0 0 0 0 0 0 0 0 0 0 0 0 0 0 0 0 0 0 0 0 0 0 0 0 0 0 0 0 0 0 0 0 0 0 0 0 0 0 0 0 0 0 0 0 0 0 127 127 127 127 127 127 127 127 127 127 127 127 127 127 127 127 127 127 127 127 127 127 127 127 127 127 127 127 127 127 127 127 127 127 127 127 123 122 120 119 117 115 114 112 110 109 107 106 104 103 101 100 99 97 96 94 93 91 90 89 88 86 85 84 83 81 80 79 78 77 76 75 75 82 109 125 128 128 128 128 128 128 128 128 128 128 128 128 128 128 128 128 128 128 128 128 128 128 130 136 141 147 152 157 162 166 170 174 178 182 185 188 191 194 197 199 201 203 205 207 209 210 212 213 214 216 217 218 219 220 221 222 223 224 224 225 226 226 227 228 228 229 229 230 231 231 231 232 232 233 233 234 234 234 235 235 235 236 236 231 173 132 127 125 123 122 120 119 117 115 114 112 110 109 107 106 104 103 101 100 99 97 96 94 93 91 90 89 88 86 85 84 83 81 80 79 78 77 76 75 75 82 109 125 128 128 128 128 128 128 128 128 128 128 128 128 128 128 128 128 128 128 128 128 128 128
128 128 128 128 128 128 128 128 128 128 128 128 128 128 128 128 128 128 128 128 128 128 128 128 146 177 179 178 177 176 175 174 173 172 171 169 168 167 166 164 163 161 160 159 157 156 155 153 152 150 149 147 145 144 143 141 140 138 136 135 133 132 130 128 128 100 18 18 18 18 19 19 19 20 20 21 21 21 22 22 22 23 23 24 24 25 26 26 27 28 28 29 30 30 31 32 33 34 35 36 37 38 40 41 42 44 45 47 49 51 53 56 58 61 63 67 70 74 78 82 86 91 96 101 107 113 119 125 128 128 128 128 128 128 128 128 128 128 128 128 128 128 128 128 128 128 128 128 128 128 128 128 146 177 179 178 177 176 175 174 173 172 171 169 168 167 166 164 163 161 160 159 157 156 155 153 152 150 149 147 145 144 143 141 140 138 136 135 133 132 130 128 127 127 127 127 127 127 127 127 127 127 127 127 127 127 127 127 127 127 127 127 127 127 127 127 127 127 127 127 127 127 127 127 127 0 0 0 0 0 0 0 0 0 0 0 0 0 0 0 0 0 0 0 0 0 0 0 0 0 0 0 0 0 0 0 0 0 0 0 0 0 0 0 0 0 0 0 0 0 0 0 0 0 0 0 0 0 0 0 0 0 0 0 0 0 127 127 127 127 127 127 127 127 127 127 127 127 127 127 127 127 127 127 127 127 127 127 127 127 127 127 127 127 127 127 127 127 127 127 127 127 123 122 120 119 117 115 114 112 111 110 108 106 105 103 102 100 99 98 96 95 93 92 91 90 88 87 86 85 84 82 81 80 79 78 77 78 89 116 126 128 128 128 128 128 128 128 128 128 128 128 128 128 128 128 128 128 128 128 128 128 128 128 131 137 142 148 154 159 164 169 173 177 181 185 188 191 194 197 199 202 204 206 208 210 211 213 214 216 217 218 219 220 221 222 223 224 225 226 226 227 228 228 229 229 230 231 231 231 232 232 233 233 234 234 234 235 235 236 236 236 237 237 237 234 194 135 127 125 123 122 120 119 117 115 114 112 111 110 108 106 105 103 102 100 99 98 96 95 93 92 91 90 88 87 86 85 84 82 81 80 79 78 77 78 89 116 126 128 128 128 128 128 128 128 128 128 128 128 128 128 128 128 128 128 128 128 128 128 128 128
128 128 128 128 128 128 128 128 128 128 128 128 128 128 128 128 128 128 128 128 128 128 128 128 128 136 168 178 176 175 174 173 172 171 170 169 167 166 165 164 162 161 160 158 157 156 154 153 151 150 148 147 145 144 142 141 139 138 136 135 133 131 130 128 128 81 16 16 17 17 17 18 18 18 19 19 19 20 20 20 21 21 22 22 23 23 24 24 25 25 26 27 28 28 29 30 31 31 33 34 35 36 37 38 40 41 43 44 46 48 51 53 55 58 61 64 67 71 75 79 84 89 94 99 105 111 118 124 128 128 128 128 128 128 128 128 128 128 128 128 128 128 128 128 128 128 128 128 128 128 128 128 128 136 168 178 176 175 174 173 172 171 170 169 167 166 165 164 162 161 160 158 157 156 154 153 151 150 148 147 145 144 142 141 139 138 136 135 133 131 130 128 127 127 127 127 127 127 127 127 127 127 127 127 127 127 127 127 127 127 127 127 127 127 127 127 127 127 127 127 127 127 127 127 127 0 0 0 0 0 0 0 0 0 0 0 0 0 0 0 0 0 0 0 0 0 0 0 0 0 0 0 0 0 0 0 0 0 0 0 0 0 0 0 0 0 0 0 0 0 0 0 0 0 0 0 0 0 0 0 0 0 0 0 0 0 127 127 127 127 127 127 127 127 127 127 127 127 127 127 127 127 127 127 127 127 127 127 127 127 127 127 127 127 127 127 127 127 127 127 127 127 123 122 120 119 117 116 114 113 111 110 108 107 105 104 102 101 100 98 97 95 94 93 91 90 89 88 87 85 84 83 82 81 80 79 82 98 121 127 128 128 128 128 128 128 128 128 128 128 128 128 128 128 128 128 128 128 128 128 128 128 128 128 131 137 144 150 156 161 166 171 176 180 184 188 191 195 197 200 202 205 207 209 211 212 214 215 217 218 219 220 221 222 223 224 225 226 227 228 228 229 229 230 231 231 232 232 233 233 234 234 235 235 235 236 236 236 237 237 237 238 238 238 238 237 212 138 127 125 123 122 120 119 117 116 114 113 111 110 108 107 105 104 102 101 100 98 97 95 94 93 91 90 89 88 87 85 84 83 82 81 80 79 82 98 121 127 128 128 128 128 128 128 128 128 128 128 128 128 128 128 128 128 128 128 128 128 128 128 128 128
128 128 128 128 128 128 128 128 128 128 128 128 128 128 128 128 128 128 128 128 128 128 128 128 128 128 130 155 175 175 173 173 171 170 169 168 167 165 164 163 162 160 159 158 156 155 154 152 151 149 148 146 145 144 142 140 139 138 136 135 133 131 130 128 128 63 15 15 15 16 16 16 17 17 17 18 18 18 18 19 19 20 20 20 21 22 22 23 23 24 24 25 25 26 27 28 29 29 30 31 32 33 34 36 37 38 40 42 43 45 47 49 52 54 57 60 64 67 72 76 81 86 91 97 104 110 117 124 128 128 128 128 128 128 128 128 128 128 128 128 128 128 128 128 128 128 128 128 128 128 128 128 128 128 130 155 175 175 173 173 171 170 169 168 167 165 164 163 162 160 159 158 156 155 154 152 151 149 148 146 145 144 142 140 139 138 136 135 133 131 130 128 127 127 127 127 127 127 127 127 127 127 127 127 127 127 127 127 127 127 127 127 127 127 127 127 127 127 127 127 127 127 127 127 127 0 0 0 0 0 0 0 0 0 0 0 0 0 0 0 0 0 0 0 0 0 0 0 0 0 0 0 0 0 0 0 0 0 0 0 0 0 0 0 0 0 0 0 0 0 0 0 0 0 0 0 0 0 0 0 0 0 0 0 0 0 127 127 127 127 127 127 127 127 127 127 127 127 127 127 127 127 127 127 127 127 127 127 127 127 127 127 127 127 127 127 127 127 127 127 127 127 124 122 120 119 117 116 115 113 111 110 109 107 106 104 103 101 100 99 97 96 95 93 92 91 89 88 87 86 85 84 83 81 82 88 109 125 128 128 128 128 128 128 128 128 128 128 128 128 128 128 128 128 128 128 128 128 128 128 128 128 128 128 131 138 145 152 158 164 169 174 179 183 187 191 195 198 201 203 205 208 210 212 213 215 217 218 219 220 222 223 224 225 226 227 227 228 229 229 230 231 231 232 233 233 234 234 234 235 235 236 236 237 237 237 238 238 238 238 239 239 239 239 240 239 226 143 127 125 124 122 120 119 117 116 115 113 111 110 109 107 106 104 103 101 100 99 97 96 95 93 92 91 89 88 87 86 85 84 83 81 82 88 109 125 128 128 128 128 128 128 128 128 128 128 128 128 128 128 128 128 128 128 128 128 128 128 128 128 128 128
128 128 128 128 128 128 128 128 128 128 128 128 128 128 128 128 128 128 128 128 128 128 128 128 128 128 128 128 140 166 173 172 171 170 168 167 166 165 164 162 161 160 159 157 156 155 153 152 150 149 148 146 145 143 142 140 139 137 136 134 133 131 130 128 130 25 14 14 14 14 15 15 15 16 16 16 16 17 17 17 18 18 19 19 19 20 20 20 21 22 22 23 23 24 25 25 26 27 28 29 30 31 32 33 34 36 37 39 40 42 44 46 48 51 54 57 60 64 68 72 77 83 88 95 101 109 116 124 128 128 128 128 128 128 128 128 128 128 128 128 128 128 128 128 128 128 128 128 128 128 128 128 128 128 128 128 140 166 173 172 171 170 168 167 166 165 164 162 161 160 159 157 156 155 153 152 150 149 148 146 145 143 142 140 139 137 136 134 133 131 130 128 127 127 127 127 127 127 127 127 127 127 127 127 127 127 127 127 127 127 127 127 127 127 127 127 127 127 127 127 127 127 127 127 127 0 0 0 0 0 0 0 0 0 0 0 0 0 0 0 0 0 0 0 0 0 0 0 0 0 0 0 0 0 0 0 0 0 0 0 0 0 0 0 0 0 0 0 0 0 0 0 0 0 0 0 0 0 0 0 0 0 0 0 0 0 127 127 127 127 127 127 127 127 127 127 127 127 127 127 127 127 127 127 127 127 127 127 127 127 127 127 127 127 127 127 127 127 127 127 127 127 124 122 121 119 118 116 115 113 112 110 109 108 106 105 103 102 100 99 98 96 95 94 92 91 90 89 88 87 86 84 84 86 98 119 126 128 128 128 128 128 128 128 128 128 128 128 128 128 128 128 128 128 128 128 128 128 128 128 128 128 128 128 132 139 147 154 160 167 173 178 183 187 191 195 198 201 204 207 209 211 213 215 217 218 220 221 222 223 224 225 226 227 228 229 230 230 231 232 232 233 233 234 234 235 235 236 236 237 237 237 238 238 238 239 239 239 240 240 240 240 241 241 241 241 234 154 128 125 124 122 121 119 118 116 115 113 112 110 109 108 106 105 103 102 100 99 98 96 95 94 92 91 90 89 88 87 86 84 84 86 98 119 126 128 128 128 128 128 128 128 128 128 128 128 128 128 128 128 128 128 128 128 128 128 128 128 128 128 128 128
128 128 128 128 128 128 128 128 128 128 128 128 128 128 128 128 128 128 128 128 128 128 128 128 128 128 128 128 128 130 151 169 170 169 168 167 165 164 163 162 161 159 158 157 155 154 153 151 150 149 147 146 145 143 142 140 139 137 136 134 133 131 130 128 116 14 12 13 13 13 13 14 14 14 14 15 15 15 16 16 16 16 17 17 17 18 18 19 19 19 20 21 21 22 22 23 24 24 25 26 27 28 29 30 31 32 34 35 37 39 40 42 45 47 50 53 56 60 64 68 73 79 85 92 99 106 115 123 128 128 128 128 128 128 128 128 128 128 128 128 128 128 128 128 128 128 128 128 128 128 128 128 128 128 128 128 128 130 151 169 170 169 168 167 165 164 163 162 161 159 158 157 155 154 153 151 150 149 147 146 145 143 142 140 139 137 136 134 133 131 130 128 127 127 127 127 127 127 127 127 127 127 127 127 127 127 127 127 127 127 127 127 127 127 127 127 127 127 127 127 127 127 127 127 127 0 0 0 0 0 0 0 0 0 0 0 0 0 0 0 0 0 0 0 0 0 0 0 0 0 0 0 0 0 0 0 0 0 0 0 0 0 0 0 0 0 0 0 0 0 0 0 0 0 0 0 0 0 0 0 0 0 0 0 0 0 127 127 127 127 127 127 127 127 127 127 127 127 127 127 127 127 127 127 127 127 127 127 127 127 127 127 127 127 127 127 127 127 127 127 127 127 124 122 121 119 118 116 115 113 112 111 109 108 106 105 104 102 101 100 98 97 96 94 93 92 91 90 89 87 86 87 93 111 125 127 128 128 128 128 128 128 128 128 128 128 128 128 128 128 128 128 128 128 128 128 128 128 128 128 128 128 128 128 132 140 148 156 163 170 176 182 187 191 195 199 202 205 208 210 213 215 216 218 220 221 222 224 225 226 227 228 229 230 231 231 232 233 233 234 234 235 236 236 236 237 237 238 238 238 239 239 239 240 240 240 241 241 241 241 241 242 242 242 242 243 238 172 131 125 124 122 121 119 118 116 115 113 112 111 109 108 106 105 104 102 101 100 98 97 96 94 93 92 91 90 89 87 86 87 93 111 125 127 128 128 128 128 128 128 128 128 128 128 128 128 128 128 128 128 128 128 128 128 128 128 128 128 128 128 128 128
128 128 128 128 128 128 128 128 128 128 128 128 128 128 128 128 128 128 128 128 128 128 128 128 128 128 128 128 128 128 128 134 156 168 167 166 165 164 163 161 160 159 157 156 155 154 152 151 150 148 147 145 144 143 141 140 138 137 136 134 132 131 130 128 114 11 11 12 12 12 12 12 12 13 13 13 13 14 14 14 14 15 15 15 16 16 17 17 17 18 18 19 19 20 20 21 22 22 23 24 24 25 26 27 28 29 31 32 33 35 37 39 41 43 46 48 52 55 59 64 69 75 81 88 96 104 113 123 128 128 128 128 128 128 128 128 128 128 128 128 128 128 128 128 128 128 128 128 128 128 128 128 128 128 128 128 128 128 128 134 156 168 167 166 165 164 163 161 160 159 157 156 155 154 152 151 150 148 147 145 144 143 141 140 138 137 136 134 132 131 130 128 127 127 127 127 127 127 127 127 127 127 127 127 127 127 127 127 127 127 127 127 127 127 127 127 127 127 127 127 127 127 127 127 127 0 0 0 0 0 0 0 0 0 0 0 0 0 0 0 0 0 0 0 0 0 0 0 0 0 0 0 0 0 0 0 0 0 0 0 0 0 0 0 0 0 0 0 0 0 0 0 0 0 0 0 0 0 0 0 0 0 0 0 0 0 127 127 127 127 127 127 127 127 127 127 127 127 127 127 127 127 127 127 127 127 127 127 127 127 127 127 127 127 127 127 127 127 127 127 127 127 124 122 121 120 118 117 115 114 112 111 109 108 107 105 104 103 101 100 99 97 96 95 94 93 91 90 89 90 93 107 122 127 128 128 128 128 128 128 128 128 128 128 128 128 128 128 128 128 128 128 128 128 128 128 128 128 128 128 128 128 128 128 133 142 151 159 167 174 180 186 191 196 200 203 206 209 212 214 216 218 220 222 223 224 226 227 228 229 230 231 231 232 233 234 234 235 235 236 236 237 237 238 238 239 239 239 240 240 240 241 241 241 241 242 242 242 242 243 243 243 243 243 244 244 240 186 133 125 124 122 121 120 118 117 115 114 112 111 109 108 107 105 104 103 101 100 99 97 96 95 94 93 91 90 89 90 93 107 122 127 128 128 128 128 128 128 128 128 128 128 128 128 128 128 128 128 128 128 128 128 128 128 128 128 128 128 128 128 128 128
128 128 128 128 128 128 128 128 128 128 128 128 128 128 128 128 128 128 128 128 128 128 128 128 128 128 128 128 128 128 128 128 128 138 157 165 164 163 162 161 159 158 157 156 154 153 152 151 149 148 146 145 144 142 141 140 138 137 135 134 132 131 130 128 96 10 10 10 10 10 11 11 11 11 11 11 12 12 12 13 13 13 13 13 14 14 15 15 15 16 16 16 17 17 18 18 19 20 20 21 22 22 23 24 25 26 27 28 30 31 33 35 36 39 41 44 47 50 54 59 64 70 76 84 92 102 111 122 128 128 128 128 128 128 128 128 128 128 128 128 128 128 128 128 128 128 128 128 128 128 128 128 128 128 128 128 128 128 128 128 128 138 157 165 164 163 162 161 159 158 157 156 154 153 152 151 149 148 146 145 144 142 141 140 138 137 135 134 132 131 130 128 127 127 127 127 127 127 127 127 127 127 127 127 127 127 127 127 127 127 127 127 127 127 127 127 127 127 127 127 127 127 127 127 127 0 0 0 0 0 0 0 0 0 0 0 0 0 0 0 0 0 0 0 0 0 0 0 0 0 0 0 0 0 0 0 0 0 0 0 0 0 0 0 0 0 0 0 0 0 0 0 0 0 0 0 0 0 0 0 0 0 0 0 0 0 127 127 127 127 127 127 127 127 127 127 127 127 127 127 127 127 127 127 127 127 127 127 127 127 127 127 127 127 127 127 127 127 127 127 127 127 124 123 121 120 118 117 115 114 113 111 110 108 107 106 104 103 102 100 99 98 97 96 94 93 92 92 94 106 120 126 128 128 128 128 128 128 128 128 128 128 128 128 128 128 128 128 128 128 128 128 128 128 128 128 128 128 128 128 128 128 128 128 134 144 154 163 171 179 185 191 196 201 205 208 211 214 216 218 220 222 224 225 227 228 229 230 231 232 232 233 234 235 235 236 237 237 238 238 239 239 239 240 240 240 241 241 241 242 242 242 243 243 243 243 244 244 244 244 244 244 245 245 245 245 242 199 135 125 124 123 121 120 118 117 115 114 113 111 110 108 107 106 104 103 102 100 99 98 97 96 94 93 92 92 94 106 120 126 128 128 128 128 128 128 128 128 128 128 128 128 128 128 128 128 128 128 128 128 128 128 128 128 128 128 128 128 128 128 128 128
128 128 128 128 128 128 128 128 128 128 128 128 128 128 128 128 128 128 128 128 128 128 128 128 128 128 128 128 128 128 128 128 128 128 128 138 155 162 161 160 159 158 157 155 154 153 152 150 149 148 146 145 143 142 141 139 138 137 135 134 132 131 130 128 99 8 9 9 9 9 9 9 9 10 10 10 10 10 11 11 11 11 11 12 12 12 13 13 13 14 14 14 15 15 16 16 17 17 18 18 19 19 20 21 22 23 24 25 26 27 29 31 32 34 36 39 42 45 49 53 58 64 71 78 87 98 109 121 128 128 128 128 128 128 128 128 128 128 128 128 128 128 128 128 128 128 128 128 128 128 128 128 128 128 128 128 128 128 128 128 128 128 128 138 155 162 161 160 159 158 157 155 154 153 152 150 149 148 146 145 143 142 141 139 138 137 135 134 132 131 130 128 127 127 127 127 127 127 127 127 127 127 127 127 127 127 127 127 127 127 127 127 127 127 127 127 127 127 127 127 127 127 127 127 127 0 0 0 0 0 0 0 0 0 0 0 0 0 0 0 0 0 0 0 0 0 0 0 0 0 0 0 0 0 0 0 0 0 0 0 0 0 0 0 0 0 0 0 0 0 0 0 0 0 0 0 0 0 0 0 0 0 0 0 0 0 127 127 127 127 127 127 127 127 127 127 127 127 127 127 127 127 127 127 127 127 127 127 127 127 127 127 127 127 127 127 127 127 127 127 127 127 124 123 121 120 118 117 116 114 113 112 110 109 107 106 105 103 102 101 100 98 97 96 95 95 97 107 120 126 128 128 128 128 128 128 128 128 128 128 128 128 128 128 128 128 128 128 128 128 128 128 128 128 128 128 128 128 128 128 128 128 128 129 135 146 157 168 177 184 191 197 202 206 210 213 216 219 221 223 224 226 228 229 230 231 232 233 234 235 235 236 237 237 238 238 239 239 240 240 241 241 241 242 242 242 243 243 243 244 244 244 244 244 245 245 245 245 245 246 246 246 246 246 246 247 244 209 137 125 124 123 121 120 118 117 116 114 113 112 110 109 107 106 105 103 102 101 100 98 97 96 95 95 97 107 120 126 128 128 128 128 128 128 128 128 128 128 128 128 128 128 128 128 128 128 128 128 128 128 128 128 128 128 128 128 128 128 128 128 128 128
128 128 128 128 128 128 128 128 128 128 128 128 128 128 128 128 128 128 128 128 128 128 128 128 128 128 128 128 128 128 128 128 128 128 128 128 128 136 150 159 159 157 156 155 154 152 151 150 148 147 146 145 143 142 140 139 138 136 135 134 132 131 130 128 73 7 7 7 8 8 8 8 8 8 8 8 9 9 9 9 9 10 10 10 10 11 11 11 11 12 12 12 12 13 13 14 14 14 15 16 16 17 17 18 19 19 20 21 22 23 25 26 28 30 32 34 36 39 43 47 51 57 64 72 82 93 106 120 128 128 128 128 128 128 128 128 128 128 128 128 128 128 128 128 128 128 128 128 128 128 128 128 128 128 128 128 128 128 128 128 128 128 128 128 128 136 150 159 159 157 156 155 154 152 151 150 148 147 146 145 143 142 140 139 138 136 135 134 132 131 130 128 127 127 127 127 127 127 127 127 127 127 127 127 127 127 127 127 127 127 127 127 127 127 127 127 127 127 127 127 127 127 127 127 127 0 0 0 0 0 0 0 0 0 0 0 0 0 0 0 0 0 0 0 0 0 0 0 0 0 0 0 0 0 0 0 0 0 0 0 0 0 0 0 0 0 0 0 0 0 0 0 0 0 0 0 0 0 0 0 0 0 0 0 0 0 127 127 127 127 127 127 127 127 127 127 127 127 127 127 127 127 127 127 127 127 127 127 127 127 127 127 127 127 127 127 127 127 127 127 127 127 124 123 121 120 118 117 116 114 113 112 111 109 108 106 105 104 102 101 100 99 99 99 100 110 122 126 127 128 128 128 128 128 128 128 128 128 128 128 128 128 128 128 128 128 128 128 128 128 128 128 128 128 128 128 128 128 128 128 128 128 128 129 136 149 162 174 183 191 198 204 209 213 216 219 222 224 226 227 229 230 231 233 234 235 236 236 237 238 238 239 240 240 240 241 241 242 242 243 243 243 244 244 244 244 245 245 245 245 245 246 246 246 246 246 246 247 247 247 247 247 247 248 248 248 246 220 139 125 124 123 121 120 118 117 116 114 113 112 111 109 108 106 105 104 102 101 100 99 99 99 100 110 122 126 127 128 128 128 128 128 128 128 128 128 128 128 128 128 128 128 128 128 128 128 128 128 128 128 128 128 128 128 128 128 128 128 128 128 128 128
128 128 128 128 128 128 128 128 128 128 128 128 128 128 128 128 128 128 128 128 128 128 128 128 128 128 128 128 128 128 128 128 128 128 128 128 128 128 128 132 143 153 156 154 153 152 151 150 148 147 146 144 143 142 140 139 138 136 135 134 132 131 129 128 73 6 6 6 6 6 6 6 7 7 7 7 7 7 8 8 8 8 8 8 9 8 9 9 9 10 10 10 10 11 11 11 12 12 12 13 13 13 14 15 15 16 17 18 19 19 21 22 23 25 26 28 30 33 36 40 44 49 56 64 74 86 101 119 128 128 128 128 128 128 128 128 128 128 128 128 128 128 128 128 128 128 128 128 128 128 128 128 128 128 128 128 128 128 128 128 128 128 128 128 128 128 128 132 143 153 156 154 153 152 151 150 148 147 146 144 143 142 140 139 138 136 135 134 132 131 129 128 127 127 127 127 127 127 127 127 127 127 127 127 127 127 127 127 127 127 127 127 127 127 127 127 127 127 127 127 127 127 127 127 127 0 0 0 0 0 0 0 0 0 0 0 0 0 0 0 0 0 0 0 0 0 0 0 0 0 0 0 0 0 0 0 0 0 0 0 0 0 0 0 0 0 0 0 0 0 0 0 0 0 0 0 0 0 0 0 0 0 0 0 0 0 127 127 127 127 127 127 127 127 127 127 127 127 127 127 127 127 127 127 127 127 127 127 127 127 127 127 127 127 127 127 127 127 127 127 127 127 124 123 121 120 119 117 116 115 113 112 111 109 108 107 106 104 103 102 102 102 106 116 124 126 128 128 128 128 128 128 128 128 128 128 128 128 128 128 128 128 128 128 128 128 128 128 128 128 128 128 128 128 128 128 128 128 128 128 128 128 128 129 137 154 169 181 191 199 206 211 215 219 222 225 227 229 231 232 233 235 236 237 237 238 239 240 240 241 241 242 242 243 243 244 244 244 245 245 245 245 246 246 246 246 247 247 247 247 247 247 248 248 248 248 248 248 248 248 249 249 249 249 249 249 247 225 139 125 124 123 121 120 119 117 116 115 113 112 111 109 108 107 106 104 103 102 102 102 106 116 124 126 128 128 128 128 128 128 128 128 128 128 128 128 128 128 128 128 128 128 128 128 128 128 128 128 128 128 128 128 128 128 128 128 128 128 128 128 128 128
128 128 128 128 128 128 128 128 128 128 128 128 128 128 128 128 128 128 128 128 128 128 128 128 128 128 128 128 128 128 128 128 128 128 128 128 128 128 128 128 128 128 135 144 150 152 150 149 148 146 145 144 143 141 140 139 138 136 135 133 132 131 130 128 77 4 5 5 5 5 5 5 5 5 5 5 5 6 6 6 6 6 6 6 6 7 7 7 7 7 8 8 8 8 8 9 9 9 10 10 10 11 11 12 12 13 13 14 14 15 16 17 18 19 21 22 24 26 29 32 36 40 46 54 64 77 95 116 128 128 128 128 128 128 128 128 128 128 128 128 128 128 128 128 128 128 128 128 128 128 128 128 128 128 128 128 128 128 128 128 128 128 128 128 128 128 128 128 128 128 135 144 150 152 150 149 148 146 145 144 143 141 140 139 138 136 135 133 132 131 130 128 127 127 127 127 127 127 127 127 127 127 127 127 127 127 127 127 127 127 127 127 127 127 127 127 127 127 127 127 127 127 127 127 127 0 0 0 0 0 0 0 0 0 0 0 0 0 0 0 0 0 0 0 0 0 0 0 0 0 0 0 0 0 0 0 0 0 0 0 0 0 0 0 0 0 0 0 0 0 0 0 0 0 0 0 0 0 0 0 0 0 0 0 0 0 127 127 127 127 127 127 127 127 127 127 127 127 127 127 127 127 127 127 127 127 127 127 127 127 127 127 127 127 127 127 127 127 127 127 127 127 124 123 121 120 119 117 116 115 113 112 111 110 108 107 107 106 106 109 115 122 126 127 128 128 128 128 128 128 128 128 128 128 128 128 128 128 128 128 128 128 128 128 128 128 128 128 128 128 128 128 128 128 128 128 128 128 128 128 128 128 128 129 140 161 178 191 201 209 215 220 223 226 229 231 233 234 236 237 238 239 240 241 241 242 242 243 244 244 244 245 245 246 246 246 247 246 247 247 247 247 247 248 248 248 248 249 249 249 249 249 249 249 249 249 250 250 250 250 250 250 250 250 250 251 249 230 140 126 124 123 121 120 119 117 116 115 113 112 111 110 108 107 107 106 106 109 115 122 126 127 128 128 128 128 128 128 128 128 128 128 128 128 128 128 128 128 128 128 128 128 128 128 128 128 128 128 128 128 128 128 128 128 128 128 128 128 128 128 128 128
128 128 128 128 128 128 128 128 128 128 128 128 128 128 128 128 128 128 128 128 128 128 128 128 128 128 128 128 128 128 128 128 128 128 128 128 128 128 128 128 128 128 128 128 128 134 140 145 147 146 145 144 142 141 140 139 137 136 135 133 132 131 129 128 72 3 3 3 3 3 4 4 4 4 4 4 4 4 4 4 4 4 4 5 5 5 5 5 5 5 5 6 6 6 6 6 6 7 7 7 7 8 8 8 9 9 9 10 10 11 12 12 13 14 15 16 17 19 21 23 26 30 35 41 51 64 84 112 128 128 128 128 128 128 128 128 128 128 128 128 128 128 128 128 128 128 128 128 128 128 128 128 128 128 128 128 128 128 128 128 128 128 128 128 128 128 128 128 128 128 128 128 128 134 140 145 147 146 145 144 142 141 140 139 137 136 135 133 132 131 129 128 127 127 127 127 127 127 127 127 127 127 127 127 127 127 127 127 127 127 127 127 127 127 127 127 127 127 127 127 127 127 127 127 127 0 0 0 0 0 0 0 0 0 0 0 0 0 0 0 0 0 0 0 0 0 0 0 0 0 0 0 0 0 0 0 0 0 0 0 0 0 0 0 0 0 0 0 0 0 0 0 0 0 0 0 0 0 0 0 0 0 0 0 0 0 127 127 127 127 127 127 127 127 127 127 127 127 127 127 127 127 127 127 127 127 127 127 127 127 127 127 127 127 127 127 127 127 127 127 127 127 124 123 122 120 119 117 116 115 114 112 112 111 110 110 114 118 123 126 127 128 128 128 128 128 128 128 128 128 128 128 128 128 128 128 128 128 128 128 128 128 128 128 128 128 128 128 128 128 128 128 128 128 128 128 128 128 128 128 128 128 128 129 146 172 192 205 214 220 225 229 232 234 236 238 239 240 241 242 243 244 244 245 245 246 246 246 247 247 247 248 248 248 248 249 249 249 249 249 249 250 250 250 250 250 250 250 251 250 251 251 251 251 251 251 251 251 251 251 251 252 252 252 252 252 251 236 141 126 124 123 122 120 119 117 116 115 114 112 112 111 110 110 114 118 123 126 127 128 128 128 128 128 128 128 128 128 128 128 128 128 128 128 128 128 128 128 128 128 128 128 128 128 128 128 128 128 128 128 128 128 128 128 128 128 128 128 128 128 128 128
128 128 128 128 128 128 128 128 128 128 128 128 128 128 128 128 128 128 128 128 128 128 128 128 128 128 128 128 128 128 128 128 128 128 128 128 128 128 128 128 128 128 128 128 128 128 128 128 129 133 137 139 141 141 140 138 137 136 135 133 132 131 129 128 53 2 2 2 2 2 2 2 2 2 2 2 2 3 2 2 3 3 3 3 3 3 3 3 3 3 3 3 4 4 4 4 4 4 4 4 5 5 5 5 5 5 6 6 6 7 7 7 8 8 9 10 10 12 13 14 16 19 22 27 34 45 65 103 128 128 128 128 128 128 128 128 128 128 128 128 128 128 128 128 128 128 128 128 128 128 128 128 128 128 128 128 128 128 128 128 128 128 128 128 128 128 128 128 128 128 128 128 128 128 128 128 129 133 137 139 141 141 140 138 137 136 135 133 132 131 129 128 127 127 127 127 127 127 127 127 127 127 127 127 127 127 127 127 127 127 127 127 127 127 127 127 127 127 127 127 127 127 127 127 127 0 0 0 0 0 0 0 0 0 0 0 0 0 0 0 0 0 0 0 0 0 0 0 0 0 0 0 0 0 0 0 0 0 0 0 0 0 0 0 0 0 0 0 0 0 0 0 0 0 0 0 0 0 0 0 0 0 0 0 0 0 127 127 127 127 127 127 127 127 127 127 127 127 127 127 127 127 127 127 127 127 127 127 127 127 127 127 127 127 127 127 127 127 127 127 127 127 124 123 122 120 119 118 117 116 115 116 118 120 123 126 127 127 128 128 128 128 128 128 128 128 128 128 128 128 128 128 128 128 128 128 128 128 128 128 128 128 128 128 128 128 128 128 128 128 128 128 128 128 128 128 128 128 128 128 128 128 128 131 159 193 211 222 229 234 236 239 241 242 244 244 245 246 247 247 248 248 248 249 249 249 250 250 250 250 250 251 251 251 251 251 251 251 252 252 252 252 252 252 252 252 252 252 252 252 252 252 252 253 253 253 253 253 253 253 253 253 253 253 253 253 252 241 142 125 124 123 122 120 119 118 117 116 115 116 118 120 123 126 127 127 128 128 128 128 128 128 128 128 128 128 128 128 128 128 128 128 128 128 128 128 128 128 128 128 128 128 128 128 128 128 128 128 128 128 128 128 128 128 128 128 128 128 128 128 128 128
128 128 128 128 128 128 128 128 128 128 128 128 128 128 128 128 128 128 128 128 128 128 128 128 128 128 128 128 128 128 128 128 128 128 128 128 128 128 128 128 128 128 128 128 128 128 128 128 128 128 128 128 128 129 131 132 133 133 133 132 131 130 129 128 48 40 40 40 40 40 40 40 40 40 40 40 40 40 40 40 40 40 40 40 40 40 40 40 40 40 40 40 40 40 40 40 40 40 40 40 40 40 40 40 40 40 40 40 40 40 40 40 40 40 41 41 41 41 41 41 41 41 42 42 43 45 51 81 128 128 128 128 128 128 128 128 128 128 128 128 128 128 128 128 128 128 128 128 128 128 128 128 128 128 128 128 128 128 128 128 128 128 128 128 128 128 128 128 128 128 128 128 128 128 128 128 128 128 128 128 128 129 131 132 133 133 133 132 131 130 129 128 127 127 127 127 127 127 127 127 127 127 127 127 127 127 127 127 127 127 127 127 127 127 127 127 127 127 127 127 127 127 127 127 127 0 0 0 0 0 0 0 0 0 0 0 0 0 0 0 0 0 0 0 0 0 0 0 0 0 0 0 0 0 0 0 0 0 0 0 0 0 0 0 0 0 0 0 0 0 0 0 0 0 0 0 0 0 0 0 0 0 0 0 0 0 127 127 127 127 127 127 127 127 127 127 127 127 127 127 127 127 127 127 127 127 127 127 127 127 127 127 127 127 127 127 127 127 127 127 127 127 125 125 124 124 124 124 124 125 126 127 127 127 128 128 128 128 128 128 128 128 128 128 128 128 128 128 128 128 128 128 128 128 128 128 128 128 128 128 128 128 128 128 128 128 128 128 128 128 128 128 128 128 128 128 128 128 128 128 128 128 128 134 182 214 226 231 234 235 236 237 238 238 239 239 240 240 241 241 241 241 241 241 242 242 242 242 242 242 242 242 242 242 242 242 242 243 242 242 243 243 243 243 243 243 243 243 243 243 243 243 243 243 243 243 243 243 243 243 243 243 243 243 243 243 243 234 142 126 125 125 124 124 124 124 124 125 126 127 127 127 128 128 128 128 128 128 128 128 128 128 128 128 128 128 128 128 128 128 128 128 128 128 128 128 128 128 128 128 128 128 128 128 128 128 128 128 128 128 128 128 128 128 128 128 128 128 128 128 128 128
128 128 128 128 128 128 128 128 128 128 128 128 128 128 128 128 128 128 128 128 128 128 128 128 128 128 128 128 128 128 128 128 128 128 128 128 128 128 128 128 128 128 128 128 128 128 128 128 128 128 128 128 128 127 125 124 123 123 123 123 124 125 126 127 250 252 252 252 252 252 252 252 252 252 252 252 252 252 252 252 252 252 252 252 252 252 252 252 252 252 252 252 251 251 252 251 251 251 251 251 251 251 251 251 251 251 251 251 250 250 250 250 250 250 250 249 249 249 248 248 247 246 245 244 241 237 227 192 128 128 128 128 128 128 128 128 128 128 128 128 128 128 128 128 128 128 128 128 128 128 128 128 128 128 128 128 128 128 128 128 128 128 128 128 128 128 128 128 128 128 128 128 128 128 128 128 128 128 128 128 128 127 125 124 123 123 123 123 124 125 126 127 127 127 127 127 127 127 127 127 127 127 127 127 127 127 127 127 127 127 127 127 127 127 127 127 127 127 127 127 127 127 127 127 127 0 0 0 0 0 0 0 0 0 0 0 0 0 0 0 0 0 0 0 0 0 0 0 0 0 0 0 0 0 0 0 0 0 0 0 0 0 0 0 0 0 0 0 0 0 0 0 0 0 0 0 0 0 0 0 0 0 0 0 0 0 127 127 127 127 127 127 127 127 127 127 127 127 127 127 127 127 127 127 127 127 127 127 127 127 127 127 127 127 127 127 127 127 127 127 127 127 130 131 131 132 132 132 132 131 130 129 129 129 128 128 128 128 128 128 128 128 128 128 128 128 128 128 128 128 128 128 128 128 128 128 128 128 128 128 128 128 128 128 128 128 128 128 128 128 128 128 128 128 128 128 128 128 128 128 128 128 128 126 101 88 87 87 87 87 87 87 88 88 88 88 88 88 88 88 88 88 88 88 88 88 88 88 88 88 88 88 88 88 88 88 88 89 88 88 89 89 89 89 89 89 89 89 89 89 89 89 89 89 89 89 89 89 89 89 89 89 89 89 89 89 89 95 125 129 130 131 131 132 132 132 132 131 130 129 129 129 128 128 128 128 128 128 128 128 128 128 128 128 128 128 128 128 128 128 128 128 128 128 128 128 128 128 128 128 128 128 128 128 128 128 128 128 128 128 128 128 128 128 128 128 128 128 128 128 128 128
128 128 128 128 128 128 128 128 128 128 128 128 128 128 128 128 128 128 128 128 128 128 128 128 128 128 128 128 128 128 128 128 128 128 128 128 128 128 128 128 128 128 128 128 128 128 128 128 127 124 120 117 115 114 115 117 118 119 120 122 123 124 125 127 248 253 253 253 253 253 253 253 253 253 253 253 253 253 253 252 252 252 252 252 252 252 252 252 252 252 252 252 252 252 251 251 251 251 251 251 251 250 250 250 250 250 249 249 249 248 248 248 247 247 246 245 244 244 242 241 239 236 234 229 222 211 192 155 128 128 128 128 128 128 128 128 128 128 128 128 128 128 128 128 128 128 128 128 128 128 128 128 128 128 128 128 128 128 128 128 128 128 128 128 128 128 128 128 128 128 128 128 128 128 128 128 127 124 120 117 115 114 115 117 118 119 120 122 123 124 125 127 127 127 127 127 127 127 127 127 127 127 127 127 127 127 127 127 127 127 127 127 127 127 127 127 127 127 127 127 127 127 127 127 127 0 0 0 0 0 0 0 0 0 0 0 0 0 0 0 0 0 0 0 0 0 0 0 0 0 0 0 0 0 0 0 0 0 0 0 0 0 0 0 0 0 0 0 0 0 0 0 0 0 0 0 0 0 0 0 0 0 0 0 0 0 127 127 127 127 127 127 127 127 127 127 127 127 127 127 127 127 127 127 127 127 127 127 127 127 127 127 127 127 127 127 127 127 127 127 127 127 131 132 133 135 136 137 138 139 140 140 139 137 134 131 130 129 129 128 128 128 128 128 128 128 128 128 128 128 128 128 128 128 128 128 128 128 128 128 128 128 128 128 128 128 128 128 128 128 128 128 128 128 128 128 128 128 128 128 128 128 128 126 102 68 48 37 30 26 23 20 18 18 17 15 15 14 13 13 13 12 12 12 12 11 11 11 11 11 11 11 10 10 10 10 10 10 10 10 9 9 9 9 9 9 9 9 9 9 9 9 8 8 9 8 8 8 8 8 8 8 8 8 8 8 16 63 124 129 131 132 133 135 136 137 138 139 140 140 139 137 134 131 130 129 129 128 128 128 128 128 128 128 128 128 128 128 128 128 128 128 128 128 128 128 128 128 128 128 128 128 128 128 128 128 128 128 128 128 128 128 128 128 128 128 128 128 128 128 128 128
128 128 128 128 128 128 128 128 128 128 128 128 128 128 128 128 128 128 128 128 128 128 128 128 128 128 128 128 128 128 128 128 128 128 128 128 128 128 128 128 128 128 128 128 128 124 118 113 108 109 110 111 112 114 115 116 117 119 120 122 123 124 126 127 242 252 252 252 252 252 252 251 251 251 251 251 251 251 251 251 251 251 250 251 250 250 250 250 250 250 250 249 249 249 249 249 249 248 248 248 248 247 247 247 246 246 246 245 245 244 244 243 242 241 240 239 238 236 234 232 229 225 220 214 205 192 172 144 128 128 128 128 128 128 128 128 128 128 128 128 128 128 128 128 128 128 128 128 128 128 128 128 128 128 128 128 128 128 128 128 128 128 128 128 128 128 128 128 128 128 128 128 128 124 118 113 108 109 110 111 112 114 115 116 117 119 120 122 123 124 126 127 127 127 127 127 127 127 127 127 127 127 127 127 127 127 127 127 127 127 127 127 127 127 127 127 127 127 127 127 127 127 127 127 127 0 0 0 0 0 0 0 0 0 0 0 0 0 0 0 0 0 0 0 0 0 0 0 0 0 0 0 0 0 0 0 0 0 0 0 0 0 0 0 0 0 0 0 0 0 0 0 0 0 0 0 0 0 0 0 0 0 0 0 0 0 127 127 127 127 127 127 127 127 127 127 127 127 127 127 127 127 127 127 127 127 127 127 127 127 127 127 127 127 127 127 127 127 127 127 127 127 131 132 133 135 136 137 139 140 141 142 144 144 145 145 144 140 135 130 129 129 128 128 128 128 128 128 128 128 128 128 128 128 128 128 128 128 128 128 128 128 128 128 128 128 128 128 128 128 128 128 128 128 128 128 128 128 128 128 128 128 128 127 111 85 65 52 42 35 30 26 23 21 19 17 16 15 14 13 12 12 11 10 10 9 9 9 8 8 8 7 7 7 7 6 6 6 6 6 6 5 5 5 5 5 5 5 5 4 4 4 4 4 4 4 4 4 4 4 4 4 3 3 3 3 18 75 125 129 131 132 133 135 136 137 139 140 141 142 144 144 145 145 144 140 135 130 129 129 128 128 128 128 128 128 128 128 128 128 128 128 128 128 128 128 128 128 128 128 128 128 128 128 128 128 128 128 128 128 128 128 128 128 128 128 128 128 128 128 128 128
128 128 128 128 128 128 128 128 128 128 128 128 128 128 128 128 128 128 128 128 128 128 128 128 128 128 128 128 128 128 128 128 128 128 128 128 128 128 128 128 128 128 124 114 107 104 105 106 107 108 110 111 112 113 115 116 117 119 120 121 123 124 126 127 235 250 251 250 250 250 250 250 250 250 250 250 249 249 249 249 249 249 249 249 249 248 248 248 248 247 247 247 247 247 246 247 246 246 246 245 245 244 244 244 243 242 242 241 241 240 239 238 237 236 234 233 231 229 226 223 220 215 209 201 191 178 160 139 128 128 128 128 128 128 128 128 128 128 128 128 128 128 128 128 128 128 128 128 128 128 128 128 128 128 128 128 128 128 128 128 128 128 128 128 128 128 128 128 128 128 124 114 107 104 105 106 107 108 110 111 112 113 115 116 117 119 120 121 123 124 126 127 127 127 127 127 127 127 127 127 127 127 127 127 127 127 127 127 127 127 127 127 127 127 127 127 127 127 127 127 127 127 127 127 127 0 0 0 0 0 0 0 0 0 0 0 0 0 0 0 0 0 0 0 0 0 0 0 0 0 0 0 0 0 0 0 0 0 0 0 0 0 0 0 0 0 0 0 0 0 0 0 0 0 0 0 0 0 0 0 0 0 0 0 0 0 127 127 127 127 127 127 127 127 127 127 127 127 127 127 127 127 127 127 127 127 127 127 127 127 127 127 127 127 127 127 127 127 127 127 127 127 131 132 133 135 136 138 139 140 141 143 144 145 146 148 149 149 150 148 143 136 131 129 128 128 128 128 128 128 128 128 128 128 128 128 128 128 128 128 128 128 128 128 128 128 128 128 128 128 128 128 128 128 128 128 128 128 128 128 128 128 128 127 115 95 78 64 54 46 40 36 32 29 26 24 22 21 19 18 17 16 15 14 14 13 13 12 12 11 11 10 10 10 9 9 9 8 8 8 8 8 7 7 7 7 7 6 6 6 6 6 6 6 6 5 5 5 5 5 5 5 5 5 5 5 20 79 125 130 131 132 133 135 136 138 139 140 141 143 144 145 146 148 149 149 150 148 143 136 131 129 128 128 128 128 128 128 128 128 128 128 128 128 128 128 128 128 128 128 128 128 128 128 128 128 128 128 128 128 128 128 128 128 128 128 128 128 128 128 128 128
128 128 128 128 128 128 128 128 128 128 128 128 128 128 128 128 128 128 128 128 128 128 128 128 128 128 128 128 128 128 128 128 128 128 128 128 128 128 128 126 116 104 100 101 102 103 104 106 107 108 109 111 112 113 115 116 117 119 120 121 123 124 125 127 230 249 249 249 249 249 249 249 248 248 248 248 248 248 248 248 247 247 247 247 247 247 246 246 246 246 245 245 245 245 244 244 244 243 243 242 242 241 241 240 240 239 238 237 237 236 235 233 232 231 229 227 225 222 219 215 211 206 199 191 181 169 154 136 128 128 128 128 128 128 128 128 128 128 128 128 128 128 128 128 128 128 128 128 128 128 128 128 128 128 128 128 128 128 128 128 128 128 128 128 128 128 128 126 116 104 100 101 102 103 104 106 107 108 109 111 112 113 115 116 117 119 120 121 123 124 125 127 127 127 127 127 127 127 127 127 127 127 127 127 127 127 127 127 127 127 127 127 127 127 127 127 127 127 127 127 127 127 127 127 127 0 0 0 0 0 0 0 0 0 0 0 0 0 0 0 0 0 0 0 0 0 0 0 0 0 0 0 0 0 0 0 0 0 0 0 0 0 0 0 0 0 0 0 0 0 0 0 0 0 0 0 0 0 0 0 0 0 0 0 0 0 127 127 127 127 127 127 127 127 127 127 127 127 127 127 127 127 127 127 127 127 127 127 127 127 127 127 127 127 127 127 127 127 127 127 127 127 131 132 134 135 136 138 139 140 142 143 144 146 147 148 150 151 152 153 153 154 151 143 135 130 129 128 128 128 128 128 128 128 128 128 128 128 128 128 128 128 128 128 128 128 128 128 128 128 128 128 128 128 128 128 128 128 128 128 128 128 128 127 118 101 86 74 64 56 49 44 40 36 33 30 28 26 25 23 22 21 19 19 18 17 16 15 15 14 13 13 13 12 12 12 11 11 11 10 10 10 10 9 9 9 8 9 8 8 8 8 8 8 7 7 7 7 7 7 6 6 6 6 6 6 21 77 125 129 131 132 134 135 136 138 139 140 142 143 144 146 147 148 150 151 152 153 153 154 151 143 135 130 129 128 128 128 128 128 128 128 128 128 128 128 128 128 128 128 128 128 128 128 128 128 128 128 128 128 128 128 128 128 128 128 128 128 128 128 128 128
128 128 128 128 128 128 128 128 128 128 128 128 128 128 128 128 128 128 128 128 128 128 128 128 128 128 128 128 128 128 128 128 128 128 128 128 128 124 109 97 97 98 99 100 101 102 104 105 106 108 109 111 112 113 114 116 117 118 120 121 123 124 125 127 225 248 248 248 248 247 247 247 247 247 247 246 246 246 246 246 246 245 245 245 245 245 244 244 244 244 243 243 243 242 242 241 241 240 240 240 239 238 238 237 236 236 235 234 233 231 230 229 227 226 224 222 219 216 213 209 204 198 191 183 174 162 149 135 128 128 128 128 128 128 128 128 128 128 128 128 128 128 128 128 128 128 128 128 128 128 128 128 128 128 128 128 128 128 128 128 128 128 128 128 128 124 109 97 97 98 99 100 101 102 104 105 106 108 109 111 112 113 114 116 117 118 120 121 123 124 125 127 127 127 127 127 127 127 127 127 127 127 127 127 127 127 127 127 127 127 127 127 127 127 127 127 127 127 127 127 127 127 127 127 127 0 0 0 0 0 0 0 0 0 0 0 0 0 0 0 0 0 0 0 0 0 0 0 0 0 0 0 0 0 0 0 0 0 0 0 0 0 0 0 0 0 0 0 0 0 0 0 0 0 0 0 0 0 0 0 0 0 0 0 0 0 127 127 127 127 127 127 127 127 127 127 127 127 127 127 127 127 127 127 127 127 127 127 127 127 127 127 127 127 127 127 127 127 127 127 127 127 131 132 134 135 136 138 139 140 142 143 145 146 147 148 150 151 152 154 155 156 157 158 156 149 138 131 129 128 128 128 128 128 128 128 128 128 128 128 128 128 128 128 128 128 128 128 128 128 128 128 128 128 128 128 128 128 128 128 128 128 128 127 120 106 93 82 72 64 57 51 47 43 39 36 34 32 30 28 26 25 23 22 21 20 19 19 18 17 17 16 16 15 14 14 14 13 13 12 12 12 12 11 11 11 11 10 10 10 10 9 9 9 9 9 8 8 8 8 8 8 8 8 7 7 22 79 125 130 131 132 134 135 136 138 139 140 142 143 145 146 147 148 150 151 152 154 155 156 157 158 156 149 138 131 129 128 128 128 128 128 128 128 128 128 128 128 128 128 128 128 128 128 128 128 128 128 128 128 128 128 128 128 128 128 128 128 128 128 128 128
128 128 128 128 128 128 128 128 128 128 128 128 128 128 128 128 128 128 128 128 128 128 128 128 128 128 128 128 128 128 128 128 128 128 128 122 105 93 94 95 96 97 98 100 101 102 103 105 106 107 109 110 112 113 114 116 117 118 120 121 123 124 125 127 211 247 247 246 246 246 246 246 246 245 245 245 245 245 244 244 244 244 244 243 243 243 242 242 242 241 241 241 240 240 239 239 238 238 237 237 236 235 235 234 233 232 231 230 229 228 226 224 223 221 219 216 213 210 206 202 197 191 184 177 168 157 146 134 128 128 128 128 128 128 128 128 128 128 128 128 128 128 128 128 128 128 128 128 128 128 128 128 128 128 128 128 128 128 128 128 128 128 128 122 105 93 94 95 96 97 98 100 101 102 103 105 106 107 109 110 112 113 114 116 117 118 120 121 123 124 125 127 127 127 127 127 127 127 127 127 127 127 127 127 127 127 127 127 127 127 127 127 127 127 127 127 127 127 127 127 127 127 127 127 127 0 0 0 0 0 0 0 0 0 0 0 0 0 0 0 0 0 0 0 0 0 0 0 0 0 0 0 0 0 0 0 0 0 0 0 0 0 0 0 0 0 0 0 0 0 0 0 0 0 0 0 0 0 0 0 0 0 0 0 0 0 127 127 127 127 127 127 127 127 127 127 127 127 127 127 127 127 127 127 127 127 127 127 127 127 127 127 127 127 127 127 127 127 127 127 127 127 131 132 134 135 137 138 139 141 142 143 145 146 148 149 150 152 153 154 155 157 158 159 160 160 160 153 140 131 129 128 128 128 128 128 128 128 128 128 128 128 128 128 128 128 128 128 128 128 128 128 128 128 128 128 128 128 128 128 128 128 128 127 121 109 98 87 78 71 64 58 53 49 45 42 39 36 34 32 31 29 27 26 25 24 23 22 21 20 19 19 18 18 17 17 16 16 15 15 14 14 14 13 13 13 12 12 12 11 11 11 11 11 10 10 10 10 10 9 9 9 9 9 9 9 29 96 126 130 131 132 134 135 137 138 139 141 142 143 145 146 148 149 150 152 153 154 155 157 158 159 160 160 160 153 140 131 129 128 128 128 128 128 128 128 128 128 128 128 128 128 128 128 128 128 128 128 128 128 128 128 128 128 128 128 128 128 128 128 128 128
128 128 128 128 128 128 128 128 128 128 128 128 128 128 128 128 128 128 128 128 128 128 128 128 128 128 128 128 128 128 128 128 128 123 104 90 91 92 93 94 96 97 98 99 100 102 103 104 106 107 108 110 111 113 114 115 117 118 120 121 123 124 125 127 200 245 245 245 245 245 244 244 244 244 244 244 243 243 243 243 242 242 242 241 241 241 240 240 240 239 239 239 238 238 237 237 236 235 235 234 233 232 232 231 230 229 228 227 225 224 222 220 218 216 214 211 208 205 201 196 191 185 179 171 163 154 144 133 128 128 128 128 128 128 128 128 128 128 128 128 128 128 128 128 128 128 128 128 128 128 128 128 128 128 128 128 128 128 128 128 128 123 104 90 91 92 93 94 96 97 98 99 100 102 103 104 106 107 108 110 111 113 114 115 117 118 120 121 123 124 125 127 127 127 127 127 127 127 127 127 127 127 127 127 127 127 127 127 127 127 127 127 127 127 127 127 127 127 127 127 127 127 127 127 127 0 0 0 0 0 0 0 0 0 0 0 0 0 0 0 0 0 0 0 0 0 0 0 0 0 0 0 0 0 0 0 0 0 0 0 0 0 0 0 0 0 0 0 0 0 0 0 0 0 0 0 0 0 0 0 0 0 0 0 0 0 127 127 127 127 127 127 127 127 127 127 127 127 127 127 127 127 127 127 127 127 127 127 127 127 127 127 127 127 127 127 127 127 127 127 127 127 131 132 134 135 137 138 140 141 142 144 145 146 148 149 151 152 153 154 156 157 158 159 161 162 163 163 162 155 141 131 129 128 128 128 128 128 128 128 128 128 128 128 128 128 128 128 128 128 128 128 128 128 128 128 128 128 128 128 128 128 128 128 122 111 102 92 84 76 70 64 59 54 50 47 44 41 39 36 35 33 31 30 28 27 26 25 24 23 22 22 21 20 20 19 18 18 17 17 16 16 16 15 15 15 14 14 13 13 13 13 13 12 12 12 11 11 11 11 11 11 10 10 10 10 30 97 126 130 131 132 134 135 137 138 140 141 142 144 145 146 148 149 151 152 153 154 156 157 158 159 161 162 163 163 162 155 141 131 129 128 128 128 128 128 128 128 128 128 128 128 128 128 128 128 128 128 128 128 128 128 128 128 128 128 128 128 128 128 128 128
128 128 128 128 128 128 128 128 128 128 128 128 128 128 128 128 128 128 128 128 128 128 128 128 128 128 128 128 128 128 128 125 106 88 88 89 90 91 93 94 95 96 97 99 100 101 103 104 105 107 108 109 111 112 114 115 117 118 120 121 122 124 125 127 184 244 244 244 243 243 243 243 243 242 242 242 242 241 241 241 241 240 240 240 239 239 239 238 238 237 237 236 236 235 235 234 234 233 232 231 231 230 229 228 227 226 224 223 222 220 218 216 214 212 209 206 203 200 196 191 186 180 174 167 159 151 142 132 128 128 128 128 128 128 128 128 128 128 128 128 128 128 128 128 128 128 128 128 128 128 128 128 128 128 128 128 128 128 128 125 106 88 88 89 90 91 93 94 95 96 97 99 100 101 103 104 105 107 108 109 111 112 114 115 117 118 120 121 122 124 125 127 127 127 127 127 127 127 127 127 127 127 127 127 127 127 127 127 127 127 127 127 127 127 127 127 127 127 127 127 127 127 127 127 127 0 0 0 0 0 0 0 0 0 0 0 0 0 0 0 0 0 0 0 0 0 0 0 0 0 0 0 0 0 0 0 0 0 0 0 0 0 0 0 0 0 0 0 0 0 0 0 0 0 0 0 0 0 0 0 0 0 0 0 0 0 127 127 127 127 127 127 127 127 127 127 127 127 127 127 127 127 127 127 127 127 127 127 127 127 127 127 127 127 127 127 127 127 127 127 127 127 131 132 134 136 137 138 140 141 143 144 145 147 148 150 151 152 154 155 156 157 159 160 161 163 164 165 166 166 165 155 138 131 128 128 128 128 128 128 128 128 128 128 128 128 128 128 128 128 128 128 128 128 128 128 128 128 128 128 128 128 128 128 123 113 104 96 88 81 75 69 64 59 55 52 48 46 43 41 39 37 35 33 32 31 29 28 27 26 25 24 24 23 22 22 21 20 20 19 19 18 18 17 17 17 16 16 15 15 15 14 14 14 14 13 13 13 13 12 12 12 12 12 12 11 35 110 127 130 131 132 134 136 137 138 140 141 143 144 145 147 148 150 151 152 154 155 156 157 159 160 161 163 164 165 166 166 165 155 138 131 128 128 128 128 128 128 128 128 128 128 128 128 128 128 128 128 128 128 128 128 128 128 128 128 128 128 128 128 128 128
128 128 128 128 128 128 128 128 128 128 128 128 128 128 128 128 128 128 128 128 128 128 128 128 128 128 128 128 128 128 112 88 85 86 87 89 90 91 92 93 94 96 97 98 100 101 102 104 105 106 108 109 111 112 113 115 116 118 119 121 122 124 125 127 167 243 243 242 242 242 242 241 241 241 241 241 240 240 240 239 239 239 238 238 238 237 237 236 236 236 235 234 234 233 233 232 231 231 230 229 228 227 226 225 224 222 221 220 218 216 215 213 210 208 205 202 199 195 191 187 182 176 170 163 156 148 140 132 128 128 128 128 128 128 128 128 128 128 128 128 128 128 128 128 128 128 128 128 128 128 128 128 128 128 128 128 128 128 112 88 85 86 87 89 90 91 92 93 94 96 97 98 100 101 102 104 105 106 108 109 111 112 113 115 116 118 119 121 122 124 125 127 127 127 127 127 127 127 127 127 127 127 127 127 127 127 127 127 127 127 127 127 127 127 127 127 127 127 127 127 127 127 127 127 127 0 0 0 0 0 0 0 0 0 0 0 0 0 0 0 0 0 0 0 0 0 0 0 0 0 0 0 0 0 0 0 0 0 0 0 0 0 0 0 0 0 0 0 0 0 0 0 0 0 0 0 0 0 0 0 0 0 0 0 0 0 127 127 127 127 127 127 127 127 127 127 127 127 127 127 127 127 127 127 127 127 127 127 127 127 127 127 127 127 127 127 127 127 127 127 127 127 131 133 134 136 137 139 140 142 143 145 146 147 149 150 151 153 154 155 157 158 159 161 162 163 164 165 167 168 169 169 166 151 135 129 128 128 128 128 128 128 128 128 128 128 128 128 128 128 128 128 128 128 128 128 128 128 128 128 128 128 128 128 123 115 106 99 92 85 79 73 68 64 60 56 53 50 47 45 42 40 39 37 35 34 32 31 30 29 28 27 26 25 24 24 23 22 22 21 21 20 19 19 19 18 18 17 17 17 16 16 16 16 15 15 15 14 14 14 14 13 13 13 13 12 38 114 127 130 131 133 134 136 137 139 140 142 143 145 146 147 149 150 151 153 154 155 157 158 159 161 162 163 164 165 167 168 169 169 166 151 135 129 128 128 128 128 128 128 128 128 128 128 128 128 128 128 128 128 128 128 128 128 128 128 128 128 128 128 128 128
128 128 128 128 128 128 128 128 128 128 128 128 128 128 128 128 128 128 128 128 128 128 128 128 128 128 128 128 122 95 82 83 84 86 87 88 89 90 91 92 94 95 96 98 99 100 102 103 105 106 108 109 110 112 113 115 116 118 119 121 122 124 125 127 143 240 241 241 241 241 240 240 240 240 239 239 239 238 238 238 237 237 237 236 236 235 235 234 234 233 233 232 232 231 230 230 229 228 227 226 225 224 223 222 221 220 218 217 215 213 211 209 207 204 201 198 195 191 187 183 178 173 167 160 154 147 139 131 128 128 128 128 128 128 128 128 128 128 128 128 128 128 128 128 128 128 128 128 128 128 128 128 128 128 128 128 122 95 82 83 84 86 87 88 89 90 91 92 94 95 96 98 99 100 102 103 105 106 108 109 110 112 113 115 116 118 119 121 122 124 125 127 127 127 127 127 127 127 127 127 127 127 127 127 127 127 127 127 127 127 127 127 127 127 127 127 127 127 127 127 127 127 127 127 127 0 0 0 0 0 0 0 0 0 0 0 0 0 0 0 0 0 0 0 0 0 0 0 0 0 0 0 0 0 0 0 0 0 0 0 0 0 0 0 0 0 0 0 0 0 0 0 0 0 0 0 0 0 0 0 0 0 0 0 0 0 127 127 127 127 127 127 127 127 127 127 127 127 127 127 127 127 127 127 127 127 127 127 127 127 127 127 127 127 127 127 127 127 127 127 127 127 131 133 134 136 137 139 140 142 143 145 146 148 149 150 152 153 155 156 157 159 160 161 162 164 165 166 167 168 170 171 172 171 163 143 131 128 128 128 128 128 128 128 128 128 128 128 128 128 128 128 128 128 128 128 128 128 128 128 128 128 128 128 124 116 109 101 95 88 83 77 72 68 64 60 57 54 51 48 46 44 42 40 39 37 36 34 33 32 31 30 29 28 27 26 25 25 24 23 23 22 22 21 20 20 20 19 19 19 18 18 17 17 17 16 16 16 16 15 15 15 14 14 14 16 48 124 128 130 131 133 134 136 137 139 140 142 143 145 146 148 149 150 152 153 155 156 157 159 160 161 162 164 165 166 167 168 170 171 172 171 163 143 131 128 128 128 128 128 128 128 128 128 128 128 128 128 128 128 128 128 128 128 128 128 128 128 128 128 128 128
128 128 128 128 128 128 128 128 128 128 128 128 128 128 128 128 128 128 128 128 128 128 128 128 128 128 128 110 82 80 81 83 84 85 86 87 88 89 91 92 93 95 96 97 99 100 101 103 104 106 107 109 110 111 113 115 116 117 119 120 122 124 125 127 131 232 240 240 239 239 239 239 238 238 238 238 237 237 237 236 236 235 235 234 234 234 233 233 232 231 231 230 229 229 228 227 227 226 225 224 223 222 220 219 218 217 215 213 212 210 208 205 203 201 198 195 191 187 183 179 174 169 164 158 152 145 138 131 128 128 128 128 128 128 128 128 128 128 128 128 128 128 128 128 128 128 128 128 128 128 128 128 128 128 128 110 82 80 81 83 84 85 86 87 88 89 91 92 93 95 96 97 99 100 101 103 104 106 107 109 110 111 113 115 116 117 119 120 122 124 125 127 127 127 127 127 127 127 127 127 127 127 127 127 127 127 127 127 127 127 127 127 127 127 127 127 127 127 127 127 127 127 127 127 127 0 0 0 0 0 0 0 0 0 0 0 0 0 0 0 0 0 0 0 0 0 0 0 0 0 0 0 0 0 0 0 0 0 0 0 0 0 0 0 0 0 0 0 0 0 0 0 0 0 0 0 0 0 0 0 0 0 0 0 0 0 127 127 127 127 127 127 127 127 127 127 127 127 127 127 127 127 127 127 127 127 127 127 127 127 127 127 127 127 127 127 127 127 127 127 127 127 131 133 135 136 138 139 140 142 144 145 146 148 149 151 152 154 155 156 158 159 160 162 163 164 165 167 168 169 170 171 173 173 174 171 155 135 129 128 128 128 128 128 128 128 128 128 128 128 128 128 128 128 128 128 128 128 128 128 128 128 128 128 124 117 110 104 97 91 86 81 76 72 67 64 60 57 54 52 49 47 45 43 42 40 38 37 36 34 33 32 31 30 29 29 28 27 26 25 25 24 24 23 23 22 22 21 20 20 20 19 19 18 18 18 18 17 17 17 16 16 16 15 15 23 69 124 128 130 131 133 135 136 138 139 140 142 144 145 146 148 149 151 152 154 155 156 158 159 160 162 163 164 165 167 168 169 170 171 173 173 174 171 155 135 129 128 128 128 128 128 128 128 128 128 128 128 128 128 128 128 128 128 128 128 128 128 128 128 128 128
128 128 128 128 128 128 128 128 128 128 128 128 128 128 128 128 128 128 128 128 128 128 128 128 128 125 95 77 79 80 81 82 83 84 85 87 88 89 90 91 93 94 95 97 98 100 101 102 104 105 107 108 110 111 113 114 116 117 119 120 122 123 125 127 128 216 239 238 238 238 238 237 237 237 236 236 236 235 235 235 234 234 233 233 232 232 231 231 230 229 229 228 228 227 226 225 224 223 222 221 220 219 218 217 215 214 212 211 209 207 205 202 200 197 195 191 188 184 180 176 171 166 161 156 150 144 137 131 128 128 128 128 128 128 128 128 128 128 128 128 128 128 128 128 128 128 128 128 128 128 128 128 128 125 95 77 79 80 81 82 83 84 85 87 88 89 90 91 93 94 95 97 98 100 101 102 104 105 107 108 110 111 113 114 116 117 119 120 122 123 125 127 127 127 127 127 127 127 127 127 127 127 127 127 127 127 127 127 127 127 127 127 127 127 127 127 127 127 127 127 127 127 127 127 127 0 0 0 0 0 0 0 0 0 0 0 0 0 0 0 0 0 0 0 0 0 0 0 0 0 0 0 0 0 0 0 0 0 0 0 0 0 0 0 0 0 0 0 0 0 0 0 0 0 0 0 0 0 0 0 0 0 0 0 0 0 127 127 127 127 127 127 127 127 127 127 127 127 127 127 127 127 127 127 127 127 127 127 127 127 127 127 127 127 127 127 127 127 127 127 127 127 131 133 135 136 138 139 141 142 144 145 147 148 150 151 153 154 156 157 158 160 161 162 164 165 166 167 169 170 171 172 173 174 175 176 175 165 141 130 128 128 128 128 128 128 128 128 128 128 128 128 128 128 128 128 128 128 128 128 128 128 128 128 124 118 111 105 99 94 89 84 79 75 71 67 64 61 58 55 53 51 48 46 44 43 41 40 38 37 36 35 34 33 31 31 30 29 28 28 27 26 25 25 24 24 23 23 22 22 21 21 20 20 20 19 19 19 18 18 18 17 17 17 16 28 84 125 128 130 131 133 135 136 138 139 141 142 144 145 147 148 150 151 153 154 156 157 158 160 161 162 164 165 166 167 169 170 171 172 173 174 175 176 175 165 141 130 128 128 128 128 128 128 128 128 128 128 128 128 128 128 128 128 128 128 128 128 128 128 128 128
128 128 128 128 128 128 128 128 128 128 128 128 128 128 128 128 128 128 128 128 128 128 128 128 119 83 76 77 78 79 80 81 82 84 85 86 87 88 90 91 92 93 95 96 98 99 100 102 103 105 106 108 110 111 112 114 115 117 119 120 122 123 125 127 128 194 237 237 237 237 236 236 236 235 235 234 234 234 233 233 232 232 231 231 231 230 229 229 228 228 227 226 226 225 224 223 222 221 220 219 218 217 216 214 213 211 210 208 206 204 202 199 197 194 191 188 185 181 177 173 169 164 159 154 148 142 137 131 128 128 128 128 128 128 128 128 128 128 128 128 128 128 128 128 128 128 128 128 128 128 128 128 119 83 76 77 78 79 80 81 82 84 85 86 87 88 90 91 92 93 95 96 98 99 100 102 103 105 106 108 110 111 112 114 115 117 119 120 122 123 125 127 127 127 127 127 127 127 127 127 127 127 127 127 127 127 127 127 127 127 127 127 127 127 127 127 127 127 127 127 127 127 127 127 127 0 0 0 0 0 0 0 0 0 0 0 0 0 0 0 0 0 0 0 0 0 0 0 0 0 0 0 0 0 0 0 0 0 0 0 0 0 0 0 0 0 0 0 0 0 0 0 0 0 0 0 0 0 0 0 0 0 0 0 0 0 127 127 127 127 127 127 127 127 127 127 127 127 127 127 127 127 127 127 127 127 127 127 127 127 127 127 127 127 127 127 127 127 127 127 127 127 132 133 135 136 138 140 141 143 144 145 147 149 150 152 153 155 156 157 159 160 161 163 164 166 167 168 169 171 172 173 174 175 176 177 178 178 173 149 132 128 128 128 128 128 128 128 128 128 128 128 128 128 128 128 128 128 128 128 128 128 128 128 125 119 113 107 101 96 91 86 82 78 74 70 67 63 61 58 56 53 51 49 47 45 44 42 41 40 38 37 36 35 34 33 32 31 30 30 29 28 28 27 26 26 25 24 24 23 23 22 22 22 21 21 21 20 20 19 19 19 18 18 18 34 99 126 128 130 132 133 135 136 138 140 141 143 144 145 147 149 150 152 153 155 156 157 159 160 161 163 164 166 167 168 169 171 172 173 174 175 176 177 178 178 173 149 132 128 128 128 128 128 128 128 128 128 128 128 128 128 128 128 128 128 128 128 128 128 128 128
128 128 128 128 128 128 128 128 128 128 128 128 128 128 128 128 128 128 128 128 128 128 128 111 75 74 75 76 77 78 79 80 81 83 84 85 86 88 89 90 91 93 94 96 97 99 100 101 103 104 106 107 109 110 112 114 115 117 119 120 122 123 125 127 128 169 236 236 236 235 235 235 234 234 234 233 233 232 232 231 231 231 230 229 229 228 228 227 226 226 225 224 224 223 222 221 220 219 218 217 216 214 213 212 210 209 207 205 203 201 199 197 194 191 188 185 182 178 174 170 166 162 157 152 147 141 136 130 128 128 128 128 128 128 128 128 128 128 128 128 128 128 128 128 128 128 128 128 128 128 128 111 75 74 75 76 77 78 79 80 81 83 84 85 86 88 89 90 91 93 94 96 97 99 100 101 103 104 106 107 109 110 112 114 115 117 119 120 122 123 125 127 127 127 127 127 127 127 127 127 127 127 127 127 127 127 127 127 127 127 127 127 127 127 127 127 127 127 127 127 127 127 127 127 127 0 0 0 0 0 0 0 0 0 0 0 0 0 0 0 0 0 0 0 0 0 0 0 0 0 0 0 0 0 0 0 0 0 0 0 0 0 0 0 0 0 0 0 0 0 0 0 0 0 0 0 0 0 0 0 0 0 0 0 0 0 127 127 127 127 127 127 127 127 127 127 127 127 127 127 127 127 127 127 127 127 127 127 127 127 127 127 127 127 127 127 127 127 127 127 127 127 132 133 135 137 138 140 141 143 144 146 148 149 151 152 154 155 156 158 159 161 162 164 165 166 167 169 170 171 172 174 175 176 177 178 179 180 181 177 157 135 129 128 128 128 128 128 128 128 128 128 128 128 128 128 128 128 128 128 128 128 128 128 125 119 114 108 103 98 93 89 85 80 77 73 70 67 64 61 59 56 54 52 50 48 46 45 44 42 41 39 38 37 36 35 34 33 32 32 31 30 29 29 28 27 27 26 26 25 25 24 24 23 23 22 22 21 21 21 20 20 20 20 19 40 113 127 128 130 132 133 135 137 138 140 141 143 144 146 148 149 151 152 154 155 156 158 159 161 162 164 165 166 167 169 170 171 172 174 175 176 177 178 179 180 181 177 157 135 129 128 128 128 128 128 128 128 128 128 128 128 128 128 128 128 128 128 128 128 128 128
128 128 128 128 128 128 128 128 128 128 128 128 128 128 128 128 128 128 128 128 128 128 101 72 72 73 74 75 76 77 79 80 81 82 83 84 86 87 88 89 91 92 94 95 96 98 99 101 102 104 105 107 109 110 112 114 115 117 118 120 122 123 125 127 128 139 233 235 234 234 234 233 233 232 232 232 231 231 230 230 229 229 228 228 227 227 226 225 225 224 223 222 222 221 220 219 218 217 216 214 213 212 211 209 208 206 204 202 200 198 196 194 191 189 186 183 179 176 172 168 164 160 155 151 146 140 135 130 128 128 128 128 128 128 128 128 128 128 128 128 128 128 128 128 128 128 128 128 128 128 101 72 72 73 74 75 76 77 79 80 81 82 83 84 86 87 88 89 91 92 94 95 96 98 99 101 102 104 105 107 109 110 112 114 115 117 118 120 122 123 125 127 127 127 127 127 127 127 127 127 127 127 127 127 127 127 127 127 127 127 127 127 127 127 127 127 127 127 127 127 127 127 127 127 127 0 0 0 0 0 0 0 0 0 0 0 0 0 0 0 0 0 0 0 0 0 0 0 0 0 0 0 0 0 0 0 0 0 0 0 0 0 0 0 0 0 0 0 0 0 0 0 0 0 0 0 0 0 0 0 0 0 0 0 0 0 127 127 127 127 127 127 127 127 127 127 127 127 127 127 127 127 127 127 127 127 127 127 127 127 127 127 127 127 127 127 127 127 127 127 127 127 131 133 135 137 138 140 142 143 145 146 148 150 151 153 154 156 157 159 160 161 163 164 165 167 168 169 171 172 173 174 175 177 178 179 180 181 182 183 181 165 137 129 128 128 128 128 128 128 128 128 128 128 128 128 128 128 128 128 128 128 128 128 125 120 115 109 104 100 95 91 87 83 79 76 72 69 66 64 61 59 56 55 53 51 49 47 46 44 43 42 40 39 38 37 36 35 34 34 33 32 31 30 29 29 28 28 27 27 26 25 25 25 24 24 23 23 22 22 22 21 21 21 22 53 123 128 128 130 131 133 135 137 138 140 142 143 145 146 148 150 151 153 154 156 157 159 160 161 163 164 165 167 168 169 171 172 173 174 175 177 178 179 180 181 182 183 181 165 137 129 128 128 128 128 128 128 128 128 128 128 128 128 128 128 128 128 128 128 128 128
128 128 128 128 128 128 128 128 128 128 128 128 128 128 128 128 128 128 128 128 127 96 69 70 71 72 73 74 75 76 77 79 80 81 82 84 85 86 88 89 90 92 93 94 96 97 99 100 102 103 105 107 108 110 112 113 115 117 118 120 122 123 125 127 128 129 216 233 233 232 232 232 231 231 231 230 230 229 229 228 228 227 227 226 226 225 224 224 223 222 221 221 220 219 218 217 216 215 214 212 211 210 209 207 205 204 202 200 198 196 194 191 189 186 183 180 177 173 170 166 162 158 154 149 144 140 135 130 128 128 128 128 128 128 128 128 128 128 128 128 128 128 128 128 128 128 128 128 127 96 69 70 71 72 73 74 75 76 77 79 80 81 82 84 85 86 88 89 90 92 93 94 96 97 99 100 102 103 105 107 108 110 112 113 115 117 118 120 122 123 125 127 127 127 127 127 127 127 127 127 127 127 127 127 127 127 127 127 127 127 127 127 127 127 127 127 127 127 127 127 127 127 127 127 127 0 0 0 0 0 0 0 0 0 0 0 0 0 0 0 0 0 0 0 0 0 0 0 0 0 0 0 0 0 0 0 0 0 0 0 0 0 0 0 0 0 0 0 0 0 0 0 0 0 0 0 0 0 0 0 0 0 0 0 0 0 127 127 127 127 127 127 127 127 127 127 127 127 127 127 127 127 127 127 127 127 127 127 127 127 127 127 127 127 127 127 127 127 127 127 127 127 132 133 135 137 138 140 142 144 145 147 148 150 152 153 155 156 158 159 161 162 163 165 166 167 169 170 171 173 174 175 176 177 179 180 181 182 183 184 185 184 170 140 129 128 128 128 128 128 128 128 128 128 128 128 128 128 128 128 128 128 128 128 125 120 115 110 106 101 97 93 89 85 82 78 75 72 69 66 64 61 59 57 55 53 51 50 48 47 45 44 43 41 40 39 38 37 36 35 35 34 33 32 32 31 30 29 29 28 28 27 27 26 25 25 25 24 24 23 23 23 22 22 31 80 125 128 128 130 132 133 135 137 138 140 142 144 145 147 148 150 152 153 155 156 158 159 161 162 163 165 166 167 169 170 171 173 174 175 176 177 179 180 181 182 183 184 185 184 170 140 129 128 128 128 128 128 128 128 128 128 128 128 128 128 128 128 128 128 128 128
128 128 128 128 128 128 128 128 128 128 128 128 128 128 128 128 128 128 128 125 89 67 68 69 70 71 72 73 74 75 77 78 79 80 82 83 84 86 87 88 90 91 92 94 95 97 98 100 101 103 105 106 108 110 111 113 114 116 118 120 121 123 125 127 128 128 191 232 232 231 231 231 230 230 229 229 229 228 228 227 226 226 225 225 224 223 223 222 221 220 220 219 218 217 216 215 214 213 212 210 209 208 206 205 203 201 200 198 196 193 191 189 186 184 181 178 175 172 168 164 160 156 152 148 144 139 134 130 128 128 128 128 128 128 128 128 128 128 128 128 128 128 128 128 128 128 128 125 89 67 68 69 70 71 72 73 74 75 77 78 79 80 82 83 84 86 87 88 90 91 92 94 95 97 98 100 101 103 105 106 108 110 111 113 114 116 118 120 121 123 125 127 127 127 127 127 127 127 127 127 127 127 127 127 127 127 127 127 127 127 127 127 127 127 127 127 127 127 127 127 127 127 127 127 127 0 0 0 0 0 0 0 0 0 0 0 0 0 0 0 0 0 0 0 0 0 0 0 0 0 0 0 0 0 0 0 0 0 0 0 0 0 0 0 0 0 0 0 0 0 0 0 0 0 0 0 0 0 0 0 0 0 0 0 0 0 127 127 127 127 127 127 127 127 127 127 127 127 127 127 127 127 127 127 127 127 127 127 127 127 127 127 127 127 127 127 127 127 127 127 127 127 132 133 135 137 139 140 142 144 146 147 149 150 152 154 155 157 158 160 161 163 164 166 167 168 169 171 172 173 175 176 177 178 179 180 182 183 184 185 186 187 186 174 142 130 128 128 128 128 128 128 128 128 128 128 128 128 128 128 128 128 128 128 125 120 116 112 107 103 99 95 91 87 84 80 77 74 71 69 66 64 62 59 57 55 54 52 50 49 47 46 45 44 42 41 40 39 38 37 36 35 35 34 33 32 32 31 30 30 29 29 28 28 27 27 26 26 25 25 24 24 24 23 38 101 126 128 128 130 132 133 135 137 139 140 142 144 146 147 149 150 152 154 155 157 158 160 161 163 164 166 167 168 169 171 172 173 175 176 177 178 179 180 182 183 184 185 186 187 186 174 142 130 128 128 128 128 128 128 128 128 128 128 128 128 128 128 128 128 128 128
128 128 128 128 128 128 128 128 128 128 128 128 128 128 128 128 128 128 125 83 66 66 68 68 70 71 72 73 74 75 76 77 78 80 81 82 83 85 86 87 89 90 92 93 95 96 98 99 101 102 104 106 107 109 111 113 114 116 118 120 121 123 125 127 128 128 158 231 231 230 230 229 229 229 228 227 227 227 226 225 225 224 224 223 222 222 221 220 220 219 218 217 216 215 214 213 212 211 209 208 207 205 204 202 201 199 197 196 193 191 189 187 184 182 179 176 173 169 166 163 159 155 151 147 143 139 134 130 128 128 128 128 128 128 128 128 128 128 128 128 128 128 128 128 128 128 125 83 66 66 68 68 70 71 72 73 74 75 76 77 78 80 81 82 83 85 86 87 89 90 92 93 95 96 98 99 101 102 104 106 107 109 111 113 114 116 118 120 121 123 125 127 127 127 127 127 127 127 127 127 127 127 127 127 127 127 127 127 127 127 127 127 127 127 127 127 127 127 127 127 127 127 127 127 127 0 0 0 0 0 0 0 0 0 0 0 0 0 0 0 0 0 0 0 0 0 0 0 0 0 0 0 0 0 0 0 0 0 0 0 0 0 0 0 0 0 0 0 0 0 0 0 0 0 0 0 0 0 0 0 0 0 0 0 0 0 127 127 127 127 127 127 127 127 127 127 127 127 127 127 127 127 127 127 127 127 127 127 127 127 127 127 127 127 127 127 127 127 127 127 127 127 132 134 135 137 139 141 142 144 146 147 149 151 152 154 156 157 159 160 162 163 165 166 168 169 170 172 173 174 175 177 178 179 180 181 182 183 184 185 187 187 188 188 177 143 130 128 128 128 128 128 128 128 128 128 128 128 128 128 128 128 128 128 125 121 117 112 108 104 100 96 92 89 86 82 79 76 74 71 68 66 64 62 60 58 56 54 52 51 49 48 47 46 44 43 42 41 40 39 38 37 36 36 35 34 33 33 32 31 31 30 29 29 28 28 28 27 27 26 26 25 25 25 47 116 127 128 129 130 132 134 135 137 139 141 142 144 146 147 149 151 152 154 156 157 159 160 162 163 165 166 168 169 170 172 173 174 175 177 178 179 180 181 182 183 184 185 187 187 188 188 177 143 130 128 128 128 128 128 128 128 128 128 128 128 128 128 128 128 128 128
128 128 128 128 128 128 128 128 128 128 128 128 128 128 128 128 128 125 82 64 65 66 67 68 68 70 71 72 73 74 75 76 78 79 80 81 83 84 85 87 88 89 91 93 94 95 97 99 100 102 104 105 107 109 110 112 114 116 117 119 121 123 125 126 128 128 131 221 229 229 229 228 228 227 227 226 226 225 224 224 223 223 222 221 221 220 219 219 218 217 216 215 214 213 212 211 210 209 208 206 205 204 202 200 199 197 195 193 191 189 187 184 182 180 177 174 171 168 164 161 157 154 150 146 142 138 134 130 128 128 128 128 128 128 128 128 128 128 128 128 128 128 128 128 128 125 82 64 65 66 67 68 68 70 71 72 73 74 75 76 78 79 80 81 83 84 85 87 88 89 91 93 94 95 97 99 100 102 104 105 107 109 110 112 114 116 117 119 121 123 125 126 127 127 127 127 127 127 127 127 127 127 127 127 127 127 127 127 127 127 127 127 127 127 127 127 127 127 127 127 127 127 127 127 127 0 0 0 0 0 0 0 0 0 0 0 0 0 0 0 0 0 0 0 0 0 0 0 0 0 0 0 0 0 0 0 0 0 0 0 0 0 0 0 0 0 0 0 0 0 0 0 0 0 0 0 0 0 0 0 0 0 0 0 0 0 127 127 127 127 127 127 127 127 127 127 127 127 127 127 127 127 127 127 127 127 127 127 127 127 127 127 127 127 127 127 127 127 127 127 127 127 132 134 136 138 139 141 143 145 146 148 150 151 153 155 156 158 160 161 163 164 165 167 168 170 171 172 174 175 176 177 179 180 181 182 183 184 185 186 187 188 189 190 190 178 143 129 128 128 128 128 128 128 128 128 128 128 128 128 128 128 128 128 125 121 117 113 109 105 102 98 94 91 88 84 81 78 76 73 70 68 66 64 62 60 58 56 55 53 52 50 49 47 46 45 44 43 42 41 40 39 38 37 36 36 35 34 33 33 32 32 31 31 30 29 29 28 28 27 27 27 26 31 70 124 128 128 128 130 132 134 136 138 139 141 143 145 146 148 150 151 153 155 156 158 160 161 163 164 165 167 168 170 171 172 174 175 176 177 179 180 181 182 183 184 185 186 187 188 189 190 190 178 143 129 128 128 128 128 128 128 128 128 128 128 128 128 128 128 128 128
128 128 128 128 128 128 128 128 128 128 128 128 128 128 128 128 127 87 62 63 64 64 66 67 68 69 70 71 72 73 74 76 77 78 79 80 82 83 84 86 87 89 90 92 93 95 96 98 100 101 103 105 107 108 110 112 114 115 117 119 121 123 125 127 128 128 128 195 228 228 227 227 226 226 225 225 224 224 223 222 222 221 221 220 219 219 218 217 216 215 214 213 213 211 210 209 208 207 206 204 203 202 200 199 197 195 193 191 189 187 185 182 180 177 175 172 169 166 163 159 156 152 149 145 141 137 134 129 128 128 128 128 128 128 128 128 128 128 128 128 128 128 128 128 127 87 62 63 64 64 66 67 68 69 70 71 72 73 74 76 77 78 79 80 82 83 84 86 87 89 90 92 93 95 96 98 100 101 103 105 107 108 110 112 114 115 117 119 121 123 125 127 127 127 127 127 127 127 127 127 127 127 127 127 127 127 127 127 127 127 127 127 127 127 127 127 127 127 127 127 127 127 127 127 127 0 0 0 0 0 0 0 0 0 0 0 0 0 0 0 0 0 0 0 0 0 0 0 0 0 0 0 0 0 0 0 0 0 0 0 0 0 0 0 0 0 0 0 0 0 0 0 0 0 0 0 0 0 0 0 0 0 0 0 0 0 127 127 127 127 127 127 127 127 127 127 127 127 127 127 127 127 127 127 127 127 127 127 127 127 127 127 127 127 127 127 127 127 127 127 127 127 132 134 136 138 140 141 143 145 147 148 150 152 154 155 157 159 160 162 163 165 166 168 169 170 172 173 175 176 177 178 180 181 182 183 184 185 186 187 188 189 190 191 192 191 179 142 129 128 128 128 128 128 128 128 128 128 128 128 128 128 128 128 126 122 118 114 110 106 103 99 96 92 89 86 83 80 78 75 73 70 68 66 64 62 60 58 57 55 53 52 51 49 48 47 46 45 44 43 42 41 40 39 38 37 36 36 35 34 34 33 32 32 31 31 30 30 29 28 28 28 27 39 96 126 128 128 129 130 132 134 136 138 140 141 143 145 147 148 150 152 154 155 157 159 160 162 163 165 166 168 169 170 172 173 175 176 177 178 180 181 182 183 184 185 186 187 188 189 190 191 192 191 179 142 129 128 128 128 128 128 128 128 128 128 128 128 128 128 128 128
128 128 128 128 128 128 128 128 128 128 128 128 128 128 128 128 93 60 61 62 63 64 65 66 67 68 69 70 71 72 73 74 76 77 78 80 81 82 84 85 87 88 89 91 93 94 96 98 99 101 102 104 106 108 110 112 113 115 117 119 121 123 125 127 128 128 128 158 226 227 226 226 225 224 224 223 223 222 222 221 220 220 219 219 218 217 216 215 215 214 213 212 211 210 209 208 206 205 204 203 201 200 198 196 195 193 191 189 187 185 183 181 178 176 173 170 167 164 161 158 155 151 148 144 141 137 133 129 128 128 128 128 128 128 128 128 128 128 128 128 128 128 128 128 93 60 61 62 63 64 65 66 67 68 69 70 71 72 73 74 76 77 78 80 81 82 84 85 87 88 89 91 93 94 96 98 99 101 102 104 106 108 110 112 113 115 117 119 121 123 125 127 127 127 127 127 127 127 127 127 127 127 127 127 127 127 127 127 127 127 127 127 127 127 127 127 127 127 127 127 127 127 127 127 127 0 0 0 0 0 0 0 0 0 0 0 0 0 0 0 0 0 0 0 0 0 0 0 0 0 0 0 0 0 0 0 0 0 0 0 0 0 0 0 0 0 0 0 0 0 0 0 0 0 0 0 0 0 0 0 0 0 0 0 0 0 127 127 127 127 127 127 127 127 127 127 127 127 127 127 127 127 127 127 127 127 127 127 127 127 127 127 127 127 127 127 127 127 127 127 127 127 132 134 136 138 140 142 143 145 147 149 151 153 154 156 158 159 161 162 164 165 167 169 170 171 173 174 175 177 178 179 180 182 183 184 185 186 187 188 189 190 191 192 193 194 193 177 139 129 128 128 128 128 128 128 128 128 128 128 128 128 128 128 126 122 118 114 111 107 104 100 97 94 91 88 85 82 79 77 74 72 70 68 66 64 62 60 59 57 55 54 52 51 50 49 48 46 45 44 43 42 41 40 40 39 38 37 37 36 35 35 34 33 33 32 31 31 30 30 30 29 30 49 116 127 128 128 128 130 132 134 136 138 140 142 143 145 147 149 151 153 154 156 158 159 161 162 164 165 167 169 170 171 173 174 175 177 178 179 180 182 183 184 185 186 187 188 189 190 191 192 193 194 193 177 139 129 128 128 128 128 128 128 128 128 128 128 128 128 128 128
128 128 128 128 128 128 128 128 128 128 128 128 128 128 128 97 58 59 60 61 62 63 64 65 66 67 68 69 70 71 73 74 75 76 77 79 80 81 83 84 86 87 89 90 92 93 95 97 98 100 102 104 105 107 109 111 113 115 117 119 121 123 125 127 128 128 128 130 215 225 225 224 224 223 223 222 222 221 220 220 219 218 218 217 216 216 215 214 213 212 211 210 209 208 207 206 205 203 202 201 199 198 196 195 193 191 189 187 185 183 181 179 176 174 171 169 166 163 160 157 154 150 147 144 140 136 133 129 128 128 128 128 128 128 128 128 128 128 128 128 128 128 128 97 58 59 60 61 62 63 64 65 66 67 68 69 70 71 73 74 75 76 77 79 80 81 83 84 86 87 89 90 92 93 95 97 98 100 102 104 105 107 109 111 113 115 117 119 121 123 125 127 127 127 127 127 127 127 127 127 127 127 127 127 127 127 127 127 127 127 127 127 127 127 127 127 127 127 127 127 127 127 127 127 127 0 0 0 0 0 0 0 0 0 0 0 0 0 0 0 0 0 0 0 0 0 0 0 0 0 0 0 0 0 0 0 0 0 0 0 0 0 0 0 0 0 0 0 0 0 0 0 0 0 0 0 0 0 0 0 0 0 0 0 0 0 127 127 127 127 127 127 127 127 127 127 127 127 127 127 127 127 127 127 127 127 127 127 127 127 127 127 127 127 127 127 127 127 127 127 127 127 133 134 136 138 140 142 144 146 148 149 151 153 155 156 158 160 162 163 165 166 168 169 171 172 174 175 176 178 179 180 181 183 184 185 186 187 188 189 190 191 192 193 194 195 196 194 174 136 128 128 128 128 128 128 128 128 128 128 128 128 128 128 126 122 119 115 111 108 105 101 98 95 92 89 86 84 81 79 76 74 72 70 68 66 64 62 60 59 57 56 54 53 52 50 49 48 47 46 45 44 43 42 41 40 40 39 38 37 37 36 35 35 34 33 33 32 32 31 31 30 35 74 124 128 128 128 129 130 133 134 136 138 140 142 144 146 148 149 151 153 155 156 158 160 162 163 165 166 168 169 171 172 174 175 176 178 179 180 181 183 184 185 186 187 188 189 190 191 192 193 194 195 196 194 174 136 128 128 128 128 128 128 128 128 128 128 128 128 128 128
128 128 128 128 128 128 128 128 128 128 128 128 128 128 108 58 57 58 59 60 61 62 63 64 65 66 67 68 69 70 71 73 74 75 76 78 79 80 82 83 85 86 88 89 91 93 94 96 98 100 101 103 105 107 109 111 113 115 117 119 121 123 124 127 128 128 128 128 182 224 224 223 222 222 221 221 220 220 219 218 218 217 216 215 215 214 213 212 212 211 209 209 207 207 205 204 203 202 200 199 197 196 194 193 191 189 188 186 184 182 179 177 175 172 170 167 164 161 159 156 153 149 146 143 139 136 133 129 128 128 128 128 128 128 128 128 128 128 128 128 128 128 108 58 57 58 59 60 61 62 63 64 65 66 67 68 69 70 71 73 74 75 76 78 79 80 82 83 85 86 88 89 91 93 94 96 98 100 101 103 105 107 109 111 113 115 117 119 121 123 124 127 127 127 127 127 127 127 127 127 127 127 127 127 127 127 127 127 127 127 127 127 127 127 127 127 127 127 127 127 127 127 127 127 127 0 0 0 0 0 0 0 0 0 0 0 0 0 0 0 0 0 0 0 0 0 0 0 0 0 0 0 0 0 0 0 0 0 0 0 0 0 0 0 0 0 0 0 0 0 0 0 0 0 0 0 0 0 0 0 0 0 0 0 0 0 127 127 127 127 127 127 127 127 127 127 127 127 127 127 127 127 127 127 127 127 127 127 127 127 127 127 127 127 127 127 127 127 127 127 127 127 133 134 137 139 140 142 144 146 148 150 152 154 156 157 159 161 162 164 166 167 169 170 171 173 175 176 177 179 180 181 182 184 185 186 187 188 189 190 191 192 193 194 195 196 197 198 194 167 134 128 128 128 128 128 128 128 128 128 128 128 128 128 126 122 119 116 112 109 106 102 99 96 93 91 88 85 83 80 78 76 73 71 69 67 66 64 62 61 59 57 56 55 53 52 51 50 48 48 46 46 45 44 43 42 41 40 39 39 38 37 37 36 35 35 34 34 33 32 32 31 44 104 126 128 128 128 129 130 133 134 137 139 140 142 144 146 148 150 152 154 156 157 159 161 162 164 166 167 169 170 171 173 175 176 177 179 180 181 182 184 185 186 187 188 189 190 191 192 193 194 195 196 197 198 194 167 134 128 128 128 128 128 128 128 128 128 128 128 128 128
128 128 128 128 128 128 128 128 128 128 128 128 128 118 59 56 56 57 58 59 60 61 62 63 64 65 66 67 68 69 70 72 73 74 75 77 78 80 81 82 84 85 87 89 90 92 94 95 97 99 101 103 105 106 108 110 112 114 116 118 120 122 124 127 128 128 128 128 142 220 222 222 221 221 220 220 219 218 218 217 216 216 215 214 213 213 212 211 210 209 208 207 206 205 204 203 201 200 199 197 196 194 193 191 190 188 186 184 182 180 178 176 173 171 169 166 163 160 157 155 152 149 145 142 139 136 133 129 128 128 128 128 128 128 128 128 128 128 128 128 128 118 59 56 56 57 58 59 60 61 62 63 64 65 66 67 68 69 70 72 73 74 75 77 78 80 81 82 84 85 87 89 90 92 94 95 97 99 101 103 105 106 108 110 112 114 116 118 120 122 124 127 127 127 127 127 127 127 127 127 127 127 127 127 127 127 127 127 127 127 127 127 127 127 127 127 127 127 127 127 127 127 127 127 127 0 0 0 0 0 0 0 0 0 0 0 0 0 0 0 0 0 0 0 0 0 0 0 0 0 0 0 0 0 0 0 0 0 0 0 0 0 0 0 0 0 0 0 0 0 0 0 0 0 0 0 0 0 0 0 0 0 0 0 0 0 127 127 127 127 127 127 127 127 127 127 127 127 127 127 127 127 127 127 127 127 127 127 127 127 127 127 127 127 127 127 127 127 127 127 127 127 133 135 137 139 141 143 145 147 149 151 152 154 156 158 160 161 163 165 166 168 169 171 172 174 175 177 178 180 181 182 183 185 186 187 188 189 190 191 192 193 194 195 196 197 198 199 199 194 158 132 128 128 128 128 128 128 128 128 128 128 128 128 126 122 119 116 113 109 106 104 100 97 95 92 89 86 84 82 79 77 75 73 71 69 67 65 64 62 60 59 58 56 55 54 52 51 50 49 48 47 46 45 44 43 42 42 41 40 39 39 38 37 37 36 35 35 34 34 33 35 61 120 128 128 128 128 129 131 133 135 137 139 141 143 145 147 149 151 152 154 156 158 160 161 163 165 166 168 169 171 172 174 175 177 178 180 181 182 183 185 186 187 188 189 190 191 192 193 194 195 196 197 198 199 199 194 158 132 128 128 128 128 128 128 128 128 128 128 128 128
128 128 128 128 128 128 128 128 128 128 128 128 125 67 54 54 55 56 57 58 59 60 61 62 63 64 65 66 67 68 69 70 72 73 75 76 77 79 80 81 83 85 86 88 89 91 93 95 97 98 100 102 104 106 108 110 112 114 116 118 120 122 124 127 128 128 128 128 128 195 221 221 220 219 219 218 218 217 216 216 215 214 213 213 212 211 210 209 208 208 206 205 204 203 202 201 200 199 197 196 194 193 191 190 188 186 184 183 181 178 176 174 172 169 167 164 162 159 157 154 151 148 145 142 139 136 132 129 128 128 128 128 128 128 128 128 128 128 128 128 125 67 54 54 55 56 57 58 59 60 61 62 63 64 65 66 67 68 69 70 72 73 75 76 77 79 80 81 83 85 86 88 89 91 93 95 97 98 100 102 104 106 108 110 112 114 116 118 120 122 124 127 127 127 127 127 127 127 127 127 127 127 127 127 127 127 127 127 127 127 127 127 127 127 127 127 127 127 127 127 127 127 127 127 127 0 0 0 0 0 0 0 0 0 0 0 0 0 0 0 0 0 0 0 0 0 0 0 0 0 0 0 0 0 0 0 0 0 0 0 0 0 0 0 0 0 0 0 0 0 0 0 0 0 0 0 0 0 0 0 0 0 0 0 0 0 127 127 127 127 127 127 127 127 127 127 127 127 127 127 127 127 127 127 127 127 127 127 127 127 127 127 127 127 127 127 127 127 127 127 127 127 133 135 137 139 141 143 145 147 149 151 153 155 157 159 160 162 164 166 167 169 171 172 173 175 176 178 179 181 182 183 184 186 187 188 189 190 191 192 194 194 195 196 197 198 199 200 201 200 192 149 130 128 128 128 128 128 128 128 128 128 128 128 126 123 120 116 113 110 107 104 101 98 96 93 91 88 86 83 81 79 77 74 73 71 69 67 65 64 62 61 59 58 57 55 54 53 52 51 50 48 47 46 46 45 44 43 42 41 41 40 39 38 38 37 37 36 36 35 35 43 92 125 128 128 128 128 129 131 133 135 137 139 141 143 145 147 149 151 153 155 157 159 160 162 164 166 167 169 171 172 173 175 176 178 179 181 182 183 184 186 187 188 189 190 191 192 194 194 195 196 197 198 199 200 201 200 192 149 130 128 128 128 128 128 128 128 128 128 128 128
128 128 128 128 128 128 128 128 128 128 128 128 85 52 53 54 54 55 56 57 58 59 60 61 62 63 64 65 66 67 68 69 71 72 73 75 76 78 79 81 82 84 85 87 89 91 92 94 96 98 99 101 103 105 107 109 111 114 116 118 120 122 124 126 128 128 128 128 128 153 219 219 219 218 218 217 216 216 215 214 214 213 212 211 211 210 209 208 207 206 205 204 203 202 201 200 198 197 196 194 193 191 190 188 186 185 183 181 179 177 175 173 170 168 166 163 161 158 155 153 150 147 144 141 138 135 132 129 128 128 128 128 128 128 128 128 128 128 128 128 85 52 53 54 54 55 56 57 58 59 60 61 62 63 64 65 66 67 68 69 71 72 73 75 76 78 79 81 82 84 85 87 89 91 92 94 96 98 99 101 103 105 107 109 111 114 116 118 120 122 124 126 127 127 127 127 127 127 127 127 127 127 127 127 127 127 127 127 127 127 127 127 127 127 127 127 127 127 127 127 127 127 127 127 127 0 0 0 0 0 0 0 0 0 0 0 0 0 0 0 0 0 0 0 0 0 0 0 0 0 0 0 0 0 0 0 0 0 0 0 0 0 0 0 0 0 0 0 0 0 0 0 0 0 0 0 0 0 0 0 0 0 0 0 0 0 127 127 127 127 127 127 127 127 127 127 127 127 127 127 127 127 127 127 127 127 127 127 127 127 127 127 127 127 127 127 127 127 127 127 127 127 133 135 137 139 141 143 146 148 150 152 154 156 158 159 161 163 165 166 168 170 171 173 174 176 178 179 180 182 183 184 185 187 188 189 190 191 192 193 194 195 196 197 198 199 200 201 202 202 201 185 140 129 128 128 128 128 128 128 128 128 128 128 126 123 120 117 114 111 108 105 102 100 97 94 92 89 87 85 82 80 78 76 74 72 70 69 67 65 64 62 61 59 58 57 56 54 53 52 51 50 49 48 47 46 45 44 44 43 42 41 41 40 39 39 38 37 37 36 37 56 117 127 128 128 128 128 129 131 133 135 137 139 141 143 146 148 150 152 154 156 158 159 161 163 165 166 168 170 171 173 174 176 178 179 180 182 183 184 185 187 188 189 190 191 192 193 194 195 196 197 198 199 200 201 202 202 201 185 140 129 128 128 128 128 128 128 128 128 128 128
128 128 128 128 128 128 128 128 128 128 128 104 50 51 52 53 53 54 55 56 57 58 59 59 61 62 63 64 65 66 67 68 70 71 72 74 75 77 78 80 81 83 84 86 88 89 91 93 95 97 99 101 103 105 107 109 111 113 115 117 120 122 124 126 128 128 128 128 128 129 199 218 218 217 217 216 215 215 214 213 212 212 211 210 209 208 208 207 206 205 203 203 202 200 199 198 197 195 194 193 191 190 188 187 185 183 181 180 177 175 174 171 169 167 164 162 160 157 154 152 149 146 144 141 138 135 132 129 128 128 128 128 128 128 128 128 128 128 128 104 50 51 52 53 53 54 55 56 57 58 59 59 61 62 63 64 65 66 67 68 70 71 72 74 75 77 78 80 81 83 84 86 88 89 91 93 95 97 99 101 103 105 107 109 111 113 115 117 120 122 124 126 127 127 127 127 127 127 127 127 127 127 127 127 127 127 127 127 127 127 127 127 127 127 127 127 127 127 127 127 127 127 127 127 127 0 0 0 0 0 0 0 0 0 0 0 0 0 0 0 0 0 0 0 0 0 0 0 0 0 0 0 0 0 0 0 0 0 0 0 0 0 0 0 0 0 0 0 0 0 0 0 0 0 0 0 0 0 0 0 0 0 0 0 0 0 127 127 127 127 127 127 127 127 127 127 127 127 127 127 127 127 127 127 127 127 127 127 127 127 127 127 127 127 127 127 127 127 127 127 127 127 133 135 138 140 142 144 146 148 150 152 154 156 158 160 162 164 166 167 169 171 172 174 176 177 179 180 181 183 184 185 186 188 189 190 191 192 193 194 196 196 197 198 199 200 201 202 203 203 204 201 173 134 128 128 128 128 128 128 128 128 128 128 126 123 120 117 114 112 109 106 103 100 98 95 93 90 88 86 84 81 80 77 75 74 72 70 68 67 65 64 62 61 60 58 57 56 55 54 52 51 50 49 48 48 47 46 45 44 43 43 42 41 40 40 39 39 38 37 44 88 125 128 128 128 128 128 129 131 133 135 138 140 142 144 146 148 150 152 154 156 158 160 162 164 166 167 169 171 172 174 176 177 179 180 181 183 184 185 186 188 189 190 191 192 193 194 196 196 197 198 199 200 201 202 203 203 204 201 173 134 128 128 128 128 128 128 128 128 128 128
128 128 128 128 128 128 128 128 128 128 121 57 49 50 51 51 52 53 54 55 56 57 57 58 59 60 61 63 64 65 66 67 69 70 71 73 74 76 77 79 80 82 83 85 87 88 90 92 94 96 98 100 102 104 106 108 111 113 115 117 120 122 124 126 128 128 128 128 128 128 157 217 216 216 215 215 214 213 213 212 211 210 210 209 208 207 206 205 204 203 202 201 200 199 198 197 195 194 193 191 190 188 187 185 183 182 180 178 176 174 172 170 168 166 163 161 159 156 154 151 148 146 143 140 137 135 132 129 128 128 128 128 128 128 128 128 128 128 121 57 49 50 51 51 52 53 54 55 56 57 57 58 59 60 61 63 64 65 66 67 69 70 71 73 74 76 77 79 80 82 83 85 87 88 90 92 94 96 98 100 102 104 106 108 111 113 115 117 120 122 124 126 127 127 127 127 127 127 127 127 127 127 127 127 127 127 127 127 127 127 127 127 127 127 127 127 127 127 127 127 127 127 127 127 127 0 0 0 0 0 0 0 0 0 0 0 0 0 0 0 0 0 0 0 0 0 0 0 0 0 0 0 0 0 0 0 0 0 0 0 0 0 0 0 0 0 0 0 0 0 0 0 0 0 0 0 0 0 0 0 0 0 0 0 0 0 127 127 127 127 127 127 127 127 127 127 127 127 127 127 127 127 127 127 127 127 127 127 127 127 127 127 127 127 127 127 127 127 127 127 127 127 133 135 138 140 142 144 147 149 151 153 155 157 159 161 163 165 166 168 170 172 173 175 176 178 179 181 182 184 185 187 188 189 190 191 192 193 194 195 197 198 199 199 200 201 202 203 204 205 205 206 200 155 130 128 128 128 128 128 128 128 128 128 126 123 120 118 115 112 109 107 104 101 99 96 94 92 89 87 85 83 81 79 77 75 73 72 70 68 67 65 64 62 61 60 58 57 56 55 54 53 52 51 50 49 48 47 46 45 45 44 43 42 42 41 40 40 39 39 56 115 127 128 128 128 128 128 129 131 133 135 138 140 142 144 147 149 151 153 155 157 159 161 163 165 166 168 170 172 173 175 176 178 179 181 182 184 185 187 188 189 190 191 192 193 194 195 197 198 199 199 200 201 202 203 204 205 205 206 200 155 130 128 128 128 128 128 128 128 128 128
128 128 128 128 128 128 128 128 128 128 79 47 48 49 50 50 51 52 53 54 54 55 56 57 58 59 61 61 63 64 65 66 67 69 70 71 73 74 76 77 79 81 82 84 86 87 89 91 93 95 97 99 101 104 106 108 110 112 115 117 119 122 124 126 128 128 128 128 128 128 129 197 215 215 214 214 213 212 211 211 210 209 208 208 207 206 205 204 203 202 201 200 199 198 196 195 194 192 191 190 188 187 185 184 182 180 179 177 175 173 171 169 167 165 162 160 157 155 153 150 148 145 142 140 137 134 132 129 128 128 128 128 128 128 128 128 128 128 79 47 48 49 50 50 51 52 53 54 54 55 56 57 58 59 61 61 63 64 65 66 67 69 70 71 73 74 76 77 79 81 82 84 86 87 89 91 93 95 97 99 101 104 106 108 110 112 115 117 119 122 124 126 127 127 127 127 127 127 127 127 127 127 127 127 127 127 127 127 127 127 127 127 127 127 127 127 127 127 127 127 127 127 127 127 127 0 0 0 0 0 0 0 0 0 0 0 0 0 0 0 0 0 0 0 0 0 0 0 0 0 0 0 0 0 0 0 0 0 0 0 0 0 0 0 0 0 0 0 0 0 0 0 0 0 0 0 0 0 0 0 0 0 0 0 0 0 127 127 127 127 127 127 127 127 127 127 127 127 127 127 127 127 127 127 127 127 127 127 127 127 127 127 127 127 127 127 127 127 127 127 127 127 133 136 138 140 143 145 147 149 151 154 156 158 160 162 164 166 167 169 171 173 174 176 178 179 181 182 184 185 186 188 188 190 191 192 194 195 196 197 198 199 200 201 201 203 203 204 205 206 206 207 207 191 141 129 128 128 128 128 128 128 128 128 126 124 121 118 115 113 110 107 105 102 100 97 95 93 90 88 86 84 82 80 78 76 75 73 71 70 68 67 65 64 62 61 60 59 57 56 55 54 53 52 51 50 49 49 47 47 46 45 44 44 43 42 42 41 40 46 89 125 128 128 128 128 128 128 129 131 133 136 138 140 143 145 147 149 151 154 156 158 160 162 164 166 167 169 171 173 174 176 178 179 181 182 184 185 186 188 188 190 191 192 194 195 196 197 198 199 200 201 201 203 203 204 205 206 206 207 207 191 141 129 128 128 128 128 128 128 128 128
128 128 128 128 128 128 128 128 128 106 45 46 47 47 48 49 50 51 51 52 53 54 55 56 57 58 59 60 61 63 64 65 66 68 69 70 72 73 75 76 78 79 81 83 85 87 88 90 92 94 96 99 101 103 105 107 110 112 114 117 119 121 124 126 128 128 128 128 128 128 128 152 214 214 213 212 212 211 210 210 209 208 207 206 205 204 203 203 202 201 199 199 197 196 195 194 192 191 190 188 187 185 184 182 181 179 177 175 174 172 170 168 166 164 161 159 157 154 152 150 147 145 142 139 137 134 131 129 128 128 128 128 128 128 128 128 128 106 45 46 47 47 48 49 50 51 51 52 53 54 55 56 57 58 59 60 61 63 64 65 66 68 69 70 72 73 75 76 78 79 81 83 85 87 88 90 92 94 96 99 101 103 105 107 110 112 114 117 119 121 124 126 127 127 127 127 127 127 127 127 127 127 127 127 127 127 127 127 127 127 127 127 127 127 127 127 127 127 127 127 127 127 127 127 127 0 0 0 0 0 0 0 0 0 0 0 0 0 0 0 0 0 0 0 0 0 0 0 0 0 0 0 0 0 0 0 0 0 0 0 0 0 0 0 0 0 0 0 0 0 0 0 0 0 0 0 0 0 0 0 0 0 0 0 0 0 127 127 127 127 127 127 127 127 127 127 127 127 127 127 127 127 127 127 127 127 127 127 127 127 127 127 127 127 127 127 127 127 127 127 127 127 134 136 138 141 143 145 148 150 152 154 157 159 161 163 165 167 168 170 172 174 175 177 179 180 182 183 185 186 187 189 190 191 192 193 195 196 197 198 199 200 201 202 202 203 204 205 206 207 207 208 209 206 174 134 128 128 128 128 128 128 128 128 126 123 121 118 116 113 111 108 105 103 101 98 96 94 91 89 87 85 83 81 79 78 76 74 73 71 69 68 67 65 64 63 61 60 59 58 56 56 54 53 52 52 50 50 49 48 47 46 46 45 44 43 43 42 42 59 116 127 128 128 128 128 128 128 129 131 134 136 138 141 143 145 148 150 152 154 157 159 161 163 165 167 168 170 172 174 175 177 179 180 182 183 185 186 187 189 190 191 192 193 195 196 197 198 199 200 201 202 202 203 204 205 206 207 207 208 209 206 174 134 128 128 128 128 128 128 128 128
128 128 128 128 128 128 128 128 125 57 44 45 46 47 47 48 49 50 50 51 52 53 54 55 56 57 58 59 60 61 63 64 65 66 68 69 71 72 73 75 77 78 80 82 84 86 87 89 91 93 95 98 100 102 105 107 109 111 114 116 119 121 124 126 128 128 128 128 128 128 128 128 189 213 212 211 211 210 209 208 207 207 206 205 204 203 202 201 200 199 198 197 196 195 194 192 191 190 189 187 186 184 183 181 179 178 176 174 172 170 169 167 165 163 160 158 156 154 151 149 146 144 141 139 136 134 131 129 128 128 128 128 128 128 128 128 125 57 44 45 46 47 47 48 49 50 50 51 52 53 54 55 56 57 58 59 60 61 63 64 65 66 68 69 71 72 73 75 77 78 80 82 84 86 87 89 91 93 95 98 100 102 105 107 109 111 114 116 119 121 124 126 127 127 127 127 127 127 127 127 127 127 127 127 127 127 127 127 127 127 127 127 127 127 127 127 127 127 127 127 127 127 127 127 127 0 0 0 0 0 0 0 0 0 0 0 0 0 0 0 0 0 0 0 0 0 0 0 0 0 0 0 0 0 0 0 0 0 0 0 0 0 0 0 0 0 0 0 0 0 0 0 0 0 0 0 0 0 0 0 0 0 0 0 0 0 127 127 127 127 127 127 127 127 127 127 127 127 127 127 127 127 127 127 127 127 127 127 127 127 127 127 127 127 127 127 127 127 127 127 127 127 134 136 139 141 144 146 148 151 153 155 157 160 161 164 166 168 169 171 173 175 176 178 180 182 183 184 186 187 189 190 191 192 194 195 196 197 198 199 200 201 202 203 204 205 206 206 207 208 209 209 210 210 202 151 130 128 128 128 128 128 128 128 126 124 121 118 116 113 111 109 106 104 102 99 97 95 92 90 88 86 84 83 81 79 77 76 74 72 71 69 68 66 65 64 63 61 60 59 58 57 56 55 54 53 52 51 50 49 48 47 47 46 45 45 44 43 50 95 125 128 128 128 128 128 128 128 129 131 134 136 139 141 144 146 148 151 153 155 157 160 161 164 166 168 169 171 173 175 176 178 180 182 183 184 186 187 189 190 191 192 194 195 196 197 198 199 200 201 202 203 204 205 206 206 207 208 209 209 210 210 202 151 130 128 128 128 128 128 128 128
128 128 128 128 128 128 128 128 94 42 43 44 45 45 46 47 47 48 49 50 51 52 53 54 55 56 57 58 59 60 61 63 64 65 66 68 69 71 72 74 76 77 79 81 83 84 86 88 90 92 95 97 99 102 104 106 109 111 113 116 118 121 124 126 128 128 128 128 128 128 128 128 142 208 210 210 209 209 208 207 206 206 205 204 203 202 201 200 199 198 197 196 195 194 192 191 190 189 187 186 184 183 182 180 178 176 175 173 171 169 168 166 164 161 160 157 155 153 151 148 146 144 141 139 136 134 131 129 128 128 128 128 128 128 128 128 94 42 43 44 45 45 46 47 47 48 49 50 51 52 53 54 55 56 57 58 59 60 61 63 64 65 66 68 69 71 72 74 76 77 79 81 83 84 86 88 90 92 95 97 99 102 104 106 109 111 113 116 118 121 124 126 127 127 127 127 127 127 127 127 127 127 127 127 127 127 127 127 127 127 127 127 127 127 127 127 127 127 127 127 127 127 127 127 127 0 0 0 0 0 0 0 0 0 0 0 0 0 0 0 0 0 0 0 0 0 0 0 0 0 0 0 0 0 0 0 0 0 0 0 0 0 0 0 0 0 0 0 0 0 0 0 0 0 0 0 0 0 0 0 0 0 0 0 0 0 127 127 127 127 127 127 127 127 127 127 127 127 127 127 127 127 127 127 127 127 127 127 127 127 127 127 127 127 127 127 127 127 127 127 127 127 134 136 139 141 144 146 149 151 154 156 158 160 163 165 167 169 170 172 174 176 178 179 181 183 184 186 187 189 190 191 192 194 195 196 197 198 199 200 201 202 203 204 205 206 207 207 208 209 210 211 211 212 211 186 136 128 128 128 128 128 128 128 126 124 121 119 116 114 111 109 107 105 102 100 98 95 93 91 89 87 86 84 82 80 78 77 75 73 72 71 69 68 66 65 64 63 61 60 59 58 57 56 55 54 53 52 51 50 50 49 48 47 47 46 45 46 68 120 128 128 128 128 128 128 128 128 129 131 134 136 139 141 144 146 149 151 154 156 158 160 163 165 167 169 170 172 174 176 178 179 181 183 184 186 187 189 190 191 192 194 195 196 197 198 199 200 201 202 203 204 205 206 207 207 208 209 210 211 211 212 211 186 136 128 128 128 128 128 128 128
128 128 128 128 128 128 128 121 44 41 42 43 43 44 45 46 46 47 48 49 50 50 52 52 53 54 56 56 58 59 60 61 63 64 65 67 68 69 71 73 74 76 78 79 81 83 85 87 89 91 94 96 98 101 103 105 108 111 113 116 118 121 123 126 128 128 128 128 128 128 128 128 128 173 210 209 208 207 207 206 205 204 203 202 202 201 200 199 198 197 196 195 193 192 191 190 189 187 186 185 183 182 180 179 177 175 174 172 170 168 167 165 163 161 159 157 154 152 150 148 145 143 141 138 136 134 131 129 128 128 128 128 128 128 128 121 44 41 42 43 43 44 45 46 46 47 48 49 50 50 52 52 53 54 56 56 58 59 60 61 63 64 65 67 68 69 71 73 74 76 78 79 81 83 85 87 89 91 94 96 98 101 103 105 108 111 113 116 118 121 123 126 127 127 127 127 127 127 127 127 127 127 127 127 127 127 127 127 127 127 127 127 127 127 127 127 127 127 127 127 127 127 127 127 127 0 0 0 0 0 0 0 0 0 0 0 0 0 0 0 0 0 0 0 0 0 0 0 0 0 0 0 0 0 0 0 0 0 0 0 0 0 0 0 0 0 0 0 0 0 0 0 0 0 0 0 0 0 0 0 0 0 0 0 0 0 127 127 127 127 127 127 127 127 127 127 127 127 127 127 127 127 127 127 127 127 127 127 127 127 127 127 127 127 127 127 127 127 127 127 127 127 134 137 139 142 145 147 150 152 154 157 159 161 164 166 168 170 172 174 175 177 179 181 182 184 185 187 188 190 191 192 194 195 196 197 199 199 201 202 203 203 204 205 206 207 208 209 210 210 211 212 212 213 214 208 159 131 128 128 128 128 128 128 126 124 121 119 117 114 112 110 107 105 103 101 99 96 94 92 90 88 87 85 83 81 79 78 76 75 73 72 70 69 68 66 65 64 63 61 60 59 58 57 56 55 54 53 52 51 51 50 49 48 47 47 46 56 104 126 128 128 128 128 128 128 128 128 129 131 134 137 139 142 145 147 150 152 154 157 159 161 164 166 168 170 172 174 175 177 179 181 182 184 185 187 188 190 191 192 194 195 196 197 199 199 201 202 203 203 204 205 206 207 208 209 210 210 211 212 212 213 214 208 159 131 128 128 128 128 128 128
128 128 128 128 128 128 128 86 40 40 41 42 42 43 44 44 45 46 47 47 49 49 50 51 52 53 54 55 56 57 59 60 61 62 64 65 67 68 70 71 73 75 76 78 80 82 84 86 88 90 93 95 97 100 102 105 107 110 113 115 118 121 124 126 128 128 128 128 128 128 128 128 128 131 196 208 207 206 206 205 204 203 203 201 201 200 199 198 197 196 195 194 192 191 190 188 188 186 185 184 182 181 179 178 176 174 173 171 169 167 166 164 162 160 158 156 154 151 149 147 145 143 140 138 136 133 131 129 128 128 128 128 128 128 128 86 40 40 41 42 42 43 44 44 45 46 47 47 49 49 50 51 52 53 54 55 56 57 59 60 61 62 64 65 67 68 70 71 73 75 76 78 80 82 84 86 88 90 93 95 97 100 102 105 107 110 113 115 118 121 124 126 127 127 127 127 127 127 127 127 127 127 127 127 127 127 127 127 127 127 127 127 127 127 127 127 127 127 127 127 127 127 127 127 127 0 0 0 0 0 0 0 0 0 0 0 0 0 0 0 0 0 0 0 0 0 0 0 0 0 0 0 0 0 0 0 0 0 0 0 0 0 0 0 0 0 0 0 0 0 0 0 0 0 0 0 0 0 0 0 0 0 0 0 0 0 127 127 127 127 127 127 127 127 127 127 127 127 127 127 127 127 127 127 127 127 127 127 127 127 127 127 127 127 127 127 127 127 127 127 127 127 134 137 140 142 145 148 150 153 155 157 160 162 165 167 169 171 173 175 177 179 180 182 184 185 187 188 190 191 192 194 195 196 198 199 200 201 202 203 204 205 206 207 208 208 209 210 211 211 212 213 214 214 215 213 193 138 128 128 128 128 128 128 126 124 122 119 117 115 112 110 108 106 104 101 99 97 95 93 91 89 87 86 84 82 81 79 77 76 74 73 71 70 69 67 66 65 64 63 61 61 59 58 57 56 55 54 54 53 52 51 50 50 49 48 52 84 124 128 128 128 128 128 128 128 128 128 129 132 134 137 140 142 145 148 150 153 155 157 160 162 165 167 169 171 173 175 177 179 180 182 184 185 187 188 190 191 192 194 195 196 198 199 200 201 202 203 204 205 206 207 208 208 209 210 211 211 212 213 214 214 215 213 193 138 128 128 128 128 128 128
128 128 128 128 128 128 120 41 38 39 40 40 41 42 42 43 44 45 45 46 47 48 49 50 51 52 53 54 55 56 57 58 60 61 62 64 65 67 68 70 72 73 75 77 79 81 83 85 87 89 92 94 96 99 101 104 107 109 112 115 118 120 123 126 128 128 128 128 128 128 128 128 128 128 149 205 206 205 205 204 203 202 201 200 199 199 198 197 195 194 193 192 191 190 189 188 187 185 184 182 181 179 178 176 175 173 172 170 168 166 165 163 161 159 157 155 153 151 149 147 144 142 140 138 135 133 131 129 128 128 128 128 128 128 120 41 38 39 40 40 41 42 42 43 44 45 45 46 47 48 49 50 51 52 53 54 55 56 57 58 60 61 62 64 65 67 68 70 72 73 75 77 79 81 83 85 87 89 92 94 96 99 101 104 107 109 112 115 118 120 123 126 127 127 127 127 127 127 127 127 127 127 127 127 127 127 127 127 127 127 127 127 127 127 127 127 127 127 127 127 127 127 127 127 127 0 0 0 0 0 0 0 0 0 0 0 0 0 0 0 0 0 0 0 0 0 0 0 0 0 0 0 0 0 0 0 0 0 0 0 0 0 0 0 0 0 0 0 0 0 0 0 0 0 0 0 0 0 0 0 0 0 0 0 0 0 127 127 127 127 127 127 127 127 127 127 127 127 127 127 127 127 127 127 127 127 127 127 127 127 127 127 127 127 127 127 127 127 127 127 127 127 135 137 140 143 146 148 151 154 156 159 161 163 166 168 170 172 174 176 178 180 182 183 185 187 188 190 191 193 194 195 197 198 199 200 201 202 203 204 205 206 207 208 209 210 210 211 212 213 213 214 215 215 216 216 212 163 131 128 128 128 128 128 126 124 122 120 117 115 113 111 108 106 104 102 100 98 96 94 92 90 88 87 85 83 82 80 79 77 76 74 73 71 70 69 67 66 65 64 63 61 60 59 58 57 57 56 55 54 53 52 51 51 50 50 68 116 127 128 128 128 128 128 128 128 128 128 129 132 135 137 140 143 146 148 151 154 156 159 161 163 166 168 170 172 174 176 178 180 182 183 185 187 188 190 191 193 194 195 197 198 199 200 201 202 203 204 205 206 207 208 209 210 210 211 212 213 213 214 215 215 216 216 212 163 131 128 128 128 128 128
128 128 128 128 128 128 86 37 37 38 39 39 40 40 41 42 43 43 44 45 46 47 48 48 49 50 51 52 54 55 56 57 58 60 61 62 64 65 67 68 70 72 74 75 77 80 81 84 86 88 90 93 95 98 100 103 106 109 112 114 117 120 123 126 128 128 128 128 128 128 128 128 128 128 128 173 205 204 203 203 202 201 200 199 198 197 196 196 194 193 192 191 190 189 188 186 185 184 183 181 180 179 177 176 174 172 171 169 167 166 164 162 160 158 156 154 152 150 148 146 144 142 140 138 135 133 131 129 128 128 128 128 128 128 86 37 37 38 39 39 40 40 41 42 43 43 44 45 46 47 48 48 49 50 51 52 54 55 56 57 58 60 61 62 64 65 67 68 70 72 74 75 77 80 81 84 86 88 90 93 95 98 100 103 106 109 112 114 117 120 123 126 127 127 127 127 127 127 127 127 127 127 127 127 127 127 127 127 127 127 127 127 127 127 127 127 127 127 127 127 127 127 127 127 127 0 0 0 0 0 0 0 0 0 0 0 0 0 0 0 0 0 0 0 0 0 0 0 0 0 0 0 0 0 0 0 0 0 0 0 0 0 0 0 0 0 0 0 0 0 0 0 0 0 0 0 0 0 0 0 0 0 0 0 0 0 127 127 127 127 127 127 127 127 127 127 127 127 127 127 127 127 127 127 127 127 127 127 127 127 127 127 127 127 127 127 127 127 127 127 127 127 135 138 141 144 146 149 152 154 157 160 162 164 167 169 171 174 175 177 180 181 183 185 187 188 190 191 193 194 195 197 198 199 200 202 203 203 205 206 207 208 208 209 210 211 212 212 213 214 215 215 216 217 217 218 216 195 138 128 128 128 128 128 126 124 122 120 117 115 113 111 109 107 105 103 101 99 97 95 93 91 89 88 86 84 83 81 80 78 77 75 74 72 71 70 68 67 66 65 64 63 62 61 59 59 58 57 56 55 54 53 53 52 51 60 103 126 128 128 128 128 128 128 128 128 128 128 129 132 135 138 141 144 146 149 152 154 157 160 162 164 167 169 171 174 175 177 180 181 183 185 187 188 190 191 193 194 195 197 198 199 200 202 203 203 205 206 207 208 208 209 210 211 212 212 213 214 215 215 216 217 217 218 216 195 138 128 128 128 128 128
128 128 128 128 128 122 39 36 36 37 37 38 39 39 40 41 41 42 43 44 44 45 46 47 48 49 50 51 52 53 54 56 57 58 59 61 62 64 65 67 69 70 72 74 76 78 80 82 85 87 89 92 94 97 100 102 105 108 111 114 117 120 123 126 128 128 128 128 128 128 128 128 128 128 128 131 189 203 202 202 201 200 199 198 197 196 195 194 193 192 191 190 189 188 187 185 184 183 182 180 179 178 176 174 173 171 170 168 166 165 163 161 159 158 156 154 152 150 148 146 143 141 139 137 135 133 131 129 128 128 128 128 128 122 39 36 36 37 37 38 39 39 40 41 41 42 43 44 44 45 46 47 48 49 50 51 52 53 54 56 57 58 59 61 62 64 65 67 69 70 72 74 76 78 80 82 85 87 89 92 94 97 100 102 105 108 111 114 117 120 123 126 127 127 127 127 127 127 127 127 127 127 127 127 127 127 127 127 127 127 127 127 127 127 127 127 127 127 127 127 127 127 127 127 127 0 0 0 0 0 0 0 0 0 0 0 0 0 0 0 0 0 0 0 0 0 0 0 0 0 0 0 0 0 0 0 0 0 0 0 0 0 0 0 0 0 0 0 0 0 0 0 0 0 0 0 0 0 0 0 0 0 0 0 0 0 127 127 127 127 127 127 127 127 127 127 127 127 127 127 127 127 127 127 127 127 127 127 127 127 127 127 127 127 127 127 127 127 127 127 127 127 135 138 141 144 147 150 153 155 158 161 163 166 168 170 173 175 177 179 181 183 185 186 188 190 191 193 194 196 197 198 200 201 202 203 204 205 206 207 208 209 210 211 211 212 213 214 214 215 216 216 217 218 218 219 219 213 160 131 128 128 128 128 126 124 122 120 118 116 114 111 109 107 105 103 101 99 98 96 94 92 91 89 87 85 84 82 81 79 78 76 75 73 72 71 69 68 67 66 65 64 63 62 61 60 59 58 57 56 55 54 54 53 57 89 124 128 128 128 128 128 128 128 128 128 128 128 129 132 135 138 141 144 147 150 153 155 158 161 163 166 168 170 173 175 177 179 181 183 185 186 188 190 191 193 194 196 197 198 200 201 202 203 204 205 206 207 208 209 210 211 211 212 213 214 214 215 216 216 217 218 218 219 219 213 160 131 128 128 128 128
128 128 128 128 128 91 34 35 35 36 36 37 37 38 38 39 40 41 41 42 43 44 45 46 46 47 48 50 51 52 53 54 55 57 58 59 61 62 64 65 67 69 71 73 74 77 79 81 83 86 88 91 93 96 98 101 104 107 110 113 116 120 123 126 128 128 128 128 128 128 128 128 128 128 128 128 141 198 201 201 200 199 198 197 196 195 194 194 192 191 190 189 188 187 186 184 183 182 181 179 178 176 175 173 172 171 169 167 166 164 162 160 159 157 155 153 151 149 147 145 143 141 139 137 135 133 131 129 128 128 128 128 128 91 34 35 35 36 36 37 37 38 38 39 40 41 41 42 43 44 45 46 46 47 48 50 51 52 53 54 55 57 58 59 61 62 64 65 67 69 71 73 74 77 79 81 83 86 88 91 93 96 98 101 104 107 110 113 116 120 123 126 127 127 127 127 127 127 127 127 127 127 127 127 127 127 127 127 127 127 127 127 127 127 127 127 127 127 127 127 127 127 127 127 127 0 0 0 0 0 0 0 0 0 0 0 0 0 0 0 0 0 0 0 0 0 0 0 0 0 0 0 0 0 0 0 0 0 0 0 0 0 0 0 0 0 0 0 0 0 0 0 0 0 0 0 0 0 0 0 0 0 0 0 0 0 127 127 127 127 127 127 127 127 127 127 127 127 127 127 127 127 127 127 127 127 127 127 127 127 127 127 127 127 127 127 127 127 127 127 127 127 136 139 142 145 148 151 154 157 159 162 164 167 169 172 174 176 178 181 183 184 186 188 190 191 193 194 196 197 199 200 201 202 203 204 205 206 208 208 209 210 211 212 213 213 214 215 216 216 217 218 218 219 219 220 221 219 192 136 128 128 128 128 127 124 122 120 118 116 114 112 110 108 106 104 102 100 98 97 95 93 91 89 88 86 85 83 81 80 79 77 76 75 73 72 70 69 68 67 66 65 64 63 62 61 60 59 58 57 56 55 54 56 77 120 128 128 128 128 128 128 128 128 128 128 128 128 129 132 136 139 142 145 148 151 154 157 159 162 164 167 169 172 174 176 178 181 183 184 186 188 190 191 193 194 196 197 199 200 201 202 203 204 205 206 208 208 209 210 211 212 213 213 214 215 216 216 217 218 218 219 219 220 221 219 192 136 128 128 128 128
128 128 128 128 125 48 33 33 34 34 35 35 36 37 37 38 39 39 40 41 42 42 43 44 45 46 47 48 49 50 51 52 54 55 56 58 59 60 62 64 65 67 69 71 73 75 77 79 82 84 86 89 92 95 97 100 104 106 109 113 116 119 122 126 128 128 128 128 128 128 128 128 128 128 128 128 128 154 199 199 199 198 197 196 195 194 193 192 191 190 189 188 187 186 185 183 182 181 180 178 177 175 174 172 171 169 168 166 165 163 161 160 158 156 154 152 151 149 147 145 143 141 139 137 135 133 131 129 128 128 128 128 125 48 33 33 34 34 35 35 36 37 37 38 39 39 40 41 42 42 43 44 45 46 47 48 49 50 51 52 54 55 56 58 59 60 62 64 65 67 69 71 73 75 77 79 82 84 86 89 92 95 97 100 104 106 109 113 116 119 122 126 127 127 127 127 127 127 127 127 127 127 127 127 127 127 127 127 127 127 127 127 127 127 127 127 127 127 127 127 127 127 127 127 127 0 0 0 0 0 0 0 0 0 0 0 0 0 0 0 0 0 0 0 0 0 0 0 0 0 0 0 0 0 0 0 0 0 0 0 0 0 0 0 0 0 0 0 0 0 0 0 0 0 0 0 0 0 0 0 0 0 0 0 0 0 127 127 127 127 127 127 127 127 127 127 127 127 127 127 127 127 127 127 127 127 127 127 127 127 127 127 127 127 127 127 127 127 127 127 127 127 136 139 142 145 149 152 155 157 160 163 166 169 171 173 176 178 180 182 184 186 188 190 191 193 194 196 197 199 200 201 203 204 205 206 207 208 209 210 211 212 213 213 214 215 216 216 217 218 218 219 220 220 221 221 222 222 214 152 130 128 128 128 127 124 122 120 118 116 114 112 110 108 106 105 103 101 99 97 95 94 92 90 89 87 85 84 82 81 80 78 77 75 74 73 72 70 69 68 67 66 65 64 63 62 61 60 59 58 57 56 57 70 114 127 128 128 128 128 128 128 128 128 128 128 128 128 129 133 136 139 142 145 149 152 155 157 160 163 166 169 171 173 176 178 180 182 184 186 188 190 191 193 194 196 197 199 200 201 203 204 205 206 207 208 209 210 211 212 213 213 214 215 216 216 217 218 218 219 220 220 221 221 222 222 214 152 130 128 128 128
128 128 128 128 106 31 31 32 32 33 34 34 35 35 36 37 37 38 39 39 40 41 42 43 44 45 46 46 48 48 50 51 52 53 55 56 57 59 61 62 64 66 67 69 71 73 76 78 80 83 85 88 91 93 96 99 102 106 109 112 116 119 122 126 128 128 128 128 128 128 128 128 128 128 128 128 128 128 167 198 198 197 196 195 194 193 192 191 190 189 188 187 186 185 184 182 181 180 179 177 176 175 173 171 170 169 167 166 164 162 161 159 157 156 154 152 150 148 146 144 142 140 139 137 134 133 130 129 128 128 128 128 106 31 31 32 32 33 34 34 35 35 36 37 37 38 39 39 40 41 42 43 44 45 46 46 48 48 50 51 52 53 55 56 57 59 61 62 64 66 67 69 71 73 76 78 80 83 85 88 91 93 96 99 102 106 109 112 116 119 122 126 127 127 127 127 127 127 127 127 127 127 127 127 127 127 127 127 127 127 127 127 127 127 127 127 127 127 127 127 127 127 127 127 127 0 0 0 0 0 0 0 0 0 0 0 0 0 0 0 0 0 0 0 0 0 0 0 0 0 0 0 0 0 0 0 0 0 0 0 0 0 0 0 0 0 0 0 0 0 0 0 0 0 0 0 0 0 0 0 0 0 0 0 0 0 127 127 127 127 127 127 127 127 127 127 127 127 127 127 127 127 127 127 127 127 127 127 127 127 127 127 127 127 127 127 127 127 127 127 127 127 136 139 143 146 149 153 156 159 161 164 167 170 172 175 177 179 182 184 186 188 189 191 193 194 196 197 199 200 202 203 204 205 207 207 209 209 211 212 212 213 214 215 215 216 217 218 218 219 220 220 221 221 222 222 223 224 221 183 134 128 128 128 127 124 123 121 119 117 115 113 111 109 107 105 103 101 100 98 96 94 93 91 89 88 86 85 83 82 80 79 78 76 75 74 73 71 70 69 68 67 66 65 64 63 62 61 60 59 58 58 67 106 126 128 128 128 128 128 128 128 128 128 128 128 128 128 129 133 136 139 143 146 149 153 156 159 161 164 167 170 172 175 177 179 182 184 186 188 189 191 193 194 196 197 199 200 202 203 204 205 207 207 209 209 211 212 212 213 214 215 215 216 217 218 218 219 220 220 221 221 222 222 223 224 221 183 134 128 128 128
128 128 128 128 67 30 30 31 31 32 32 33 33 34 35 35 36 37 37 38 39 40 40 41 42 43 44 45 46 47 48 49 50 52 53 54 56 57 59 60 62 64 66 68 70 72 74 76 79 81 84 86 89 92 95 98 101 105 108 111 115 119 122 126 128 128 128 128 128 128 128 128 128 128 128 128 128 128 129 176 197 196 195 194 193 192 191 190 189 188 187 186 185 184 183 181 180 179 178 176 175 174 172 171 169 168 166 165 163 162 160 158 156 155 153 151 149 148 146 144 142 140 138 136 134 133 130 129 128 128 128 128 67 30 30 31 31 32 32 33 33 34 35 35 36 37 37 38 39 40 40 41 42 43 44 45 46 47 48 49 50 52 53 54 56 57 59 60 62 64 66 68 70 72 74 76 79 81 84 86 89 92 95 98 101 105 108 111 115 119 122 126 127 127 127 127 127 127 127 127 127 127 127 127 127 127 127 127 127 127 127 127 127 127 127 127 127 127 127 127 127 127 127 127 127 0 0 0 0 0 0 0 0 0 0 0 0 0 0 0 0 0 0 0 0 0 0 0 0 0 0 0 0 0 0 0 0 0 0 0 0 0 0 0 0 0 0 0 0 0 0 0 0 0 0 0 0 0 0 0 0 0 0 0 0 0 127 127 127 127 127 127 127 127 127 127 127 127 127 127 127 127 127 127 127 127 127 127 127 127 127 127 127 127 127 127 127 127 127 127 127 127 136 140 144 147 150 154 157 160 163 166 169 171 174 176 179 181 183 185 187 189 191 193 195 196 198 199 201 202 203 205 206 207 208 209 210 211 212 213 214 215 216 216 217 218 218 219 220 220 221 222 222 223 223 224 224 225 224 209 141 128 128 128 127 125 123 121 119 117 115 113 111 109 107 105 104 102 100 98 97 95 93 92 90 89 87 86 84 83 81 80 79 77 76 75 74 73 71 70 69 68 67 66 65 64 63 62 61 60 59 65 98 125 128 128 128 128 128 128 128 128 128 128 128 128 128 128 129 133 136 140 144 147 150 154 157 160 163 166 169 171 174 176 179 181 183 185 187 189 191 193 195 196 198 199 201 202 203 205 206 207 208 209 210 211 212 213 214 215 216 216 217 218 218 219 220 220 221 222 222 223 223 224 224 225 224 209 141 128 128 128
128 128 128 121 31 29 29 30 30 30 31 31 32 33 33 34 35 35 36 37 37 38 39 40 40 41 42 43 44 45 46 48 49 50 51 52 54 55 57 59 60 62 64 66 68 70 72 74 77 79 82 85 88 91 94 97 100 104 107 111 114 118 122 126 128 128 128 128 128 128 128 128 128 128 128 128 128 128 128 131 180 195 194 193 192 191 190 189 188 187 186 185 184 183 182 180 179 178 177 175 174 173 171 170 169 167 165 164 162 161 159 158 156 154 153 151 149 147 145 143 142 140 138 136 134 132 130 128 128 128 128 121 31 29 29 30 30 30 31 31 32 33 33 34 35 35 36 37 37 38 39 40 40 41 42 43 44 45 46 48 49 50 51 52 54 55 57 59 60 62 64 66 68 70 72 74 77 79 82 85 88 91 94 97 100 104 107 111 114 118 122 126 127 127 127 127 127 127 127 127 127 127 127 127 127 127 127 127 127 127 127 127 127 127 127 127 127 127 127 127 127 127 127 127 127 0 0 0 0 0 0 0 0 0 0 0 0 0 0 0 0 0 0 0 0 0 0 0 0 0 0 0 0 0 0 0 0 0 0 0 0 0 0 0 0 0 0 0 0 0 0 0 0 0 0 0 0 0 0 0 0 0 0 0 0 0 127 127 127 127 127 127 127 127 127 127 127 127 127 127 127 127 127 127 127 127 127 127 127 127 127 127 127 127 127 127 127 127 127 127 127 127 137 141 144 148 151 155 158 161 164 167 170 173 176 178 181 183 185 187 189 191 193 195 196 198 200 201 203 204 205 206 208 209 210 211 212 213 214 215 215 216 217 218 219 219 220 220 221 222 222 223 223 224 224 225 226 226 227 221 164 131 128 128 127 125 123 121 119 117 115 113 112 110 108 106 104 102 101 99 98 96 94 93 91 89 88 87 85 84 82 81 80 78 77 76 74 73 72 71 70 69 68 67 66 65 64 63 62 61 66 95 124 128 128 128 128 128 128 128 128 128 128 128 128 128 128 128 129 133 137 141 144 148 151 155 158 161 164 167 170 173 176 178 181 183 185 187 189 191 193 195 196 198 200 201 203 204 205 206 208 209 210 211 212 213 214 215 215 216 217 218 219 219 220 220 221 222 222 223 223 224 224 225 226 226 227 221 164 131 128 128
128 128 128 96 27 27 28 28 28 29 30 30 31 31 32 32 33 34 34 35 36 36 37 38 39 40 41 42 43 44 45 46 47 48 49 51 52 53 55 57 58 60 62 64 66 68 70 73 75 78 80 83 86 89 92 96 99 103 106 110 114 118 122 126 128 128 128 128 128 128 128 128 128 128 128 128 128 128 128 128 134 183 193 192 191 190 189 188 187 186 185 184 183 182 181 180 178 177 176 175 173 172 170 169 168 166 165 163 162 160 159 157 155 154 152 150 148 147 145 143 141 140 138 136 134 132 130 129 128 128 128 96 27 27 28 28 28 29 30 30 31 31 32 32 33 34 34 35 36 36 37 38 39 40 41 42 43 44 45 46 47 48 49 51 52 53 55 57 58 60 62 64 66 68 70 73 75 78 80 83 86 89 92 96 99 103 106 110 114 118 122 126 127 127 127 127 127 127 127 127 127 127 127 127 127 127 127 127 127 127 127 127 127 127 127 127 127 127 127 127 127 127 127 127 127 0 0 0 0 0 0 0 0 0 0 0 0 0 0 0 0 0 0 0 0 0 0 0 0 0 0 0 0 0 0 0 0 0 0 0 0 0 0 0 0 0 0 0 0 0 0 0 0 0 0 0 0 0 0 0 0 0 0 0 0 0 127 127 127 127 127 127 127 127 127 127 127 127 127 127 127 127 127 127 127 127 127 127 127 127 127 127 127 127 127 127 127 127 127 127 127 127 137 141 145 149 152 156 159 163 166 169 172 175 177 180 182 185 187 189 191 193 195 197 199 200 202 203 204 206 207 208 209 210 211 213 213 214 215 216 217 218 219 219 220 221 221 222 222 223 224 224 225 225 226 226 227 227 228 225 193 135 128 128 127 125 123 121 119 117 115 114 112 110 108 107 105 103 101 100 98 96 95 93 92 90 89 87 86 84 83 82 80 79 78 77 76 74 73 72 71 70 69 68 67 66 64 64 63 66 91 122 128 128 128 128 128 128 128 128 128 128 128 128 128 128 128 128 129 134 137 141 145 149 152 156 159 163 166 169 172 175 177 180 182 185 187 189 191 193 195 197 199 200 202 203 204 206 207 208 209 210 211 213 213 214 215 216 217 218 219 219 220 221 221 222 222 223 224 224 225 225 226 226 227 227 228 225 193 135 128 128
128 128 128 62 26 26 27 27 27 28 28 29 29 30 31 31 32 32 33 33 34 35 36 36 37 38 39 40 41 42 43 44 45 46 47 49 50 52 53 55 56 58 60 62 64 66 68 70 73 76 78 81 84 88 91 94 98 102 105 109 113 117 121 125 128 128 128 128 128 128 128 128 128 128 128 128 128 128 128 128 128 136 183 191 190 189 188 187 186 185 184 183 182 181 180 179 177 176 175 174 172 171 170 168 167 165 164 163 161 160 158 156 155 153 151 150 148 146 145 143 141 139 138 136 134 132 130 128 128 128 128 62 26 26 27 27 27 28 28 29 29 30 31 31 32 32 33 33 34 35 36 36 37 38 39 40 41 42 43 44 45 46 47 49 50 52 53 55 56 58 60 62 64 66 68 70 73 76 78 81 84 88 91 94 98 102 105 109 113 117 121 125 127 127 127 127 127 127 127 127 127 127 127 127 127 127 127 127 127 127 127 127 127 127 127 127 127 127 127 127 127 127 127 127 127 0 0 0 0 0 0 0 0 0 0 0 0 0 0 0 0 0 0 0 0 0 0 0 0 0 0 0 0 0 0 0 0 0 0 0 0 0 0 0 0 0 0 0 0 0 0 0 0 0 0 0 0 0 0 0 0 0 0 0 0 0 127 127 127 127 127 127 127 127 127 127 127 127 127 127 127 127 127 127 127 127 127 127 127 127 127 127 127 127 127 127 127 127 127 127 127 127 138 142 146 150 154 157 161 164 168 171 174 177 180 182 184 187 189 191 193 195 197 199 200 202 204 205 206 208 209 210 211 212 213 214 215 216 217 218 219 219 220 221 221 222 223 223 224 224 225 226 226 227 227 228 228 229 229 228 215 143 128 128 126 125 123 121 119 117 116 114 112 110 109 107 105 104 102 100 99 97 95 94 93 91 89 88 87 85 84 83 81 80 79 78 76 75 74 73 72 71 70 68 68 67 66 65 68 88 121 127 128 128 128 128 128 128 128 128 128 128 128 128 128 128 128 128 130 134 138 142 146 150 154 157 161 164 168 171 174 177 180 182 184 187 189 191 193 195 197 199 200 202 204 205 206 208 209 210 211 212 213 214 215 216 217 218 219 219 220 221 221 222 223 223 224 224 225 226 226 227 227 228 228 229 229 228 215 143 128 128
128 128 121 28 24 25 25 26 26 27 27 28 28 28 29 29 30 31 31 32 33 33 34 35 36 36 37 38 39 40 41 42 43 44 46 47 48 49 51 52 54 56 58 60 62 64 66 68 71 74 76 79 82 86 89 92 96 100 104 108 112 117 121 125 128 128 128 128 128 128 128 128 128 128 128 128 128 128 128 128 128 128 136 182 190 188 187 187 185 184 183 182 181 180 179 178 177 175 174 173 172 170 169 168 166 165 163 162 160 159 157 156 154 152 151 149 147 146 144 142 141 139 137 135 134 132 130 129 128 128 121 28 24 25 25 26 26 27 27 28 28 28 29 29 30 31 31 32 33 33 34 35 36 36 37 38 39 40 41 42 43 44 46 47 48 49 51 52 54 56 58 60 62 64 66 68 71 74 76 79 82 86 89 92 96 100 104 108 112 117 121 125 127 127 127 127 127 127 127 127 127 127 127 127 127 127 127 127 127 127 127 127 127 127 127 127 127 127 127 127 127 127 127 127 127 0 0 0 0 0 0 0 0 0 0 0 0 0 0 0 0 0 0 0 0 0 0 0 0 0 0 0 0 0 0 0 0 0 0 0 0 0 0 0 0 0 0 0 0 0 0 0 0 0 0 0 0 0 0 0 0 0 0 0 0 0 127 127 127 127 127 127 127 127 127 127 127 127 127 127 127 127 127 127 127 127 127 127 127 127 127 127 127 127 127 127 127 127 127 127 127 127 139 143 147 151 155 159 163 166 169 173 176 179 182 184 187 189 191 193 196 197 199 201 202 204 205 207 208 209 211 212 213 214 215 216 217 218 219 220 220 221 222 222 223 224 224 225 225 226 227 227 227 228 229 229 229 230 230 231 225 164 131 128 127 125 123 121 120 118 116 114 113 111 109 107 106 104 102 101 99 98 96 95 93 92 90 89 87 86 85 83 82 81 80 78 77 76 75 74 73 72 71 70 68 68 66 70 89 120 127 128 128 128 128 128 128 128 128 128 128 128 128 128 128 128 128 128 130 134 139 143 147 151 155 159 163 166 169 173 176 179 182 184 187 189 191 193 196 197 199 201 202 204 205 207 208 209 211 212 213 214 215 216 217 218 219 220 220 221 222 222 223 224 224 225 225 226 227 227 227 228 229 229 229 230 230 231 225 164 131 128
128 128 102 23 23 24 24 24 25 25 26 26 27 27 28 28 29 29 30 30 31 32 32 33 34 35 35 36 37 38 39 40 41 42 44 45 46 47 49 50 52 54 55 57 59 62 64 66 69 71 74 77 80 84 87 91 95 99 103 107 112 116 120 125 128 128 128 128 128 128 128 128 128 128 128 128 128 128 128 128 128 128 128 135 178 188 187 186 185 184 183 182 180 179 178 177 176 175 173 172 171 169 168 167 166 164 163 161 160 158 157 155 154 152 150 149 147 146 144 142 140 139 137 135 133 132 130 128 128 128 102 23 23 24 24 24 25 25 26 26 27 27 28 28 29 29 30 30 31 32 32 33 34 35 35 36 37 38 39 40 41 42 44 45 46 47 49 50 52 54 55 57 59 62 64 66 69 71 74 77 80 84 87 91 95 99 103 107 112 116 120 125 127 127 127 127 127 127 127 127 127 127 127 127 127 127 127 127 127 127 127 127 127 127 127 127 127 127 127 127 127 127 127 127 127 0 0 0 0 0 0 0 0 0 0 0 0 0 0 0 0 0 0 0 0 0 0 0 0 0 0 0 0 0 0 0 0 0 0 0 0 0 0 0 0 0 0 0 0 0 0 0 0 0 0 0 0 0 0 0 0 0 0 0 0 0 127 127 127 127 127 127 127 127 127 127 127 127 127 127 127 127 127 127 127 127 127 127 127 127 127 127 127 127 127 127 127 127 127 127 127 127 139 144 148 152 156 160 164 168 172 175 178 181 184 186 189 191 193 196 198 200 201 203 205 206 208 209 210 212 213 214 215 216 217 218 219 220 220 221 222 223 223 224 225 225 226 226 227 228 228 229 229 229 230 230 231 231 231 232 229 191 135 128 127 125 123 121 120 118 116 114 113 111 110 108 106 105 103 101 100 98 97 95 94 92 91 90 88 87 86 84 83 82 80 79 78 77 75 74 73 72 71 70 69 68 72 93 121 127 128 128 128 128 128 128 128 128 128 128 128 128 128 128 128 128 128 128 130 134 139 144 148 152 156 160 164 168 172 175 178 181 184 186 189 191 193 196 198 200 201 203 205 206 208 209 210 212 213 214 215 216 217 218 219 220 220 221 222 223 223 224 225 225 226 226 227 228 228 229 229 229 230 230 231 231 231 232 229 191 135 128
128 128 77 22 22 22 23 23 23 24 24 25 25 25 26 27 27 28 28 29 29 30 31 32 32 33 34 35 35 36 37 38 39 40 41 43 44 45 47 48 50 51 53 55 57 59 61 64 66 69 72 75 78 82 85 89 93 97 101 106 110 115 120 125 128 128 128 128 128 128 128 128 128 128 128 128 128 128 128 128 128 128 128 128 133 173 186 185 184 183 182 181 180 179 177 176 175 174 173 171 170 169 167 166 165 163 162 161 159 158 156 155 153 152 150 148 147 145 144 142 140 138 137 135 133 132 130 128 128 128 77 22 22 22 23 23 23 24 24 25 25 25 26 27 27 28 28 29 29 30 31 32 32 33 34 35 35 36 37 38 39 40 41 43 44 45 47 48 50 51 53 55 57 59 61 64 66 69 72 75 78 82 85 89 93 97 101 106 110 115 120 125 127 127 127 127 127 127 127 127 127 127 127 127 127 127 127 127 127 127 127 127 127 127 127 127 127 127 127 127 127 127 127 127 127 0 0 0 0 0 0 0 0 0 0 0 0 0 0 0 0 0 0 0 0 0 0 0 0 0 0 0 0 0 0 0 0 0 0 0 0 0 0 0 0 0 0 0 0 0 0 0 0 0 0 0 0 0 0 0 0 0 0 0 0 0 127 127 127 127 127 127 127 127 127 127 127 127 127 127 127 127 127 127 127 127 127 127 127 127 127 127 127 127 127 127 127 127 127 127 127 127 140 144 149 154 158 162 166 170 173 177 180 183 186 189 191 194 196 198 200 202 204 205 207 209 210 211 212 214 215 216 217 218 219 220 221 221 222 223 224 224 225 226 226 227 227 228 228 229 229 230 230 231 231 231 232 232 232 233 232 212 140 128 127 125 123 122 120 118 117 115 113 112 110 108 107 105 103 102 100 99 97 96 94 93 92 90 89 88 86 85 84 82 81 80 79 77 76 75 74 73 72 71 70 75 98 123 128 128 128 128 128 128 128 128 128 128 128 128 128 128 128 128 128 128 128 128 130 135 140 144 149 154 158 162 166 170 173 177 180 183 186 189 191 194 196 198 200 202 204 205 207 209 210 211 212 214 215 216 217 218 219 220 221 221 222 223 224 224 225 226 226 227 227 228 228 229 229 230 230 231 231 231 232 232 232 233 232 212 140 128
128 129 34 20 21 21 21 22 22 22 23 23 24 24 25 25 25 26 27 27 28 28 29 29 30 31 32 33 34 34 35 36 37 38 39 40 42 43 44 46 47 49 51 53 55 56 59 61 64 66 69 72 76 79 83 87 91 95 100 104 109 115 120 125 128 128 128 128 128 128 128 128 128 128 128 128 128 128 128 128 128 128 128 128 128 131 167 184 183 182 181 180 179 178 177 175 174 173 172 171 169 168 167 165 164 163 161 160 159 157 156 154 153 151 150 148 146 145 143 142 140 138 137 135 133 131 130 128 128 129 34 20 21 21 21 22 22 22 23 23 24 24 25 25 25 26 27 27 28 28 29 29 30 31 32 33 34 34 35 36 37 38 39 40 42 43 44 46 47 49 51 53 55 56 59 61 64 66 69 72 76 79 83 87 91 95 100 104 109 115 120 125 127 127 127 127 127 127 127 127 127 127 127 127 127 127 127 127 127 127 127 127 127 127 127 127 127 127 127 127 127 127 127 127 127 0 0 0 0 0 0 0 0 0 0 0 0 0 0 0 0 0 0 0 0 0 0 0 0 0 0 0 0 0 0 0 0 0 0 0 0 0 0 0 0 0 0 0 0 0 0 0 0 0 0 0 0 0 0 0 0 0 0 0 0 0 127 127 127 127 127 127 127 127 127 127 127 127 127 127 127 127 127 127 127 127 127 127 127 127 127 127 127 127 127 127 127 127 127 127 127 127 140 146 151 155 160 164 168 172 176 179 183 186 189 191 194 196 198 200 202 204 206 208 209 211 212 213 214 216 217 218 219 220 221 222 222 223 224 225 225 226 227 227 228 228 229 229 230 230 231 231 232 232 232 233 233 234 234 234 235 226 151 129 127 125 123 122 120 118 117 115 114 112 110 109 107 105 104 102 101 99 98 96 95 94 92 91 89 88 87 86 84 83 82 81 80 79 77 76 75 74 73 73 78 102 124 128 128 128 128 128 128 128 128 128 128 128 128 128 128 128 128 128 128 128 128 128 130 135 140 146 151 155 160 164 168 172 176 179 183 186 189 191 194 196 198 200 202 204 206 208 209 211 212 213 214 216 217 218 219 220 221 222 222 223 224 225 225 226 227 227 228 228 229 229 230 230 231 231 232 232 232 233 233 234 234 234 235 226 151 129
128 116 20 19 20 20 20 20 21 21 21 22 22 23 23 24 24 25 25 26 26 27 27 28 29 29 30 31 32 32 33 34 35 36 37 38 39 41 42 44 45 46 48 50 52 54 56 59 61 64 67 70 73 77 80 85 89 93 98 103 108 114 119 125 128 128 128 128 128 128 128 128 128 128 128 128 128 128 128 128 128 128 128 128 128 128 129 157 181 181 180 179 178 177 176 175 174 172 171 170 169 167 166 165 164 162 161 159 158 156 155 154 152 151 149 148 146 144 143 141 140 138 137 135 133 132 130 128 128 116 20 19 20 20 20 20 21 21 21 22 22 23 23 24 24 25 25 26 26 27 27 28 29 29 30 31 32 32 33 34 35 36 37 38 39 41 42 44 45 46 48 50 52 54 56 59 61 64 67 70 73 77 80 85 89 93 98 103 108 114 119 125 127 127 127 127 127 127 127 127 127 127 127 127 127 127 127 127 127 127 127 127 127 127 127 127 127 127 127 127 127 127 127 127 127 0 0 0 0 0 0 0 0 0 0 0 0 0 0 0 0 0 0 0 0 0 0 0 0 0 0 0 0 0 0 0 0 0 0 0 0 0 0 0 0 0 0 0 0 0 0 0 0 0 0 0 0 0 0 0 0 0 0 0 0 0 127 127 127 127 127 127 127 127 127 127 127 127 127 127 127 127 127 127 127 127 127 127 127 127 127 127 127 127 127 127 127 127 127 127 127 127 141 147 152 157 162 166 170 174 178 182 185 188 191 194 197 199 201 203 205 207 209 210 212 213 214 216 217 218 219 220 221 222 223 224 224 225 226 226 227 228 228 229 229 230 231 231 231 232 232 233 233 234 234 234 235 235 235 236 236 231 173 132 127 125 123 122 120 119 117 115 114 112 110 109 107 106 104 103 101 100 99 97 96 94 93 91 90 89 88 86 85 84 83 81 80 79 78 77 76 75 75 82 109 125 128 128 128 128 128 128 128 128 128 128 128 128 128 128 128 128 128 128 128 128 128 128 130 136 141 147 152 157 162 166 170 174 178 182 185 188 191 194 197 199 201 203 205 207 209 210 212 213 214 216 217 218 219 220 221 222 223 224 224 225 226 226 227 228 228 229 229 230 231 231 231 232 232 233 233 234 234 234 235 235 235 236 236 231 173 132
128 100 18 18 18 18 19 19 19 20 20 21 21 21 22 22 22 23 23 24 24 25 26 26 27 28 28 29 30 30 31 32 33 34 35 36 37 38 40 41 42 44 45 47 49 51 53 56 58 61 63 67 70 74 78 82 86 91 96 101 107 113 119 125 128 128 128 128 128 128 128 128 128 128 128 128 128 128 128 128 128 128 128 128 128 128 128 128 146 177 179 178 177 176 175 174 173 172 171 169 168 167 166 164 163 161 160 159 157 156 155 153 152 150 149 147 145 144 143 141 140 138 136 135 133 132 130 128 128 100 18 18 18 18 19 19 19 20 20 21 21 21 22 22 22 23 23 24 24 25 26 26 27 28 28 29 30 30 31 32 33 34 35 36 37 38 40 41 42 44 45 47 49 51 53 56 58 61 63 67 70 74 78 82 86 91 96 101 107 113 119 125 127 127 127 127 127 127 127 127 127 127 127 127 127 127 127 127 127 127 127 127 127 127 127 127 127 127 127 127 127 127 127 127 127 0 0 0 0 0 0 0 0 0 0 0 0 0 0 0 0 0 0 0 0 0 0 0 0 0 0 0 0 0 0 0 0 0 0 0 0 0 0 0 0 0 0 0 0 0 0 0 0 0 0 0 0 0 0 0 0 0 0 0 0 0 127 127 127 127 127 127 127 127 127 127 127 127 127 127 127 127 127 127 127 127 127 127 127 127 127 127 127 127 127 127 127 127 127 127 127 127 142 148 154 159 164 169 173 177 181 185 188 191 194 197 199 202 204 206 208 210 211 213 214 216 217 218 219 220 221 222 223 224 225 226 226 227 228 228 229 229 230 231 231 231 232 232 233 233 234 234 234 235 235 236 236 236 237 237 237 234 194 135 127 125 123 122 120 119 117 115 114 112 111 110 108 106 105 103 102 100 99 98 96 95 93 92 91 90 88 87 86 85 84 82 81 80 79 78 77 78 89 116 126 128 128 128 128 128 128 128 128 128 128 128 128 128 128 128 128 128 128 128 128 128 128 128 131 137 142 148 154 159 164 169 173 177 181 185 188 191 194 197 199 202 204 206 208 210 211 213 214 216 217 218 219 220 221 222 223 224 225 226 226 227 228 228 229 229 230 231 231 231 232 232 233 233 234 234 234 235 235 236 236 236 237 237 237 234 194 136
128 81 16 16 17 17 17 18 18 18 19 19 19 20 20 20 21 21 22 22 23 23 24 24 25 25 26 27 28 28 29 30 31 31 33 34 35 36 37 38 40 41 43 44 46 48 51 53 55 58 61 64 67 71 75 79 84 89 94 99 105 111 118 124 128 128 128 128 128 128 128 128 128 128 128 128 128 128 128 128 128 128 128 128 128 128 128 128 128 136 168 178 176 175 174 173 172 171 170 169 167 166 165 164 162 161 160 158 157 156 154 153 151 150 148 147 145 144 142 141 139 138 136 135 133 131 130 128 128 81 16 16 17 17 17 18 18 18 19 19 19 20 20 20 21 21 22 22 23 23 24 24 25 25 26 27 28 28 29 30 31 31 33 34 35 36 37 38 40 41 43 44 46 48 51 53 55 58 61 64 67 71 75 79 84 89 94 99 105 111 118 124 127 127 127 127 127 127 127 127 127 127 127 127 127 127 127 127 127 127 127 127 127 127 127 127 127 127 127 127 127 127 127 127 127 0 0 0 0 0 0 0 0 0 0 0 0 0 0 0 0 0 0 0 0 0 0 0 0 0 0 0 0 0 0 0 0 0 0 0 0 0 0 0 0 0 0 0 0 0 0 0 0 0 0 0 0 0 0 0 0 0 0 0 0 0 127 127 127 127 127 127 127 127 127 127 127 127 127 127 127 127 127 127 127 127 127 127 127 127 127 127 127 127 127 127 127 127 127 127 127 127 144 150 156 161 166 171 176 180 184 188 191 195 197 200 202 205 207 209 211 212 214 215 217 218 219 220 221 222 223 224 225 226 227 228 228 229 229 230 231 231 232 232 233 233 234 234 235 235 235 236 236 236 237 237 237 238 238 238 238 237 212 138 127 125 123 122 120 119 117 116 114 113 111 110 108 107 105 104 102 101 100 98 97 95 94 93 91 90 89 88 87 85 84 83 82 81 80 79 82 98 121 127 128 128 128 128 128 128 128 128 128 128 128 128 128 128 128 128 128 128 128 128 128 128 128 128 131 137 144 150 156 161 166 171 176 180 184 188 191 195 197 200 202 205 207 209 211 212 214 215 217 218 219 220 221 222 223 224 225 226 227 228 228 229 229 230 231 231 232 232 233 233 234 234 235 235 235 236 236 236 237 237 237 238 238 238 238 237 212 139
128 63 15 15 15 16 16 16 17 17 17 18 18 18 18 19 19 20 20 20 21 22 22 23 23 24 24 25 25 26 27 28 29 29 30 31 32 33 34 36 37 38 40 42 43 45 47 49 52 54 57 60 64 67 72 76 81 86 91 97 104 110 117 124 128 128 128 128 128 128 128 128 128 128 128 128 128 128 128 128 128 128 128 128 128 128 128 128 128 128 130 155 175 175 173 173 171 170 169 168 167 165 164 163 162 160 159 158 156 155 154 152 151 149 148 146 145 144 142 140 139 138 136 135 133 131 130 128 128 63 15 15 15 16 16 16 17 17 17 18 18 18 18 19 19 20 20 20 21 22 22 23 23 24 24 25 25 26 27 28 29 29 30 31 32 33 34 36 37 38 40 42 43 45 47 49 52 54 57 60 64 67 72 76 81 86 91 97 104 110 117 124 127 127 127 127 127 127 127 127 127 127 127 127 127 127 127 127 127 127 127 127 127 127 127 127 127 127 127 127 127 127 127 127 127 0 0 0 0 0 0 0 0 0 0 0 0 0 0 0 0 0 0 0 0 0 0 0 0 0 0 0 0 0 0 0 0 0 0 0 0 0 0 0 0 0 0 0 0 0 0 0 0 0 0 0 0 0 0 0 0 0 0 0 0 0 127 127 127 127 127 127 127 127 127 127 127 127 127 127 127 127 127 127 127 127 127 127 127 127 127 127 127 127 127 127 127 127 127 127 127 127 145 152 158 164 169 174 179 183 187 191 195 198 201 203 205 208 210 212 213 215 217 218 219 220 222 223 224 225 226 227 227 228 229 229 230 231 231 232 233 233 234 234 234 235 235 236 236 237 237 237 238 238 238 238 239 239 239 239 240 239 226 143 127 125 124 122 120 119 117 116 115 113 111 110 109 107 106 104 103 101 100 99 97 96 95 93 92 91 89 88 87 86 85 84 83 81 82 88 109 125 128 128 128 128 128 128 128 128 128 128 128 128 128 128 128 128 128 128 128 128 128 128 128 128 128 128 131 138 145 152 158 164 169 174 179 183 187 191 195 198 201 203 205 208 210 212 213 215 217 218 219 220 222 223 224 225 226 227 227 228 229 229 230 231 231 232 233 233 234 234 234 235 235 236 236 237 237 237 238 238 238 238 239 239 239 239 240 239 226 145
130 25 14 14 14 14 15 15 15 16 16 16 16 17 17 17 18 18 19 19 19 20 20 20 21 22 22 23 23 24 25 25 26 27 28 29 30 31 32 33 34 36 37 39 40 42 44 46 48 51 54 57 60 64 68 72 77 83 88 95 101 109 116 124 128 128 128 128 128 128 128 128 128 128 128 128 128 128 128 128 128 128 128 128 128 128 128 128 128 128 128 128 140 166 173 172 171 170 168 167 166 165 164 162 161 160 159 157 156 155 153 152 150 149 148 146 145 143 142 140 139 137 136 134 133 131 130 128 130 25 14 14 14 14 15 15 15 16 16 16 16 17 17 17 18 18 19 19 19 20 20 20 21 22 22 23 23 24 25 25 26 27 28 29 30 31 32 33 34 36 37 39 40 42 44 46 48 51 54 57 60 64 68 72 77 83 88 95 101 109 116 124 127 127 127 127 127 127 127 127 127 127 127 127 127 127 127 127 127 127 127 127 127 127 127 127 127 127 127 127 127 127 127 127 127 0 0 0 0 0 0 0 0 0 0 0 0 0 0 0 0 0 0 0 0 0 0 0 0 0 0 0 0 0 0 0 0 0 0 0 0 0 0 0 0 0 0 0 0 0 0 0 0 0 0 0 0 0 0 0 0 0 0 0 0 0 127 127 127 127 127 127 127 127 127 127 127 127 127 127 127 127 127 127 127 127 127 127 127 127 127 127 127 127 127 127 127 127 127 127 127 127 147 154 160 167 173 178 183 187 191 195 198 201 204 207 209 211 213 215 217 218 220 221 222 223 224 225 226 227 228 229 230 230 231 232 232 233 233 234 234 235 235 236 236 237 237 237 238 238 238 239 239 239 240 240 240 240 241 241 241 241 234 154 128 125 124 122 121 119 118 116 115 113 112 110 109 108 106 105 103 102 100 99 98 96 95 94 92 91 90 89 88 87 86 84 84 86 98 119 126 128 128 128 128 128 128 128 128 128 128 128 128 128 128 128 128 128 128 128 128 128 128 128 128 128 128 128 132 139 147 154 160 167 173 178 183 187 191 195 198 201 204 207 209 211 213 215 217 218 220 221 222 223 224 225 226 227 228 229 230 230 231 232 232 233 233 234 234 235 235 236 236 237 237 237 238 238 238 239 239 239 240 240 240 240 241 241 241 241 234 157
116 14 12 13 13 13 13 14 14 14 14 15 15 15 16 16 16 16 17 17 17 18 18 19 19 19 20 21 21 22 22 23 24 24 25 26 27 28 29 30 31 32 34 35 37 39 40 42 45 47 50 53 56 60 64 68 73 79 85 92 99 106 115 123 128 128 128 128 128 128 128 128 128 128 128 128 128 128 128 128 128 128 128 128 128 128 128 128 128 128 128 128 128 130 151 169 170 169 168 167 165 164 163 162 161 159 158 157 155 154 153 151 150 149 147 146 145 143 142 140 139 137 136 134 133 131 130 128 116 14 12 13 13 13 13 14 14 14 14 15 15 15 16 16 16 16 17 17 17 18 18 19 19 19 20 21 21 22 22 23 24 24 25 26 27 28 29 30 31 32 34 35 37 39 40 42 45 47 50 53 56 60 64 68 73 79 85 92 99 106 115 123 127 127 127 127 127 127 127 127 127 127 127 127 127 127 127 127 127 127 127 127 127 127 127 127 127 127 127 127 127 127 127 127 127 0 0 0 0 0 0 0 0 0 0 0 0 0 0 0 0 0 0 0 0 0 0 0 0 0 0 0 0 0 0 0 0 0 0 0 0 0 0 0 0 0 0 0 0 0 0 0 0 0 0 0 0 0 0 0 0 0 0 0 0 0 127 127 127 127 127 127 127 127 127 127 127 127 127 127 127 127 127 127 127 127 127 127 127 127 127 127 127 127 127 127 127 127 127 127 127 127 148 156 163 170 176 182 187 191 195 199 202 205 208 210 213 215 216 218 220 221 222 224 225 226 227 228 229 230 231 231 232 233 233 234 234 235 236 236 236 237 237 238 238 238 239 239 239 240 240 240 241 241 241 241 241 242 242 242 242 243 238 172 131 125 124 122 121 119 118 116 115 113 112 111 109 108 106 105 104 102 101 100 98 97 96 94 93 92 91 90 89 87 86 87 93 111 125 127 128 128 128 128 128 128 128 128 128 128 128 128 128 128 128 128 128 128 128 128 128 128 128 128 128 128 128 128 132 140 148 156 163 170 176 182 187 191 195 199 202 205 208 210 213 215 216 218 220 221 222 224 225 226 227 228 229 230 231 231 232 233 233 234 234 235 236 236 236 237 237 238 238 238 239 239 239 240 240 240 241 241 241 241 241 242 242 242 242 243 238 176
114 11 11 12 12 12 12 12 12 13 13 13 13 14 14 14 14 15 15 15 16 16 17 17 17 18 18 19 19 20 20 21 22 22 23 24 24 25 26 27 28 29 31 32 33 35 37 39 41 43 46 48 52 55 59 64 69 75 81 88 96 104 113 123 128 128 128 128 128 128 128 128 128 128 128 128 128 128 128 128 128 128 128 128 128 128 128 128 128 128 128 128 128 128 128 134 156 168 167 166 165 164 163 161 160 159 157 156 155 154 152 151 150 148 147 145 144 143 141 140 138 137 136 134 132 131 130 128 114 11 11 12 12 12 12 12 12 13 13 13 13 14 14 14 14 15 15 15 16 16 17 17 17 18 18 19 19 20 20 21 22 22 23 24 24 25 26 27 28 29 31 32 33 35 37 39 41 43 46 48 52 55 59 64 69 75 81 88 96 104 113 123 127 127 127 127 127 127 127 127 127 127 127 127 127 127 127 127 127 127 127 127 127 127 127 127 127 127 127 127 127 127 127 127 127 0 0 0 0 0 0 0 0 0 0 0 0 0 0 0 0 0 0 0 0 0 0 0 0 0 0 0 0 0 0 0 0 0 0 0 0 0 0 0 0 0 0 0 0 0 0 0 0 0 0 0 0 0 0 0 0 0 0 0 0 0 127 127 127 127 127 127 127 127 127 127 127 127 127 127 127 127 127 127 127 127 127 127 127 127 127 127 127 127 127 127 127 127 127 127 127 127 151 159 167 174 180 186 191 196 200 203 206 209 212 214 216 218 220 222 223 224 226 227 228 229 230 231 231 232 233 234 234 235 235 236 236 237 237 238 238 239 239 239 240 240 240 241 241 241 241 242 242 242 242 243 243 243 243 243 244 244 240 186 133 125 124 122 121 120 118 117 115 114 112 111 109 108 107 105 104 103 101 100 99 97 96 95 94 93 91 90 89 90 93 107 122 127 128 128 128 128 128 128 128 128 128 128 128 128 128 128 128 128 128 128 128 128 128 128 128 128 128 128 128 128 128 128 133 142 151 159 167 174 180 186 191 196 200 203 206 209 212 214 216 218 220 222 223 224 226 227 228 229 230 231 231 232 233 234 234 235 235 236 236 237 237 238 238 239 239 239 240 240 240 241 241 241 241 242 242 242 242 243 243 243 243 243 244 244 240 192
95 10 10 10 10 10 11 11 11 11 11 11 12 12 12 13 13 13 13 13 14 14 15 15 15 16 16 16 17 17 18 18 19 20 20 21 22 22 23 24 25 26 27 28 30 31 33 35 36 39 41 44 47 50 54 59 64 70 76 84 92 102 111 122 128 128 128 128 128 128 128 128 128 128 128 128 128 128 128 128 128 128 128 128 128 128 128 128 128 128 128 128 128 128 128 128 128 138 157 165 164 163 162 161 159 158 157 156 154 153 152 151 149 148 146 145 144 142 141 140 138 137 135 134 132 131 130 128 96 10 10 10 10 10 11 11 11 11 11 11 12 12 12 13 13 13 13 13 14 14 15 15 15 16 16 16 17 17 18 18 19 20 20 21 22 22 23 24 25 26 27 28 30 31 33 35 36 39 41 44 47 50 54 59 64 70 76 84 92 102 111 122 127 127 127 127 127 127 127 127 127 127 127 127 127 127 127 127 127 127 127 127 127 127 127 127 127 127 127 127 127 127 127 127 127 0 0 0 0 0 0 0 0 0 0 0 0 0 0 0 0 0 0 0 0 0 0 0 0 0 0 0 0 0 0 0 0 0 0 0 0 0 0 0 0 0 0 0 0 0 0 0 0 0 0 0 0 0 0 0 0 0 0 0 0 0 127 127 127 127 127 127 127 127 127 127 127 127 127 127 127 127 127 127 127 127 127 127 127 127 127 127 127 127 127 127 127 127 127 127 127 127 154 163 171 179 185 191 196 201 205 208 211 214 216 218 220 222 224 225 227 228 229 230 231 232 232 233 234 235 235 236 237 237 238 238 239 239 239 240 240 240 241 241 241 242 242 242 243 243 243 243 244 244 244 244 244 244 245 245 245 245 242 199 135 125 124 123 121 120 118 117 115 114 113 111 110 108 107 106 104 103 102 100 99 98 97 96 94 93 92 92 94 106 120 126 128 128 128 128 128 128 128 128 128 128 128 128 128 128 128 128 128 128 128 128 128 128 128 128 128 128 128 128 128 128 128 128 134 144 154 163 171 179 185 191 196 201 205 208 211 214 216 218 220 222 224 225 227 228 229 230 231 232 232 233 234 235 235 236 237 237 238 238 239 239 239 240 240 240 241 241 241 242 242 242 243 243 243 243 244 244 244 244 244 244 245 245 245 245 242 205
98 8 9 9 9 9 9 9 9 10 10 10 10 10 11 11 11 11 11 12 12 12 13 13 13 14 14 14 15 15 16 16 17 17 18 18 19 19 20 21 22 23 24 25 26 27 29 31 32 34 36 39 42 45 49 53 58 64 71 78 87 98 109 121 128 128 128 128 128 128 128 128 128 128 128 128 128 128 128 128 128 128 128 128 128 128 128 128 128 128 128 128 128 128 128 128 128 128 128 138 155 162 161 160 159 158 157 155 154 153 152 150 149 148 146 145 143 142 141 139 138 137 135 134 132 131 130 128 99 8 9 9 9 9 9 9 9 10 10 10 10 10 11 11 11 11 11 12 12 12 13 13 13 14 14 14 15 15 16 16 17 17 18 18 19 19 20 21 22 23 24 25 26 27 29 31 32 34 36 39 42 45 49 53 58 64 71 78 87 98 109 121 127 127 127 127 127 127 127 127 127 127 127 127 127 127 127 127 127 127 127 127 127 127 127 127 127 127 127 127 127 127 127 127 127 0 0 0 0 0 0 0 0 0 0 0 0 0 0 0 0 0 0 0 0 0 0 0 0 0 0 0 0 0 0 0 0 0 0 0 0 0 0 0 0 0 0 0 0 0 0 0 0 0 0 0 0 0 0 0 0 0 0 0 0 0 127 127 127 127 127 127 127 127 127 127 127 127 127 127 127 127 127 127 127 127 127 127 127 127 127 127 127 127 127 127 127 127 127 127 127 127 157 168 177 184 191 197 202 206 210 213 216 219 221 223 224 226 228 229 230 231 232 233 234 235 235 236 237 237 238 238 239 239 240 240 241 241 241 242 242 242 243 243 243 244 244 244 244 244 245 245 245 245 245 246 246 246 246 246 246 247 244 209 137 125 124 123 121 120 118 117 116 114 113 112 110 109 107 106 105 103 102 101 100 98 97 96 95 95 97 107 120 126 128 128 128 128 128 128 128 128 128 128 128 128 128 128 128 128 128 128 128 128 128 128 128 128 128 128 128 128 128 128 128 128 128 129 135 146 157 168 177 184 191 197 202 206 210 213 216 219 221 223 224 226 228 229 230 231 232 233 234 235 235 236 237 237 238 238 239 239 240 240 241 241 241 242 242 242 243 243 243 244 244 244 244 244 245 245 245 245 245 246 246 246 246 246 246 247 244 216
71 7 7 7 8 8 8 8 8 8 8 8 9 9 9 9 9 10 10 10 10 11 11 11 11 12 12 12 12 13 13 14 14 14 15 16 16 17 17 18 19 19 20 21 22 23 25 26 28 30 32 34 36 39 43 47 51 57 64 72 82 93 106 120 128 128 128 128 128 128 128 128 128 128 128 128 128 128 128 128 128 128 128 128 128 128 128 128 128 128 128 128 128 128 128 128 128 128 128 128 128 136 150 159 159 157 156 155 154 152 151 150 148 147 146 145 143 142 140 139 138 136 135 134 132 131 130 128 73 7 7 7 8 8 8 8 8 8 8 8 9 9 9 9 9 10 10 10 10 11 11 11 11 12 12 12 12 13 13 14 14 14 15 16 16 17 17 18 19 19 20 21 22 23 25 26 28 30 32 34 36 39 43 47 51 57 64 72 82 93 106 120 127 127 127 127 127 127 127 127 127 127 127 127 127 127 127 127 127 127 127 127 127 127 127 127 127 127 127 127 127 127 127 127 127 0 0 0 0 0 0 0 0 0 0 0 0 0 0 0 0 0 0 0 0 0 0 0 0 0 0 0 0 0 0 0 0 0 0 0 0 0 0 0 0 0 0 0 0 0 0 0 0 0 0 0 0 0 0 0 0 0 0 0 0 0 127 127 127 127 127 127 127 127 127 127 127 127 127 127 127 127 127 127 127 127 127 127 127 127 127 127 127 127 127 127 127 127 127 127 127 127 162 174 183 191 198 204 209 213 216 219 222 224 226 227 229 230 231 233 234 235 236 236 237 238 238 239 240 240 240 241 241 242 242 243 243 243 244 244 244 244 245 245 245 245 245 246 246 246 246 246 246 247 247 247 247 247 247 248 248 248 246 220 139 125 124 123 121 120 118 117 116 114 113 112 111 109 108 106 105 104 102 101 100 99 99 99 100 110 122 126 127 128 128 128 128 128 128 128 128 128 128 128 128 128 128 128 128 128 128 128 128 128 128 128 128 128 128 128 128 128 128 128 128 128 128 129 136 149 162 174 183 191 198 204 209 213 216 219 222 224 226 227 229 230 231 233 234 235 236 236 237 238 238 239 240 240 240 241 241 242 242 243 243 243 244 244 244 244 245 245 245 245 245 246 246 246 246 246 246 247 247 247 247 247 247 248 248 248 246 228
71 6 6 6 6 6 6 6 7 7 7 7 7 7 8 8 8 8 8 8 9 8 9 9 9 10 10 10 10 11 11 11 12 12 12 13 13 13 14 15 15 16 17 18 19 19 21 22 23 25 26 28 30 33 36 40 44 49 56 64 74 86 101 119 128 128 128 128 128 128 128 128 128 128 128 128 128 128 128 128 128 128 128 128 128 128 128 128 128 128 128 128 128 128 128 128 128 128 128 128 128 128 128 132 143 153 156 154 153 152 151 150 148 147 146 144 143 142 140 139 138 136 135 134 132 131 129 128 73 6 6 6 6 6 6 6 7 7 7 7 7 7 8 8 8 8 8 8 9 8 9 9 9 10 10 10 10 11 11 11 12 12 12 13 13 13 14 15 15 16 17 18 19 19 21 22 23 25 26 28 30 33 36 40 44 49 56 64 74 86 101 119 127 127 127 127 127 127 127 127 127 127 127 127 127 127 127 127 127 127 127 127 127 127 127 127 127 127 127 127 127 127 127 127 127 0 0 0 0 0 0 0 0 0 0 0 0 0 0 0 0 0 0 0 0 0 0 0 0 0 0 0 0 0 0 0 0 0 0 0 0 0 0 0 0 0 0 0 0 0 0 0 0 0 0 0 0 0 0 0 0 0 0 0 0 0 127 127 127 127 127 127 127 127 127 127 127 127 127 127 127 127 127 127 127 127 127 127 127 127 127 127 127 127 127 127 127 127 127 127 127 127 169 181 191 199 206 211 215 219 222 225 227 229 231 232 233 235 236 237 237 238 239 240 240 241 241 242 242 243 243 244 244 244 245 245 245 245 246 246 246 246 247 247 247 247 247 247 248 248 248 248 248 248 248 248 249 249 249 249 249 249 247 225 139 125 124 123 121 120 119 117 116 115 113 112 111 109 108 107 106 104 103 102 102 102 106 116 124 126 128 128 128 128 128 128 128 128 128 128 128 128 128 128 128 128 128 128 128 128 128 128 128 128 128 128 128 128 128 128 128 128 128 128 128 128 128 129 137 154 169 181 191 199 206 211 215 219 222 225 227 229 231 232 233 235 236 237 237 238 239 240 240 241 241 242 242 243 243 244 244 244 245 245 245 245 246 246 246 246 247 247 247 247 247 247 248 248 248 248 248 248 248 248 249 249 249 249 249 249 248 233
76 4 5 5 5 5 5 5 5 5 5 5 5 6 6 6 6 6 6 6 6 7 7 7 7 7 8 8 8 8 8 9 9 9 10 10 10 11 11 12 12 13 13 14 14 15 16 17 18 19 21 22 24 26 29 32 36 40 46 54 64 77 95 116 128 128 128 128 128 128 128 128 128 128 128 128 128 128 128 128 128 128 128 128 128 128 128 128 128 128 128 128 128 128 128 128 128 128 128 128 128 128 128 128 128 128 135 144 150 152 150 149 148 146 145 144 143 141 140 139 138 136 135 133 132 131 130 128 77 4 5 5 5 5 5 5 5 5 5 5 5 6 6 6 6 6 6 6 6 7 7 7 7 7 8 8 8 8 8 9 9 9 10 10 10 11 11 12 12 13 13 14 14 15 16 17 18 19 21 22 24 26 29 32 36 40 46 54 64 77 95 116 127 127 127 127 127 127 127 127 127 127 127 127 127 127 127 127 127 127 127 127 127 127 127 127 127 127 127 127 127 127 127 127 127 0 0 0 0 0 0 0 0 0 0 0 0 0 0 0 0 0 0 0 0 0 0 0 0 0 0 0 0 0 0 0 0 0 0 0 0 0 0 0 0 0 0 0 0 0 0 0 0 0 0 0 0 0 0 0 0 0 0 0 0 0 127 127 127 127 127 127 127 127 127 127 127 127 127 127 127 127 127 127 127 127 127 127 127 127 127 127 127 127 127 127 127 127 127 127 127 127 178 191 201 209 215 220 223 226 229 231 233 234 236 237 238 239 240 241 241 242 242 243 244 244 244 245 245 246 246 246 247 246 247 247 247 247 247 248 248 248 248 249 249 249 249 249 249 249 249 249 250 250 250 250 250 250 250 250 250 251 249 230 140 126 124 123 121 120 119 117 116 115 113 112 111 110 108 107 107 106 106 109 115 122 126 127 128 128 128 128 128 128 128 128 128 128 128 128 128 128 128 128 128 128 128 128 128 128 128 128 128 128 128 128 128 128 128 128 128 128 128 128 128 128 128 129 140 161 178 191 201 209 215 220 223 226 229 231 233 234 236 237 238 239 240 241 241 242 242 243 244 244 244 245 245 246 246 246 247 246 247 247 247 247 247 248 248 248 248 249 249 249 249 249 249 249 249 249 250 250 250 250 250 250 250 250 250 251 249 238
70 3 3 3 3 3 4 4 4 4 4 4 4 4 4 4 4 4 4 5 5 5 5 5 5 5 5 6 6 6 6 6 6 7 7 7 7 8 8 8 9 9 9 10 10 11 12 12 13 14 15 16 17 19 21 23 26 30 35 41 51 64 84 112 128 128 128 128 128 128 128 128 128 128 128 128 128 128 128 128 128 128 128 128 128 128 128 128 128 128 128 128 128 128 128 128 128 128 128 128 128 128 128 128 128 128 128 128 128 134 140 145 147 146 145 144 142 141 140 139 137 136 135 133 132 131 129 128 72 3 3 3 3 3 4 4 4 4 4 4 4 4 4 4 4 4 4 5 5 5 5 5 5 5 5 6 6 6 6 6 6 7 7 7 7 8 8 8 9 9 9 10 10 11 12 12 13 14 15 16 17 19 21 23 26 30 35 41 51 64 84 112 127 127 127 127 127 127 127 127 127 127 127 127 127 127 127 127 127 127 127 127 127 127 127 127 127 127 127 127 127 127 127 127 127 0 0 0 0 0 0 0 0 0 0 0 0 0 0 0 0 0 0 0 0 0 0 0 0 0 0 0 0 0 0 0 0 0 0 0 0 0 0 0 0 0 0 0 0 0 0 0 0 0 0 0 0 0 0 0 0 0 0 0 0 0 127 127 127 127 127 127 127 127 127 127 127 127 127 127 127 127 127 127 127 127 127 127 127 127 127 127 127 127 127 127 127 127 127 127 127 127 192 205 214 220 225 229 232 234 236 238 239 240 241 242 243 244 244 245 245 246 246 246 247 247 247 248 248 248 248 249 249 249 249 249 249 250 250 250 250 250 250 250 251 250 251 251 251 251 251 251 251 251 251 251 251 252 252 252 252 252 251 236 141 126 124 123 122 120 119 117 116 115 114 112 112 111 110 110 114 118 123 126 127 128 128 128 128 128 128 128 128 128 128 128 128 128 128 128 128 128 128 128 128 128 128 128 128 128 128 128 128 128 128 128 128 128 128 128 128 128 128 128 128 128 128 129 146 172 192 205 214 220 225 229 232 234 236 238 239 240 241 242 243 244 244 245 245 246 246 246 247 247 247 248 248 248 248 249 249 249 249 249 249 250 250 250 250 250 250 250 251 250 251 251 251 251 251 251 251 251 251 251 251 252 252 252 252 252 251 245
50 2 2 2 2 2 2 2 2 2 2 2 2 3 2 2 3 3 3 3 3 3 3 3 3 3 3 3 4 4 4 4 4 4 4 4 5 5 5 5 5 5 6 6 6 7 7 7 8 8 9 10 10 12 13 14 16 19 22 27 34 45 65 103 128 128 128 128 128 128 128 128 128 128 128 128 128 128 128 128 128 128 128 128 128 128 128 128 128 128 128 128 128 128 128 128 128 128 128 128 128 128 128 128 128 128 128 128 128 128 128 128 129 133 137 139 141 141 140 138 137 136 135 133 132 131 129 128 53 2 2 2 2 2 2 2 2 2 2 2 2 3 2 2 3 3 3 3 3 3 3 3 3 3 3 3 4 4 4 4 4 4 4 4 5 5 5 5 5 5 6 6 6 7 7 7 8 8 9 10 10 12 13 14 16 19 22 27 34 45 65 103 127 127 127 127 127 127 127 127 127 127 127 127 127 127 127 127 127 127 127 127 127 127 127 127 127 127 127 127 127 127 127 127 127 0 0 0 0 0 0 0 0 0 0 0 0 0 0 0 0 0 0 0 0 0 0 0 0 0 0 0 0 0 0 0 0 0 0 0 0 0 0 0 0 0 0 0 0 0 0 0 0 0 0 0 0 0 0 0 0 0 0 0 0 0 127 127 127 127 127 127 127 127 127 127 127 127 127 127 127 127 127 127 127 127 127 127 127 127 127 127 127 127 127 127 127 127 127 127 127 127 211 222 229 234 236 239 241 242 244 244 245 246 247 247 248 248 248 249 249 249 250 250 250 250 250 251 251 251 251 251 251 251 252 252 252 252 252 252 252 252 252 252 252 252 252 252 252 253 253 253 253 253 253 253 253 253 253 253 253 253 252 241 142 125 124 123 122 120 119 118 117 116 115 116 118 120 123 126 127 127 128 128 128 128 128 128 128 128 128 128 128 128 128 128 128 128 128 128 128 128 128 128 128 128 128 128 128 128 128 128 128 128 128 128 128 128 128 128 128 128 128 128 128 128 128 131 159 193 211 222 229 234 236 239 241 242 244 244 245 246 247 247 248 248 248 249 249 249 250 250 250 250 250 251 251 251 251 251 251 251 252 252 252 252 252 252 252 252 252 252 252 252 252 252 252 253 253 253 253 253 253 253 253 253 253 253 253 253 253 250
45 40 40 40 40 40 40 40 40 40 40 40 40 40 40 40 40 40 40 40 40 40 40 40 40 40 40 40 40 40 40 40 40 40 40 40 40 40 40 40 40 40 40 40 40 40 40 40 40 40 41 41 41 41 41 41 41 41 42 42 43 45 51 81 128 128 128 128 128 128 128 128 128 128 128 128 128 128 128 128 128 128 128 128 128 128 128 128 128 128 128 128 128 128 128 128 128 128 128 128 128 128 128 128 128 128 128 128 128 128 128 128 128 128 128 128 128 129 131 132 133 133 133 132 131 130 129 128 48 40 40 40 40 40 40 40 40 40 40 40 40 40 40 40 40 40 40 40 40 40 40 40 40 40 40 40 40 40 40 40 40 40 40 40 40 40 40 40 40 40 40 40 40 40 40 40 40 40 41 41 41 41 41 41 41 41 42 42 43 45 51 81 127 127 127 127 127 127 127 127 127 127 127 127 127 127 127 127 127 127 127 127 127 127 127 127 127 127 127 127 127 127 127 127 127 0 0 0 0 0 0 0 0 0 0 0 0 0 0 0 0 0 0 0 0 0 0 0 0 0 0 0 0 0 0 0 0 0 0 0 0 0 0 0 0 0 0 0 0 0 0 0 0 0 0 0 0 0 0 0 0 0 0 0 0 0 127 127 127 127 127 127 127 127 127 127 127 127 127 127 127 127 127 127 127 127 127 127 127 127 127 127 127 127 127 127 127 127 127 127 127 127 226 231 234 235 236 237 238 238 239 239 240 240 241 241 241 241 241 241 242 242 242 242 242 242 242 242 242 242 242 242 242 243 242 242 243 243 243 243 243 243 243 243 243 243 243 243 243 243 243 243 243 243 243 243 243 243 243 243 243 243 243 234 141 126 125 125 124 124 124 124 124 125 126 127 127 127 128 128 128 128 128 128 128 128 128 128 128 128 128 128 128 128 128 128 128 128 128 128 128 128 128 128 128 128 128 128 128 128 128 128 128 128 128 128 128 128 128 128 128 128 128 128 128 128 128 134 182 214 226 231 234 235 236 237 238 238 239 239 240 240 241 241 241 241 241 241 242 242 242 242 242 242 242 242 242 242 242 242 242 243 242 242 243 243 243 243 243 243 243 243 243 243 243 243 243 243 243 243 243 243 243 243 243 243 243 243 243 243 243 243
252 252 252 252 252 252 252 252 252 252 252 252 252 252 252 252 252 252 252 252 252 252 252 252 252 252 252 252 251 251 252 251 251 251 251 251 251 251 251 251 251 251 251 251 250 250 250 250 250 250 250 249 249 249 248 248 247 246 245 244 241 237 227 192 128 128 128 128 128 128 128 128 128 128 128 128 128 128 128 128 128 128 128 128 128 128 128 128 128 128 128 128 128 128 128 128 128 128 128 128 128 128 128 128 128 128 128 128 128 128 128 128 128 128 128 128 128 127 125 124 123 123 123 123 124 125 126 127 250 252 252 252 252 252 252 252 252 252 252 252 252 252 252 252 252 252 252 252 252 252 252 252 252 252 252 252 251 251 252 251 251 251 251 251 251 251 251 251 251 251 251 251 250 250 250 250 250 250 250 249 249 249 248 248 247 246 245 244 241 237 227 192 127 127 127 127 127 127 127 127 127 127 127 127 127 127 127 127 127 127 127 127 127 127 127 127 127 127 127 127 127 127 127 127 127 0 0 0 0 0 0 0 0 0 0 0 0 0 0 0 0 0 0 0 0 0 0 0 0 0 0 0 0 0 0 0 0 0 0 0 0 0 0 0 0 0 0 0 0 0 0 0 0 0 0 0 0 0 0 0 0 0 0 0 0 0 127 127 127 127 127 127 127 127 127 127 127 127 127 127 127 127 127 127 127 127 127 127 127 127 127 127 127 127 127 127 127 127 127 127 127 127 87 87 87 87 87 87 88 88 88 88 88 88 88 88 88 88 88 88 88 88 88 88 88 88 88 88 88 88 88 88 88 89 88 88 89 89 89 89 89 89 89 89 89 89 89 89 89 89 89 89 89 89 89 89 89 89 89 89 89 89 89 95 125 129 130 131 131 132 132 132 132 131 130 129 129 129 128 128 128 128 128 128 128 128 128 128 128 128 128 128 128 128 128 128 128 128 128 128 128 128 128 128 128 128 128 128 128 128 128 128 128 128 128 128 128 128 128 128 128 128 128 128 128 128 128 126 101 88 87 87 87 87 87 87 88 88 88 88 88 88 88 88 88 88 88 88 88 88 88 88 88 88 88 88 88 88 88 88 88 89 88 88 89 89 89 89 89 89 89 89 89 89 89 89 89 89 89 89 89 89 89 89 89 89 89 89 89 89 89 91
250 253 253 253 253 253 253 253 253 253 253 253 253 253 253 252 252 252 252 252 252 252 252 252 252 252 252 252 252 252 251 251 251 251 251 251 251 250 250 250 250 250 249 249 249 248 248 248 247 247 246 245 244 244 242 241 239 236 234 229 222 211 192 155 128 128 128 128 128 128 128 128 128 128 128 128 128 128 128 128 128 128 128 128 128 128 128 128 128 128 128 128 128 128 128 128 128 128 128 128 128 128 128 128 128 128 128 128 128 128 128 128 127 124 120 117 115 114 115 117 118 119 120 122 123 124 125 127 248 253 253 253 253 253 253 253 253 253 253 253 253 253 253 252 252 252 252 252 252 252 252 252 252 252 252 252 252 252 251 251 251 251 251 251 251 250 250 250 250 250 249 249 249 248 248 248 247 247 246 245 244 244 242 241 239 236 234 229 222 211 192 155 127 127 127 127 127 127 127 127 127 127 127 127 127 127 127 127 127 127 127 127 127 127 127 127 127 127 127 127 127 127 127 127 127 0 0 0 0 0 0 0 0 0 0 0 0 0 0 0 0 0 0 0 0 0 0 0 0 0 0 0 0 0 0 0 0 0 0 0 0 0 0 0 0 0 0 0 0 0 0 0 0 0 0 0 0 0 0 0 0 0 0 0 0 0 127 127 127 127 127 127 127 127 127 127 127 127 127 127 127 127 127 127 127 127 127 127 127 127 127 127 127 127 127 127 127 127 127 127 127 127 48 37 30 26 23 20 18 18 17 15 15 14 13 13 13 12 12 12 12 11 11 11 11 11 11 11 10 10 10 10 10 10 10 10 9 9 9 9 9 9 9 9 9 9 9 9 8 8 9 8 8 8 8 8 8 8 8 8 8 8 16 63 124 129 131 132 133 135 136 137 138 139 140 140 139 137 134 131 130 129 129 128 128 128 128 128 128 128 128 128 128 128 128 128 128 128 128 128 128 128 128 128 128 128 128 128 128 128 128 128 128 128 128 128 128 128 128 128 128 128 128 128 128 128 128 126 102 68 48 37 30 26 23 20 18 18 17 15 15 14 13 13 13 12 12 12 12 11 11 11 11 11 11 11 10 10 10 10 10 10 10 10 9 9 9 9 9 9 9 9 9 9 9 9 8 8 9 8 8 8 8 8 8 8 8 8 8 8 15 49
244 252 252 252 252 252 252 251 251 251 251 251 251 251 251 251 251 251 250 251 250 250 250 250 250 250 250 249 249 249 249 249 249 248 248 248 248 247 247 247 246 246 246 245 245 244 244 243 242 241 240 239 238 236 234 232 229 225 220 214 205 192 172 144 128 128 128 128 128 128 128 128 128 128 128 128 128 128 128 128 128 128 128 128 128 128 128 128 128 128 128 128 128 128 128 128 128 128 128 128 128 128 128 128 128 128 128 128 128 124 118 113 108 109 110 111 112 114 115 116 117 119 120 122 123 124 126 127 242 252 252 252 252 252 252 251 251 251 251 251 251 251 251 251 251 251 250 251 250 250 250 250 250 250 250 249 249 249 249 249 249 248 248 248 248 247 247 247 246 246 246 245 245 244 244 243 242 241 240 239 238 236 234 232 229 225 220 214 205 192 172 144 127 127 127 127 127 127 127 127 127 127 127 127 127 127 127 127 127 127 127 127 127 127 127 127 127 127 127 127 127 127 127 127 127 0 0 0 0 0 0 0 0 0 0 0 0 0 0 0 0 0 0 0 0 0 0 0 0 0 0 0 0 0 0 0 0 0 0 0 0 0 0 0 0 0 0 0 0 0 0 0 0 0 0 0 0 0 0 0 0 0 0 0 0 0 127 127 127 127 127 127 127 127 127 127 127 127 127 127 127 127 127 127 127 127 127 127 127 127 127 127 127 127 127 127 127 127 127 127 127 127 65 52 42 35 30 26 23 21 19 17 16 15 14 13 12 12 11 10 10 9 9 9 8 8 8 7 7 7 7 6 6 6 6 6 6 5 5 5 5 5 5 5 5 4 4 4 4 4 4 4 4 4 4 4 4 4 3 3 3 3 18 75 125 129 131 132 133 135 136 137 139 140 141 142 144 144 145 145 144 140 135 130 129 129 128 128 128 128 128 128 128 128 128 128 128 128 128 128 128 128 128 128 128 128 128 128 128 128 128 128 128 128 128 128 128 128 128 128 128 128 128 128 128 128 128 127 111 85 65 52 42 35 30 26 23 21 19 17 16 15 14 13 12 12 11 10 10 9 9 9 8 8 8 7 7 7 7 6 6 6 6 6 6 5 5 5 5 5 5 5 5 4 4 4 4 4 4 4 4 4 4 4 4 4 3 3 3 3 17 66
237 250 251 250 250 250 250 250 250 250 250 250 249 249 249 249 249 249 249 249 249 248 248 248 248 247 247 247 247 247 246 247 246 246 246 245 245 244 244 244 243 242 242 241 241 240 239 238 237 236 234 233 231 229 226 223 220 215 209 201 191 178 160 139 128 128 128 128 128 128 128 128 128 128 128 128 128 128 128 128 128 128 128 128 128 128 128 128 128 128 128 128 128 128 128 128 128 128 128 128 128 128 128 128 128 128 124 114 107 104 105 106 107 108 110 111 112 113 115 116 117 119 120 121 123 124 126 127 235 250 251 250 250 250 250 250 250 250 250 250 249 249 249 249 249 249 249 249 249 248 248 248 248 247 247 247 247 247 246 247 246 246 246 245 245 244 244 244 243 242 242 241 241 240 239 238 237 236 234 233 231 229 226 223 220 215 209 201 191 178 160 139 127 127 127 127 127 127 127 127 127 127 127 127 127 127 127 127 127 127 127 127 127 127 127 127 127 127 127 127 127 127 127 127 127 0 0 0 0 0 0 0 0 0 0 0 0 0 0 0 0 0 0 0 0 0 0 0 0 0 0 0 0 0 0 0 0 0 0 0 0 0 0 0 0 0 0 0 0 0 0 0 0 0 0 0 0 0 0 0 0 0 0 0 0 0 127 127 127 127 127 127 127 127 127 127 127 127 127 127 127 127 127 127 127 127 127 127 127 127 127 127 127 127 127 127 127 127 127 127 127 127 78 64 54 46 40 36 32 29 26 24 22 21 19 18 17 16 15 14 14 13 13 12 12 11 11 10 10 10 9 9 9 8 8 8 8 8 7 7 7 7 7 6 6 6 6 6 6 6 6 5 5 5 5 5 5 5 5 5 5 5 20 79 125 130 131 132 133 135 136 138 139 140 141 143 144 145 146 148 149 149 150 148 143 136 131 129 128 128 128 128 128 128 128 128 128 128 128 128 128 128 128 128 128 128 128 128 128 128 128 128 128 128 128 128 128 128 128 128 128 128 128 128 128 128 128 127 115 95 78 64 54 46 40 36 32 29 26 24 22 21 19 18 17 16 15 14 14 13 13 12 12 11 11 10 10 10 9 9 9 8 8 8 8 8 7 7 7 7 7 6 6 6 6 6 6 6 6 5 5 5 5 5 5 5 5 5 5 5 20 72
231 249 249 249 249 249 249 249 248 248 248 248 248 248 248 248 247 247 247 247 247 247 246 246 246 246 245 245 245 245 244 244 244 243 243 242 242 241 241 240 240 239 238 237 237 236 235 233 232 231 229 227 225 222 219 215 211 206 199 191 181 169 154 136 128 128 128 128 128 128 128 128 128 128 128 128 128 128 128 128 128 128 128 128 128 128 128 128 128 128 128 128 128 128 128 128 128 128 128 128 128 128 128 126 116 104 100 101 102 103 104 106 107 108 109 111 112 113 115 116 117 119 120 121 123 124 125 127 230 249 249 249 249 249 249 249 248 248 248 248 248 248 248 248 247 247 247 247 247 247 246 246 246 246 245 245 245 245 244 244 244 243 243 242 242 241 241 240 240 239 238 237 237 236 235 233 232 231 229 227 225 222 219 215 211 206 199 191 181 169 154 136 127 127 127 127 127 127 127 127 127 127 127 127 127 127 127 127 127 127 127 127 127 127 127 127 127 127 127 127 127 127 127 127 127 0 0 0 0 0 0 0 0 0 0 0 0 0 0 0 0 0 0 0 0 0 0 0 0 0 0 0 0 0 0 0 0 0 0 0 0 0 0 0 0 0 0 0 0 0 0 0 0 0 0 0 0 0 0 0 0 0 0 0 0 0 127 127 127 127 127 127 127 127 127 127 127 127 127 127 127 127 127 127 127 127 127 127 127 127 127 127 127 127 127 127 127 127 127 127 127 127 86 74 64 56 49 44 40 36 33 30 28 26 25 23 22 21 19 19 18 17 16 15 15 14 13 13 13 12 12 12 11 11 11 10 10 10 10 9 9 9 8 9 8 8 8 8 8 8 7 7 7 7 7 7 6 6 6 6 6 6 21 77 125 129 131 132 134 135 136 138 139 140 142 143 144 146 147 148 150 151 152 153 153 154 151 143 135 130 129 128 128 128 128 128 128 128 128 128 128 128 128 128 128 128 128 128 128 128 128 128 128 128 128 128 128 128 128 128 128 128 128 128 128 128 128 127 118 101 86 74 64 56 49 44 40 36 33 30 28 26 25 23 22 21 19 19 18 17 16 15 15 14 13 13 13 12 12 12 11 11 11 10 10 10 10 9 9 9 8 9 8 8 8 8 8 8 7 7 7 7 7 7 6 6 6 6 6 6 20 68
226 248 248 248 248 247 247 247 247 247 247 246 246 246 246 246 246 245 245 245 245 245 244 244 244 244 243 243 243 242 242 241 241 240 240 240 239 238 238 237 236 236 235 234 233 231 230 229 227 226 224 222 219 216 213 209 204 198 191 183 174 162 149 135 128 128 128 128 128 128 128 128 128 128 128 128 128 128 128 128 128 128 128 128 128 128 128 128 128 128 128 128 128 128 128 128 128 128 128 128 128 124 109 97 97 98 99 100 101 102 104 105 106 108 109 111 112 113 114 116 117 118 120 121 123 124 125 127 225 248 248 248 248 247 247 247 247 247 247 246 246 246 246 246 246 245 245 245 245 245 244 244 244 244 243 243 243 242 242 241 241 240 240 240 239 238 238 237 236 236 235 234 233 231 230 229 227 226 224 222 219 216 213 209 204 198 191 183 174 162 149 135 127 127 127 127 127 127 127 127 127 127 127 127 127 127 127 127 127 127 127 127 127 127 127 127 127 127 127 127 127 127 127 127 127 0 0 0 0 0 0 0 0 0 0 0 0 0 0 0 0 0 0 0 0 0 0 0 0 0 0 0 0 0 0 0 0 0 0 0 0 0 0 0 0 0 0 0 0 0 0 0 0 0 0 0 0 0 0 0 0 0 0 0 0 0 127 127 127 127 127 127 127 127 127 127 127 127 127 127 127 127 127 127 127 127 127 127 127 127 127 127 127 127 127 127 127 127 127 127 127 127 93 82 72 64 57 51 47 43 39 36 34 32 30 28 26 25 23 22 21 20 19 19 18 17 17 16 16 15 14 14 14 13 13 12 12 12 12 11 11 11 11 10 10 10 10 9 9 9 9 9 8 8 8 8 8 8 8 8 7 7 22 79 125 130 131 132 134 135 136 138 139 140 142 143 145 146 147 148 150 151 152 154 155 156 157 158 156 149 138 131 129 128 128 128 128 128 128 128 128 128 128 128 128 128 128 128 128 128 128 128 128 128 128 128 128 128 128 128 128 128 128 128 128 128 128 127 120 106 93 82 72 64 57 51 47 43 39 36 34 32 30 28 26 25 23 22 21 20 19 19 18 17 17 16 16 15 14 14 14 13 13 12 12 12 12 11 11 11 11 10 10 10 10 9 9 9 9 9 8 8 8 8 8 8 8 8 7 7 21 70
212 247 247 246 246 246 246 246 246 245 245 245 245 245 244 244 244 244 244 243 243 243 242 242 242 241 241 241 240 240 239 239 238 238 237 237 236 235 235 234 233 232 231 230 229 228 226 224 223 221 219 216 213 210 206 202 197 191 184 177 168 157 146 134 128 128 128 128 128 128 128 128 128 128 128 128 128 128 128 128 128 128 128 128 128 128 128 128 128 128 128 128 128 128 128 128 128 128 128 122 105 93 94 95 96 97 98 100 101 102 103 105 106 107 109 110 112 113 114 116 117 118 120 121 123 124 125 127 211 247 247 246 246 246 246 246 246 245 245 245 245 245 244 244 244 244 244 243 243 243 242 242 242 241 241 241 240 240 239 239 238 238 237 237 236 235 235 234 233 232 231 230 229 228 226 224 223 221 219 216 213 210 206 202 197 191 184 177 168 157 146 134 127 127 127 127 127 127 127 127 127 127 127 127 127 127 127 127 127 127 127 127 127 127 127 127 127 127 127 127 127 127 127 127 127 0 0 0 0 0 0 0 0 0 0 0 0 0 0 0 0 0 0 0 0 0 0 0 0 0 0 0 0 0 0 0 0 0 0 0 0 0 0 0 0 0 0 0 0 0 0 0 0 0 0 0 0 0 0 0 0 0 0 0 0 0 127 127 127 127 127 127 127 127 127 127 127 127 127 127 127 127 127 127 127 127 127 127 127 127 127 127 127 127 127 127 127 127 127 127 127 127 98 87 78 71 64 58 53 49 45 42 39 36 34 32 31 29 27 26 25 24 23 22 21 20 19 19 18 18 17 17 16 16 15 15 14 14 14 13 13 13 12 12 12 11 11 11 11 11 10 10 10 10 10 9 9 9 9 9 9 9 29 96 126 130 131 132 134 135 137 138 139 141 142 143 145 146 148 149 150 152 153 154 155 157 158 159 160 160 160 153 140 131 129 128 128 128 128 128 128 128 128 128 128 128 128 128 128 128 128 128 128 128 128 128 128 128 128 128 128 128 128 128 128 128 128 127 121 109 98 87 78 71 64 58 53 49 45 42 39 36 34 32 31 29 27 26 25 24 23 22 21 20 19 19 18 18 17 17 16 16 15 15 14 14 14 13 13 13 12 12 12 11 11 11 11 11 10 10 10 10 10 9 9 9 9 9 9 9 28 92
201 245 245 245 245 245 244 244 244 244 244 244 243 243 243 243 242 242 242 241 241 241 240 240 240 239 239 239 238 238 237 237 236 235 235 234 233 232 232 231 230 229 228 227 225 224 222 220 218 216 214 211 208 205 201 196 191 185 179 171 163 154 144 133 128 128 128 128 128 128 128 128 128 128 128 128 128 128 128 128 128 128 128 128 128 128 128 128 128 128 128 128 128 128 128 128 128 123 104 90 91 92 93 94 96 97 98 99 100 102 103 104 106 107 108 110 111 113 114 115 117 118 120 121 123 124 125 127 200 245 245 245 245 245 244 244 244 244 244 244 243 243 243 243 242 242 242 241 241 241 240 240 240 239 239 239 238 238 237 237 236 235 235 234 233 232 232 231 230 229 228 227 225 224 222 220 218 216 214 211 208 205 201 196 191 185 179 171 163 154 144 133 127 127 127 127 127 127 127 127 127 127 127 127 127 127 127 127 127 127 127 127 127 127 127 127 127 127 127 127 127 127 127 127 127 0 0 0 0 0 0 0 0 0 0 0 0 0 0 0 0 0 0 0 0 0 0 0 0 0 0 0 0 0 0 0 0 0 0 0 0 0 0 0 0 0 0 0 0 0 0 0 0 0 0 0 0 0 0 0 0 0 0 0 0 0 127 127 127 127 127 127 127 127 127 127 127 127 127 127 127 127 127 127 127 127 127 127 127 127 127 127 127 127 127 127 127 127 127 127 127 127 102 92 84 76 70 64 59 54 50 47 44 41 39 36 35 33 31 30 28 27 26 25 24 23 22 22 21 20 20 19 18 18 17 17 16 16 16 15 15 15 14 14 13 13 13 13 13 12 12 12 11 11 11 11 11 11 10 10 10 10 30 97 126 130 131 132 134 135 137 138 140 141 142 144 145 146 148 149 151 152 153 154 156 157 158 159 161 162 163 163 162 155 141 131 129 128 128 128 128 128 128 128 128 128 128 128 128 128 128 128 128 128 128 128 128 128 128 128 128 128 128 128 128 128 128 128 122 111 102 92 84 76 70 64 59 54 50 47 44 41 39 36 35 33 31 30 28 27 26 25 24 23 22 22 21 20 20 19 18 18 17 17 16 16 16 15 15 15 14 14 13 13 13 13 13 12 12 12 11 11 11 11 11 11 10 10 10 10 29 93
185 244 244 244 243 243 243 243 243 242 242 242 242 241 241 241 241 240 240 240 239 239 239 238 238 237 237 236 236 235 235 234 234 233 232 231 231 230 229 228 227 226 224 223 222 220 218 216 214 212 209 206 203 200 196 191 186 180 174 167 159 151 142 132 128 128 128 128 128 128 128 128 128 128 128 128 128 128 128 128 128 128 128 128 128 128 128 128 128 128 128 128 128 128 128 125 106 88 88 89 90 91 93 94 95 96 97 99 100 101 103 104 105 107 108 109 111 112 114 115 117 118 120 121 122 124 125 127 184 244 244 244 243 243 243 243 243 242 242 242 242 241 241 241 241 240 240 240 239 239 239 238 238 237 237 236 236 235 235 234 234 233 232 231 231 230 229 228 227 226 224 223 222 220 218 216 214 212 209 206 203 200 196 191 186 180 174 167 159 151 142 132 127 127 127 127 127 127 127 127 127 127 127 127 127 127 127 127 127 127 127 127 127 127 127 127 127 127 127 127 127 127 127 127 127 0 0 0 0 0 0 0 0 0 0 0 0 0 0 0 0 0 0 0 0 0 0 0 0 0 0 0 0 0 0 0 0 0 0 0 0 0 0 0 0 0 0 0 0 0 0 0 0 0 0 0 0 0 0 0 0 0 0 0 0 0 127 127 127 127 127 127 127 127 127 127 127 127 127 127 127 127 127 127 127 127 127 127 127 127 127 127 127 127 127 127 127 127 127 127 127 127 104 96 88 81 75 69 64 59 55 52 48 46 43 41 39 37 35 33 32 31 29 28 27 26 25 24 24 23 22 22 21 20 20 19 19 18 18 17 17 17 16 16 15 15 15 14 14 14 14 13 13 13 13 12 12 12 12 12 12 11 35 110 127 130 131 132 134 136 137 138 140 141 143 144 145 147 148 150 151 152 154 155 156 157 159 160 161 163 164 165 166 166 165 155 138 131 128 128 128 128 128 128 128 128 128 128 128 128 128 128 128 128 128 128 128 128 128 128 128 128 128 128 128 128 128 128 123 113 104 96 88 81 75 69 64 59 55 52 48 46 43 41 39 37 35 33 32 31 29 28 27 26 25 24 24 23 22 22 21 20 20 19 19 18 18 17 17 17 16 16 15 15 15 14 14 14 14 13 13 13 13 12 12 12 12 12 12 11 35 108
168 243 243 242 242 242 242 241 241 241 241 241 240 240 240 239 239 239 238 238 238 237 237 236 236 236 235 234 234 233 233 232 231 231 230 229 228 227 226 225 224 222 221 220 218 216 215 213 210 208 205 202 199 195 191 187 182 176 170 163 156 148 140 132 128 128 128 128 128 128 128 128 128 128 128 128 128 128 128 128 128 128 128 128 128 128 128 128 128 128 128 128 128 128 112 88 85 86 87 89 90 91 92 93 94 96 97 98 100 101 102 104 105 106 108 109 111 112 113 115 116 118 119 121 122 124 125 127 167 243 243 242 242 242 242 241 241 241 241 241 240 240 240 239 239 239 238 238 238 237 237 236 236 236 235 234 234 233 233 232 231 231 230 229 228 227 226 225 224 222 221 220 218 216 215 213 210 208 205 202 199 195 191 187 182 176 170 163 156 148 140 132 127 127 127 127 127 127 127 127 127 127 127 127 127 127 127 127 127 127 127 127 127 127 127 127 127 127 127 127 127 127 127 127 127 0 0 0 0 0 0 0 0 0 0 0 0 0 0 0 0 0 0 0 0 0 0 0 0 0 0 0 0 0 0 0 0 0 0 0 0 0 0 0 0 0 0 0 0 0 0 0 0 0 0 0 0 0 0 0 0 0 0 0 0 0 127 127 127 127 127 127 127 127 127 127 127 127 127 127 127 127 127 127 127 127 127 127 127 127 127 127 127 127 127 127 127 127 127 127 127 127 106 99 92 85 79 73 68 64 60 56 53 50 47 45 42 40 39 37 35 34 32 31 30 29 28 27 26 25 24 24 23 22 22 21 21 20 19 19 19 18 18 17 17 17 16 16 16 16 15 15 15 14 14 14 14 13 13 13 13 12 38 114 127 130 131 133 134 136 137 139 140 142 143 145 146 147 149 150 151 153 154 155 157 158 159 161 162 163 164 165 167 168 169 169 166 151 135 129 128 128 128 128 128 128 128 128 128 128 128 128 128 128 128 128 128 128 128 128 128 128 128 128 128 128 128 128 123 115 106 99 92 85 79 73 68 64 60 56 53 50 47 45 42 40 39 37 35 34 32 31 30 29 28 27 26 25 24 24 23 22 22 21 21 20 19 19 19 18 18 17 17 17 16 16 16 16 15 15 15 14 14 14 14 13 13 13 13 12 37 112
143 240 241 241 241 241 240 240 240 240 239 239 239 238 238 238 237 237 237 236 236 235 235 234 234 233 233 232 232 231 230 230 229 228 227 226 225 224 223 222 221 220 218 217 215 213 211 209 207 204 201 198 195 191 187 183 178 173 167 160 154 147 139 131 128 128 128 128 128 128 128 128 128 128 128 128 128 128 128 128 128 128 128 128 128 128 128 128 128 128 128 128 122 95 82 83 84 86 87 88 89 90 91 92 94 95 96 98 99 100 102 103 105 106 108 109 110 112 113 115 116 118 119 121 122 124 125 127 143 240 241 241 241 241 240 240 240 240 239 239 239 238 238 238 237 237 237 236 236 235 235 234 234 233 233 232 232 231 230 230 229 228 227 226 225 224 223 222 221 220 218 217 215 213 211 209 207 204 201 198 195 191 187 183 178 173 167 160 154 147 139 131 127 127 127 127 127 127 127 127 127 127 127 127 127 127 127 127 127 127 127 127 127 127 127 127 127 127 127 127 127 127 127 127 127 0 0 0 0 0 0 0 0 0 0 0 0 0 0 0 0 0 0 0 0 0 0 0 0 0 0 0 0 0 0 0 0 0 0 0 0 0 0 0 0 0 0 0 0 0 0 0 0 0 0 0 0 0 0 0 0 0 0 0 0 0 127 127 127 127 127 127 127 127 127 127 127 127 127 127 127 127 127 127 127 127 127 127 127 127 127 127 127 127 127 127 127 127 127 127 127 127 109 101 95 88 83 77 72 68 64 60 57 54 51 48 46 44 42 40 39 37 36 34 33 32 31 30 29 28 27 26 25 25 24 23 23 22 22 21 20 20 20 19 19 19 18 18 17 17 17 16 16 16 16 15 15 15 14 14 14 16 48 124 128 130 131 133 134 136 137 139 140 142 143 145 146 148 149 150 152 153 155 156 157 159 160 161 162 164 165 166 167 168 170 171 172 171 163 143 131 128 128 128 128 128 128 128 128 128 128 128 128 128 128 128 128 128 128 128 128 128 128 128 128 128 128 128 124 116 109 101 95 88 83 77 72 68 64 60 57 54 51 48 46 44 42 40 39 37 36 34 33 32 31 30 29 28 27 26 25 25 24 23 23 22 22 21 20 20 20 19 19 19 18 18 17 17 17 16 16 16 16 15 15 15 14 14 14 16 47 123
131 232 240 240 239 239 239 239 238 238 238 238 237 237 237 236 236 235 235 234 234 234 233 233 232 231 231 230 229 229 228 227 227 226 225 224 223 222 220 219 218 217 215 213 212 210 208 205 203 201 198 195 191 187 183 179 174 169 164 158 152 145 138 131 128 128 128 128 128 128 128 128 128 128 128 128 128 128 128 128 128 128 128 128 128 128 128 128 128 128 128 110 82 80 81 83 84 85 86 87 88 89 91 92 93 95 96 97 99 100 101 103 104 106 107 109 110 111 113 115 116 117 119 120 122 124 125 127 131 232 240 240 239 239 239 239 238 238 238 238 237 237 237 236 236 235 235 234 234 234 233 233 232 231 231 230 229 229 228 227 227 226 225 224 223 222 220 219 218 217 215 213 212 210 208 205 203 201 198 195 191 187 183 179 174 169 164 158 152 145 138 131 127 127 127 127 127 127 127 127 127 127 127 127 127 127 127 127 127 127 127 127 127 127 127 127 127 127 127 127 127 127 127 127 127 0 0 0 0 0 0 0 0 0 0 0 0 0 0 0 0 0 0 0 0 0 0 0 0 0 0 0 0 0 0 0 0 0 0 0 0 0 0 0 0 0 0 0 0 0 0 0 0 0 0 0 0 0 0 0 0 0 0 0 0 0 127 127 127 127 127 127 127 127 127 127 127 127 127 127 127 127 127 127 127 127 127 127 127 127 127 127 127 127 127 127 127 127 127 127 127 127 110 104 97 91 86 81 76 72 67 64 60 57 54 52 49 47 45 43 42 40 38 37 36 34 33 32 31 30 29 29 28 27 26 25 25 24 24 23 23 22 22 21 20 20 20 19 19 18 18 18 18 17 17 17 16 16 16 15 15 23 69 124 128 130 131 133 135 136 138 139 140 142 144 145 146 148 149 151 152 154 155 156 158 159 160 162 163 164 165 167 168 169 170 171 173 173 174 171 155 135 129 128 128 128 128 128 128 128 128 128 128 128 128 128 128 128 128 128 128 128 128 128 128 128 128 128 124 117 110 104 97 91 86 81 76 72 67 64 60 57 54 52 49 47 45 43 42 40 38 37 36 34 33 32 31 30 29 29 28 27 26 25 25 24 24 23 23 22 22 21 20 20 20 19 19 18 18 18 18 17 17 17 16 16 16 15 15 23 69 124
128 216 239 238 238 238 238 237 237 237 236 236 236 235 235 235 234 234 233 233 232 232 231 231 230 229 229 228 228 227 226 225 224 223 222 221 220 219 218 217 215 214 212 211 209 207 205 202 200 197 195 191 188 184 180 176 171 166 161 156 150 144 137 131 128 128 128 128 128 128 128 128 128 128 128 128 128 128 128 128 128 128 128 128 128 128 128 128 128 125 95 77 79 80 81 82 83 84 85 87 88 89 90 91 93 94 95 97 98 100 101 102 104 105 107 108 110 111 113 114 116 117 119 120 122 123 125 127 128 216 239 238 238 238 238 237 237 237 236 236 236 235 235 235 234 234 233 233 232 232 231 231 230 229 229 228 228 227 226 225 224 223 222 221 220 219 218 217 215 214 212 211 209 207 205 202 200 197 195 191 188 184 180 176 171 166 161 156 150 144 137 131 127 127 127 127 127 127 127 127 127 127 127 127 127 127 127 127 127 127 127 127 127 127 127 127 127 127 127 127 127 127 127 127 127 0 0 0 0 0 0 0 0 0 0 0 0 0 0 0 0 0 0 0 0 0 0 0 0 0 0 0 0 0 0 0 0 0 0 0 0 0 0 0 0 0 0 0 0 0 0 0 0 0 0 0 0 0 0 0 0 0 0 0 0 0 127 127 127 127 127 127 127 127 127 127 127 127 127 127 127 127 127 127 127 127 127 127 127 127 127 127 127 127 127 127 127 127 127 127 127 127 111 105 99 94 89 84 79 75 71 67 64 61 58 55 53 51 48 46 44 43 41 40 38 37 36 35 34 33 31 31 30 29 28 28 27 26 25 25 24 24 23 23 22 22 21 21 20 20 20 19 19 19 18 18 18 17 17 17 16 28 84 125 128 130 131 133 135 136 138 139 141 142 144 145 147 148 150 151 153 154 156 157 158 160 161 162 164 165 166 167 169 170 171 172 173 174 175 176 175 165 141 130 128 128 128 128 128 128 128 128 128 128 128 128 128 128 128 128 128 128 128 128 128 128 128 128 124 118 111 105 99 94 89 84 79 75 71 67 64 61 58 55 53 51 48 46 44 43 41 40 38 37 36 35 34 33 31 31 30 29 28 28 27 26 25 25 24 24 23 23 22 22 21 21 20 20 20 19 19 19 18 18 18 17 17 17 16 28 84 125
128 194 237 237 237 237 236 236 236 235 235 234 234 234 233 233 232 232 231 231 231 230 229 229 228 228 227 226 226 225 224 223 222 221 220 219 218 217 216 214 213 211 210 208 206 204 202 199 197 194 191 188 185 181 177 173 169 164 159 154 148 142 137 131 128 128 128 128 128 128 128 128 128 128 128 128 128 128 128 128 128 128 128 128 128 128 128 128 119 83 76 77 78 79 80 81 82 84 85 86 87 88 90 91 92 93 95 96 98 99 100 102 103 105 106 108 110 111 112 114 115 117 119 120 122 123 125 127 128 194 237 237 237 237 236 236 236 235 235 234 234 234 233 233 232 232 231 231 231 230 229 229 228 228 227 226 226 225 224 223 222 221 220 219 218 217 216 214 213 211 210 208 206 204 202 199 197 194 191 188 185 181 177 173 169 164 159 154 148 142 137 131 127 127 127 127 127 127 127 127 127 127 127 127 127 127 127 127 127 127 127 127 127 127 127 127 127 127 127 127 127 127 127 127 127 0 0 0 0 0 0 0 0 0 0 0 0 0 0 0 0 0 0 0 0 0 0 0 0 0 0 0 0 0 0 0 0 0 0 0 0 0 0 0 0 0 0 0 0 0 0 0 0 0 0 0 0 0 0 0 0 0 0 0 0 0 127 127 127 127 127 127 127 127 127 127 127 127 127 127 127 127 127 127 127 127 127 127 127 127 127 127 127 127 127 127 127 127 127 127 127 127 113 107 101 96 91 86 82 78 74 70 67 63 61 58 56 53 51 49 47 45 44 42 41 40 38 37 36 35 34 33 32 31 30 30 29 28 28 27 26 26 25 24 24 23 23 22 22 22 21 21 21 20 20 19 19 19 18 18 18 34 99 126 128 130 132 133 135 136 138 140 141 143 144 145 147 149 150 152 153 155 156 157 159 160 161 163 164 166 167 168 169 171 172 173 174 175 176 177 178 178 173 149 132 128 128 128 128 128 128 128 128 128 128 128 128 128 128 128 128 128 128 128 128 128 128 128 125 119 113 107 101 96 91 86 82 78 74 70 67 63 61 58 56 53 51 49 47 45 44 42 41 40 38 37 36 35 34 33 32 31 30 30 29 28 28 27 26 26 25 24 24 23 23 22 22 22 21 21 21 20 20 19 19 19 18 18 18 34 99 126
128 169 236 236 236 235 235 235 234 234 234 233 233 232 232 231 231 231 230 229 229 228 228 227 226 226 225 224 224 223 222 221 220 219 218 217 216 214 213 212 210 209 207 205 203 201 199 197 194 191 188 185 182 178 174 170 166 162 157 152 147 141 136 130 128 128 128 128 128 128 128 128 128 128 128 128 128 128 128 128 128 128 128 128 128 128 128 111 75 74 75 76 77 78 79 80 81 83 84 85 86 88 89 90 91 93 94 96 97 99 100 101 103 104 106 107 109 110 112 114 115 117 119 120 122 123 125 127 128 169 236 236 236 235 235 235 234 234 234 233 233 232 232 231 231 231 230 229 229 228 228 227 226 226 225 224 224 223 222 221 220 219 218 217 216 214 213 212 210 209 207 205 203 201 199 197 194 191 188 185 182 178 174 170 166 162 157 152 147 141 136 130 127 127 127 127 127 127 127 127 127 127 127 127 127 127 127 127 127 127 127 127 127 127 127 127 127 127 127 127 127 127 127 127 127 0 0 0 0 0 0 0 0 0 0 0 0 0 0 0 0 0 0 0 0 0 0 0 0 0 0 0 0 0 0 0 0 0 0 0 0 0 0 0 0 0 0 0 0 0 0 0 0 0 0 0 0 0 0 0 0 0 0 0 0 0 127 127 127 127 127 127 127 127 127 127 127 127 127 127 127 127 127 127 127 127 127 127 127 127 127 127 127 127 127 127 127 127 127 127 127 127 114 108 103 98 93 89 85 80 77 73 70 67 64 61 59 56 54 52 50 48 46 45 44 42 41 39 38 37 36 35 34 33 32 32 31 30 29 29 28 27 27 26 26 25 25 24 24 23 23 22 22 21 21 21 20 20 20 20 19 40 113 127 128 130 132 133 135 137 138 140 141 143 144 146 148 149 151 152 154 155 156 158 159 161 162 164 165 166 167 169 170 171 172 174 175 176 177 178 179 180 181 177 157 135 129 128 128 128 128 128 128 128 128 128 128 128 128 128 128 128 128 128 128 128 128 128 125 119 114 108 103 98 93 89 85 80 77 73 70 67 64 61 59 56 54 52 50 48 46 45 44 42 41 39 38 37 36 35 34 33 32 32 31 30 29 29 28 27 27 26 26 25 25 24 24 23 23 22 22 21 21 21 20 20 20 20 19 40 113 127
128 139 233 235 234 234 234 233 233 232 232 232 231 231 230 230 229 229 228 228 227 227 226 225 225 224 223 222 222 221 220 219 218 217 216 214 213 212 211 209 208 206 204 202 200 198 196 194 191 189 186 183 179 176 172 168 164 160 155 151 146 140 135 130 128 128 128 128 128 128 128 128 128 128 128 128 128 128 128 128 128 128 128 128 128 128 101 72 72 73 74 75 76 77 79 80 81 82 83 84 86 87 88 89 91 92 94 95 96 98 99 101 102 104 105 107 109 110 112 114 115 117 118 120 122 123 125 127 128 139 233 235 234 234 234 233 233 232 232 232 231 231 230 230 229 229 228 228 227 227 226 225 225 224 223 222 222 221 220 219 218 217 216 214 213 212 211 209 208 206 204 202 200 198 196 194 191 189 186 183 179 176 172 168 164 160 155 151 146 140 135 130 127 127 127 127 127 127 127 127 127 127 127 127 127 127 127 127 127 127 127 127 127 127 127 127 127 127 127 127 127 127 127 127 127 0 0 0 0 0 0 0 0 0 0 0 0 0 0 0 0 0 0 0 0 0 0 0 0 0 0 0 0 0 0 0 0 0 0 0 0 0 0 0 0 0 0 0 0 0 0 0 0 0 0 0 0 0 0 0 0 0 0 0 0 0 127 127 127 127 127 127 127 127 127 127 127 127 127 127 127 127 127 127 127 127 127 127 127 127 127 127 127 127 127 127 127 127 127 127 127 127 115 109 104 100 95 91 87 83 79 76 72 69 66 64 61 59 56 55 53 51 49 47 46 44 43 42 40 39 38 37 36 35 34 34 33 32 31 30 29 29 28 28 27 27 26 25 25 25 24 24 23 23 22 22 22 21 21 21 22 53 123 128 128 130 131 133 135 137 138 140 142 143 145 146 148 150 151 153 154 156 157 159 160 161 163 164 165 167 168 169 171 172 173 174 175 177 178 179 180 181 182 183 181 165 137 129 128 128 128 128 128 128 128 128 128 128 128 128 128 128 128 128 128 128 128 128 125 120 115 109 104 100 95 91 87 83 79 76 72 69 66 64 61 59 56 55 53 51 49 47 46 44 43 42 40 39 38 37 36 35 34 34 33 32 31 30 29 29 28 28 27 27 26 25 25 25 24 24 23 23 22 22 22 21 21 21 22 53 123 128
128 129 216 233 233 232 232 232 231 231 231 230 230 229 229 228 228 227 227 226 226 225 224 224 223 222 221 221 220 219 218 217 216 215 214 212 211 210 209 207 205 204 202 200 198 196 194 191 189 186 183 180 177 173 170 166 162 158 154 149 144 140 135 130 128 128 128 128 128 128 128 128 128 128 128 128 128 128 128 128 128 128 128 128 127 96 69 70 71 72 73 74 75 76 77 79 80 81 82 84 85 86 88 89 90 92 93 94 96 97 99 100 102 103 105 107 108 110 112 113 115 117 118 120 122 123 125 127 128 129 216 233 233 232 232 232 231 231 231 230 230 229 229 228 228 227 227 226 226 225 224 224 223 222 221 221 220 219 218 217 216 215 214 212 211 210 209 207 205 204 202 200 198 196 194 191 189 186 183 180 177 173 170 166 162 158 154 149 144 140 135 130 127 127 127 127 127 127 127 127 127 127 127 127 127 127 127 127 127 127 127 127 127 127 127 127 127 127 127 127 127 127 127 127 127 0 0 0 0 0 0 0 0 0 0 0 0 0 0 0 0 0 0 0 0 0 0 0 0 0 0 0 0 0 0 0 0 0 0 0 0 0 0 0 0 0 0 0 0 0 0 0 0 0 0 0 0 0 0 0 0 0 0 0 0 0 127 127 127 127 127 127 127 127 127 127 127 127 127 127 127 127 127 127 127 127 127 127 127 127 127 127 127 127 127 127 127 127 127 127 127 127 115 110 106 101 97 93 89 85 82 78 75 72 69 66 64 61 59 57 55 53 51 50 48 47 45 44 43 41 40 39 38 37 36 35 35 34 33 32 32 31 30 29 29 28 28 27 27 26 25 25 25 24 24 23 23 23 22 22 31 80 125 128 128 130 132 133 135 137 138 140 142 144 145 147 148 150 152 153 155 156 158 159 161 162 163 165 166 167 169 170 171 173 174 175 176 177 179 180 181 182 183 184 185 184 170 140 129 128 128 128 128 128 128 128 128 128 128 128 128 128 128 128 128 128 128 128 125 120 115 110 106 101 97 93 89 85 82 78 75 72 69 66 64 61 59 57 55 53 51 50 48 47 45 44 43 41 40 39 38 37 36 35 35 34 33 32 32 31 30 29 29 28 28 27 27 26 25 25 25 24 24 23 23 23 22 22 31 80 125 128
128 128 191 232 232 231 231 231 230 230 229 229 229 228 228 227 226 226 225 225 224 223 223 222 221 220 220 219 218 217 216 215 214 213 212 210 209 208 206 205 203 201 200 198 196 193 191 189 186 184 181 178 175 172 168 164 160 156 152 148 144 139 134 130 128 128 128 128 128 128 128 128 128 128 128 128 128 128 128 128 128 128 128 125 89 67 68 69 70 71 72 73 74 75 77 78 79 80 82 83 84 86 87 88 90 91 92 94 95 97 98 100 101 103 105 106 108 110 111 113 114 116 118 120 121 123 125 127 128 128 191 232 232 231 231 231 230 230 229 229 229 228 228 227 226 226 225 225 224 223 223 222 221 220 220 219 218 217 216 215 214 213 212 210 209 208 206 205 203 201 200 198 196 193 191 189 186 184 181 178 175 172 168 164 160 156 152 148 144 139 134 130 127 127 127 127 127 127 127 127 127 127 127 127 127 127 127 127 127 127 127 127 127 127 127 127 127 127 127 127 127 127 127 127 127 0 0 0 0 0 0 0 0 0 0 0 0 0 0 0 0 0 0 0 0 0 0 0 0 0 0 0 0 0 0 0 0 0 0 0 0 0 0 0 0 0 0 0 0 0 0 0 0 0 0 0 0 0 0 0 0 0 0 0 0 0 127 127 127 127 127 127 127 127 127 127 127 127 127 127 127 127 127 127 127 127 127 127 127 127 127 127 127 127 127 127 127 127 127 127 127 127 116 112 107 103 99 95 91 87 84 80 77 74 71 69 66 64 62 59 57 55 54 52 50 49 47 46 45 44 42 41 40 39 38 37 36 35 35 34 33 32 32 31 30 30 29 29 28 28 27 27 26 26 25 25 24 24 24 23 38 101 126 128 128 130 132 133 135 137 139 140 142 144 146 147 149 150 152 154 155 157 158 160 161 163 164 166 167 168 169 171 172 173 175 176 177 178 179 180 182 183 184 185 186 187 186 174 142 130 128 128 128 128 128 128 128 128 128 128 128 128 128 128 128 128 128 128 125 120 116 112 107 103 99 95 91 87 84 80 77 74 71 69 66 64 62 59 57 55 54 52 50 49 47 46 45 44 42 41 40 39 38 37 36 35 35 34 33 32 32 31 30 30 29 29 28 28 27 27 26 26 25 25 24 24 24 23 38 101 126 128
128 128 158 231 231 230 230 229 229 229 228 227 227 227 226 225 225 224 224 223 222 222 221 220 220 219 218 217 216 215 214 213 212 211 209 208 207 205 204 202 201 199 197 196 193 191 189 187 184 182 179 176 173 169 166 163 159 155 151 147 143 139 134 130 128 128 128 128 128 128 128 128 128 128 128 128 128 128 128 128 128 128 125 83 66 66 68 68 70 71 72 73 74 75 76 77 78 80 81 82 83 85 86 87 89 90 92 93 95 96 98 99 101 102 104 106 107 109 111 113 114 116 118 120 121 123 125 127 128 128 158 231 231 230 230 229 229 229 228 227 227 227 226 225 225 224 224 223 222 222 221 220 220 219 218 217 216 215 214 213 212 211 209 208 207 205 204 202 201 199 197 196 193 191 189 187 184 182 179 176 173 169 166 163 159 155 151 147 143 139 134 130 127 127 127 127 127 127 127 127 127 127 127 127 127 127 127 127 127 127 127 127 127 127 127 127 127 127 127 127 127 127 127 127 127 0 0 0 0 0 0 0 0 0 0 0 0 0 0 0 0 0 0 0 0 0 0 0 0 0 0 0 0 0 0 0 0 0 0 0 0 0 0 0 0 0 0 0 0 0 0 0 0 0 0 0 0 0 0 0 0 0 0 0 0 0 127 127 127 127 127 127 127 127 127 127 127 127 127 127 127 127 127 127 127 127 127 127 127 127 127 127 127 127 127 127 127 127 127 127 127 127 117 112 108 104 100 96 92 89 86 82 79 76 74 71 68 66 64 62 60 58 56 54 52 51 49 48 47 46 44 43 42 41 40 39 38 37 36 36 35 34 33 33 32 31 31 30 29 29 28 28 28 27 27 26 26 25 25 25 47 116 127 128 129 130 132 134 135 137 139 141 142 144 146 147 149 151 152 154 156 157 159 160 162 163 165 166 168 169 170 172 173 174 175 177 178 179 180 181 182 183 184 185 187 187 188 188 177 143 130 128 128 128 128 128 128 128 128 128 128 128 128 128 128 128 128 128 125 121 117 112 108 104 100 96 92 89 86 82 79 76 74 71 68 66 64 62 60 58 56 54 52 51 49 48 47 46 44 43 42 41 40 39 38 37 36 36 35 34 33 33 32 31 31 30 29 29 28 28 28 27 27 26 26 25 25 25 47 116 127 128
128 128 131 221 229 229 229 228 228 227 227 226 226 225 224 224 223 223 222 221 221 220 219 219 218 217 216 215 214 213 212 211 210 209 208 206 205 204 202 200 199 197 195 193 191 189 187 184 182 180 177 174 171 168 164 161 157 154 150 146 142 138 134 130 128 128 128 128 128 128 128 128 128 128 128 128 128 128 128 128 128 125 82 64 65 66 67 68 68 70 71 72 73 74 75 76 78 79 80 81 83 84 85 87 88 89 91 93 94 95 97 99 100 102 104 105 107 109 110 112 114 116 117 119 121 123 125 126 128 128 131 221 229 229 229 228 228 227 227 226 226 225 224 224 223 223 222 221 221 220 219 219 218 217 216 215 214 213 212 211 210 209 208 206 205 204 202 200 199 197 195 193 191 189 187 184 182 180 177 174 171 168 164 161 157 154 150 146 142 138 134 130 127 127 127 127 127 127 127 127 127 127 127 127 127 127 127 127 127 127 127 127 127 127 127 127 127 127 127 127 127 127 127 127 127 0 0 0 0 0 0 0 0 0 0 0 0 0 0 0 0 0 0 0 0 0 0 0 0 0 0 0 0 0 0 0 0 0 0 0 0 0 0 0 0 0 0 0 0 0 0 0 0 0 0 0 0 0 0 0 0 0 0 0 0 0 127 127 127 127 127 127 127 127 127 127 127 127 127 127 127 127 127 127 127 127 127 127 127 127 127 127 127 127 127 127 127 127 127 127 127 127 117 113 109 105 102 98 94 91 88 84 81 78 76 73 70 68 66 64 62 60 58 56 55 53 52 50 49 47 46 45 44 43 42 41 40 39 38 37 36 36 35 34 33 33 32 32 31 31 30 29 29 28 28 27 27 27 26 31 70 124 128 128 128 130 132 134 136 138 139 141 143 145 146 148 150 151 153 155 156 158 160 161 163 164 165 167 168 170 171 172 174 175 176 177 179 180 181 182 183 184 185 186 187 188 189 190 190 178 143 129 128 128 128 128 128 128 128 128 128 128 128 128 128 128 128 128 125 121 117 113 109 105 102 98 94 91 88 84 81 78 76 73 70 68 66 64 62 60 58 56 55 53 52 50 49 47 46 45 44 43 42 41 40 39 38 37 36 36 35 34 33 33 32 32 31 31 30 29 29 28 28 27 27 27 26 31 70 124 128 128
128 128 128 195 228 228 227 227 226 226 225 225 224 224 223 222 222 221 221 220 219 219 218 217 216 215 214 213 213 211 210 209 208 207 206 204 203 202 200 199 197 195 193 191 189 187 185 182 180 177 175 172 169 166 163 159 156 152 149 145 141 137 134 129 128 128 128 128 128 128 128 128 128 128 128 128 128 128 128 128 127 87 62 63 64 64 66 67 68 69 70 71 72 73 74 76 77 78 79 80 82 83 84 86 87 89 90 92 93 95 96 98 100 101 103 105 107 108 110 112 114 115 117 119 121 123 125 127 128 128 128 195 228 228 227 227 226 226 225 225 224 224 223 222 222 221 221 220 219 219 218 217 216 215 214 213 213 211 210 209 208 207 206 204 203 202 200 199 197 195 193 191 189 187 185 182 180 177 175 172 169 166 163 159 156 152 149 145 141 137 134 129 127 127 127 127 127 127 127 127 127 127 127 127 127 127 127 127 127 127 127 127 127 127 127 127 127 127 127 127 127 127 127 127 127 0 0 0 0 0 0 0 0 0 0 0 0 0 0 0 0 0 0 0 0 0 0 0 0 0 0 0 0 0 0 0 0 0 0 0 0 0 0 0 0 0 0 0 0 0 0 0 0 0 0 0 0 0 0 0 0 0 0 0 0 0 127 127 127 127 127 127 127 127 127 127 127 127 127 127 127 127 127 127 127 127 127 127 127 127 127 127 127 127 127 127 127 127 127 127 127 127 118 114 110 106 103 99 96 92 89 86 83 80 78 75 73 70 68 66 64 62 60 58 57 55 53 52 51 49 48 47 46 45 44 43 42 41 40 39 38 37 36 36 35 34 34 33 32 32 31 31 30 30 29 28 28 28 27 39 96 126 128 128 129 130 132 134 136 138 140 141 143 145 147 148 150 152 154 155 157 159 160 162 163 165 166 168 169 170 172 173 175 176 177 178 180 181 182 183 184 185 186 187 188 189 190 191 192 191 179 142 129 128 128 128 128 128 128 128 128 128 128 128 128 128 128 128 126 122 118 114 110 106 103 99 96 92 89 86 83 80 78 75 73 70 68 66 64 62 60 58 57 55 53 52 51 49 48 47 46 45 44 43 42 41 40 39 38 37 36 36 35 34 34 33 32 32 31 31 30 30 29 28 28 28 27 39 96 126 128 128
128 128 128 158 226 227 226 226 225 224 224 223 223 222 222 221 220 220 219 219 218 217 216 215 215 214 213 212 211 210 209 208 206 205 204 203 201 200 198 196 195 193 191 189 187 185 183 181 178 176 173 170 167 164 161 158 155 151 148 144 141 137 133 129 128 128 128 128 128 128 128 128 128 128 128 128 128 128 128 128 93 60 61 62 63 64 65 66 67 68 69 70 71 72 73 74 76 77 78 80 81 82 84 85 87 88 89 91 93 94 96 98 99 101 102 104 106 108 110 112 113 115 117 119 121 123 125 127 128 128 128 158 226 227 226 226 225 224 224 223 223 222 222 221 220 220 219 219 218 217 216 215 215 214 213 212 211 210 209 208 206 205 204 203 201 200 198 196 195 193 191 189 187 185 183 181 178 176 173 170 167 164 161 158 155 151 148 144 141 137 133 129 127 127 127 127 127 127 127 127 127 127 127 127 127 127 127 127 127 127 127 127 127 127 127 127 127 127 127 127 127 127 127 127 127 0 0 0 0 0 0 0 0 0 0 0 0 0 0 0 0 0 0 0 0 0 0 0 0 0 0 0 0 0 0 0 0 0 0 0 0 0 0 0 0 0 0 0 0 0 0 0 0 0 0 0 0 0 0 0 0 0 0 0 0 0 127 127 127 127 127 127 127 127 127 127 127 127 127 127 127 127 127 127 127 127 127 127 127 127 127 127 127 127 127 127 127 127 127 127 127 127 118 114 111 107 104 100 97 94 91 88 85 82 79 77 74 72 70 68 66 64 62 60 59 57 55 54 52 51 50 49 48 46 45 44 43 42 41 40 40 39 38 37 37 36 35 35 34 33 33 32 31 31 30 30 30 29 30 49 116 127 128 128 128 130 132 134 136 138 140 142 143 145 147 149 151 153 154 156 158 159 161 162 164 165 167 169 170 171 173 174 175 177 178 179 180 182 183 184 185 186 187 188 189 190 191 192 193 194 193 177 139 129 128 128 128 128 128 128 128 128 128 128 128 128 128 128 126 122 118 114 111 107 104 100 97 94 91 88 85 82 79 77 74 72 70 68 66 64 62 60 59 57 55 54 52 51 50 49 48 46 45 44 43 42 41 40 40 39 38 37 37 36 35 35 34 33 33 32 31 31 30 30 30 29 30 49 116 127 128 128
128 128 128 130 215 225 225 224 224 223 223 222 222 221 220 220 219 218 218 217 216 216 215 214 213 212 211 210 209 208 207 206 205 203 202 201 199 198 196 195 193 191 189 187 185 183 181 179 176 174 171 169 166 163 160 157 154 150 147 144 140 136 133 129 128 128 128 128 128 128 128 128 128 128 128 128 128 128 128 97 58 59 60 61 62 63 64 65 66 67 68 69 70 71 73 74 75 76 77 79 80 81 83 84 86 87 89 90 92 93 95 97 98 100 102 104 105 107 109 111 113 115 117 119 121 123 125 127 128 128 128 130 215 225 225 224 224 223 223 222 222 221 220 220 219 218 218 217 216 216 215 214 213 212 211 210 209 208 207 206 205 203 202 201 199 198 196 195 193 191 189 187 185 183 181 179 176 174 171 169 166 163 160 157 154 150 147 144 140 136 133 129 127 127 127 127 127 127 127 127 127 127 127 127 127 127 127 127 127 127 127 127 127 127 127 127 127 127 127 127 127 127 127 127 127 0 0 0 0 0 0 0 0 0 0 0 0 0 0 0 0 0 0 0 0 0 0 0 0 0 0 0 0 0 0 0 0 0 0 0 0 0 0 0 0 0 0 0 0 0 0 0 0 0 0 0 0 0 0 0 0 0 0 0 0 0 127 127 127 127 127 127 127 127 127 127 127 127 127 127 127 127 127 127 127 127 127 127 127 127 127 127 127 127 127 127 127 127 127 127 127 127 119 115 111 108 105 101 98 95 92 89 86 84 81 79 76 74 72 70 68 66 64 62 60 59 57 56 54 53 52 50 49 48 47 46 45 44 43 42 41 40 40 39 38 37 37 36 35 35 34 33 33 32 32 31 31 30 35 74 124 128 128 128 129 130 133 134 136 138 140 142 144 146 148 149 151 153 155 156 158 160 162 163 165 166 168 169 171 172 174 175 176 178 179 180 181 183 184 185 186 187 188 189 190 191 192 193 194 195 196 194 174 136 128 128 128 128 128 128 128 128 128 128 128 128 128 128 126 122 119 115 111 108 105 101 98 95 92 89 86 84 81 79 76 74 72 70 68 66 64 62 60 59 57 56 54 53 52 50 49 48 47 46 45 44 43 42 41 40 40 39 38 37 37 36 35 35 34 33 33 32 32 31 31 30 35 74 124 128 128 128
128 128 128 128 182 224 224 223 222 222 221 221 220 220 219 218 218 217 216 215 215 214 213 212 212 211 209 209 207 207 205 204 203 202 200 199 197 196 194 193 191 189 188 186 184 182 179 177 175 172 170 167 164 161 159 156 153 149 146 143 139 136 133 129 128 128 128 128 128 128 128 128 128 128 128 128 128 128 108 58 57 58 59 60 61 62 63 64 65 66 67 68 69 70 71 73 74 75 76 78 79 80 82 83 85 86 88 89 91 93 94 96 98 100 101 103 105 107 109 111 113 115 117 119 121 123 124 127 128 128 128 128 182 224 224 223 222 222 221 221 220 220 219 218 218 217 216 215 215 214 213 212 212 211 209 209 207 207 205 204 203 202 200 199 197 196 194 193 191 189 188 186 184 182 179 177 175 172 170 167 164 161 159 156 153 149 146 143 139 136 133 129 127 127 127 127 127 127 127 127 127 127 127 127 127 127 127 127 127 127 127 127 127 127 127 127 127 127 127 127 127 127 127 127 127 0 0 0 0 0 0 0 0 0 0 0 0 0 0 0 0 0 0 0 0 0 0 0 0 0 0 0 0 0 0 0 0 0 0 0 0 0 0 0 0 0 0 0 0 0 0 0 0 0 0 0 0 0 0 0 0 0 0 0 0 0 127 127 127 127 127 127 127 127 127 127 127 127 127 127 127 127 127 127 127 127 127 127 127 127 127 127 127 127 127 127 127 127 127 127 127 127 119 116 112 109 106 102 99 96 93 91 88 85 83 80 78 76 73 71 69 67 66 64 62 61 59 57 56 55 53 52 51 50 48 48 46 46 45 44 43 42 41 40 39 39 38 37 37 36 35 35 34 34 33 32 32 31 44 104 126 128 128 128 129 130 133 134 137 139 140 142 144 146 148 150 152 154 156 157 159 161 162 164 166 167 169 170 171 173 175 176 177 179 180 181 182 184 185 186 187 188 189 190 191 192 193 194 195 196 197 198 194 167 134 128 128 128 128 128 128 128 128 128 128 128 128 128 126 122 119 116 112 109 106 102 99 96 93 91 88 85 83 80 78 76 73 71 69 67 66 64 62 61 59 57 56 55 53 52 51 50 48 48 46 46 45 44 43 42 41 40 39 39 38 37 37 36 35 35 34 34 33 32 32 31 44 104 126 128 128 128
128 128 128 128 142 220 222 222 221 221 220 220 219 218 218 217 216 216 215 214 213 213 212 211 210 209 208 207 206 205 204 203 201 200 199 197 196 194 193 191 190 188 186 184 182 180 178 176 173 171 169 166 163 160 157 155 152 149 145 142 139 136 133 129 128 128 128 128 128 128 128 128 128 128 128 128 128 118 59 56 56 57 58 59 60 61 62 63 64 65 66 67 68 69 70 72 73 74 75 77 78 80 81 82 84 85 87 89 90 92 94 95 97 99 101 103 105 106 108 110 112 114 116 118 120 122 124 127 128 128 128 128 142 220 222 222 221 221 220 220 219 218 218 217 216 216 215 214 213 213 212 211 210 209 208 207 206 205 204 203 201 200 199 197 196 194 193 191 190 188 186 184 182 180 178 176 173 171 169 166 163 160 157 155 152 149 145 142 139 136 133 129 127 127 127 127 127 127 127 127 127 127 127 127 127 127 127 127 127 127 127 127 127 127 127 127 127 127 127 127 127 127 127 127 127 0 0 0 0 0 0 0 0 0 0 0 0 0 0 0 0 0 0 0 0 0 0 0 0 0 0 0 0 0 0 0 0 0 0 0 0 0 0 0 0 0 0 0 0 0 0 0 0 0 0 0 0 0 0 0 0 0 0 0 0 0 127 127 127 127 127 127 127 127 127 127 127 127 127 127 127 127 127 127 127 127 127 127 127 127 127 127 127 127 127 127 127 127 127 127 127 127 119 116 113 109 106 104 100 97 95 92 89 86 84 82 79 77 75 73 71 69 67 65 64 62 60 59 58 56 55 54 52 51 50 49 48 47 46 45 44 43 42 42 41 40 39 39 38 37 37 36 35 35 34 34 33 35 61 120 128 128 128 128 129 131 133 135 137 139 141 143 145 147 149 151 152 154 156 158 160 161 163 165 166 168 169 171 172 174 175 177 178 180 181 182 183 185 186 187 188 189 190 191 192 193 194 195 196 197 198 199 199 194 158 132 128 128 128 128 128 128 128 128 128 128 128 128 126 122 119 116 113 109 106 104 100 97 95 92 89 86 84 82 79 77 75 73 71 69 67 65 64 62 60 59 58 56 55 54 52 51 50 49 48 47 46 45 44 43 42 42 41 40 39 39 38 37 37 36 35 35 34 34 33 35 61 120 128 128 128 128
128 128 128 128 128 195 221 221 220 219 219 218 218 217 216 216 215 214 213 213 212 211 210 209 208 208 206 205 204 203 202 201 200 199 197 196 194 193 191 190 188 186 184 183 181 178 176 174 172 169 167 164 162 159 157 154 151 148 145 142 139 136 132 129 128 128 128 128 128 128 128 128 128 128 128 128 125 67 54 54 55 56 57 58 59 60 61 62 63 64 65 66 67 68 69 70 72 73 75 76 77 79 80 81 83 85 86 88 89 91 93 95 97 98 100 102 104 106 108 110 112 114 116 118 120 122 124 127 128 128 128 128 128 195 221 221 220 219 219 218 218 217 216 216 215 214 213 213 212 211 210 209 208 208 206 205 204 203 202 201 200 199 197 196 194 193 191 190 188 186 184 183 181 178 176 174 172 169 167 164 162 159 157 154 151 148 145 142 139 136 132 129 127 127 127 127 127 127 127 127 127 127 127 127 127 127 127 127 127 127 127 127 127 127 127 127 127 127 127 127 127 127 127 127 127 0 0 0 0 0 0 0 0 0 0 0 0 0 0 0 0 0 0 0 0 0 0 0 0 0 0 0 0 0 0 0 0 0 0 0 0 0 0 0 0 0 0 0 0 0 0 0 0 0 0 0 0 0 0 0 0 0 0 0 0 0 127 127 127 127 127 127 127 127 127 127 127 127 127 127 127 127 127 127 127 127 127 127 127 127 127 127 127 127 127 127 127 127 127 127 127 127 120 116 113 110 107 104 101 98 96 93 91 88 86 83 81 79 77 74 73 71 69 67 65 64 62 61 59 58 57 55 54 53 52 51 50 48 47 46 46 45 44 43 42 41 41 40 39 38 38 37 37 36 36 35 35 43 92 125 128 128 128 128 129 131 133 135 137 139 141 143 145 147 149 151 153 155 157 159 160 162 164 166 167 169 171 172 173 175 176 178 179 181 182 183 184 186 187 188 189 190 191 192 194 194 195 196 197 198 199 200 201 200 192 149 130 128 128 128 128 128 128 128 128 128 128 128 126 123 120 116 113 110 107 104 101 98 96 93 91 88 86 83 81 79 77 74 73 71 69 67 65 64 62 61 59 58 57 55 54 53 52 51 50 48 47 46 46 45 44 43 42 41 41 40 39 38 38 37 37 36 36 35 35 43 92 125 128 128 128 128
128 128 128 128 128 153 219 219 219 218 218 217 216 216 215 214 214 213 212 211 211 210 209 208 207 206 205 204 203 202 201 200 198 197 196 194 193 191 190 188 186 185 183 181 179 177 175 173 170 168 166 163 161 158 155 153 150 147 144 141 138 135 132 129 128 128 128 128 128 128 128 128 128 128 128 128 85 52 53 54 54 55 56 57 58 59 60 61 62 63 64 65 66 67 68 69 71 72 73 75 76 78 79 81 82 84 85 87 89 91 92 94 96 98 99 101 103 105 107 109 111 114 116 118 120 122 124 126 128 128 128 128 128 153 219 219 219 218 218 217 216 216 215 214 214 213 212 211 211 210 209 208 207 206 205 204 203 202 201 200 198 197 196 194 193 191 190 188 186 185 183 181 179 177 175 173 170 168 166 163 161 158 155 153 150 147 144 141 138 135 132 129 127 127 127 127 127 127 127 127 127 127 127 127 127 127 127 127 127 127 127 127 127 127 127 127 127 127 127 127 127 127 127 127 127 0 0 0 0 0 0 0 0 0 0 0 0 0 0 0 0 0 0 0 0 0 0 0 0 0 0 0 0 0 0 0 0 0 0 0 0 0 0 0 0 0 0 0 0 0 0 0 0 0 0 0 0 0 0 0 0 0 0 0 0 0 127 127 127 127 127 127 127 127 127 127 127 127 127 127 127 127 127 127 127 127 127 127 127 127 127 127 127 127 127 127 127 127 127 127 127 127 120 117 114 111 108 105 102 100 97 94 92 89 87 85 82 80 78 76 74 72 70 69 67 65 64 62 61 59 58 57 56 54 53 52 51 50 49 48 47 46 45 44 44 43 42 41 41 40 39 39 38 37 37 36 37 56 117 127 128 128 128 128 129 131 133 135 137 139 141 143 146 148 150 152 154 156 158 159 161 163 165 166 168 170 171 173 174 176 178 179 180 182 183 184 185 187 188 189 190 191 192 193 194 195 196 197 198 199 200 201 202 202 201 185 140 129 128 128 128 128 128 128 128 128 128 128 126 123 120 117 114 111 108 105 102 100 97 94 92 89 87 85 82 80 78 76 74 72 70 69 67 65 64 62 61 59 58 57 56 54 53 52 51 50 49 48 47 46 45 44 44 43 42 41 41 40 39 39 38 37 37 36 37 56 117 127 128 128 128 128
128 128 128 128 128 129 199 218 218 217 217 216 215 215 214 213 212 212 211 210 209 208 208 207 206 205 203 203 202 200 199 198 197 195 194 193 191 190 188 187 185 183 181 180 177 175 174 171 169 167 164 162 160 157 154 152 149 146 144 141 138 135 132 129 128 128 128 128 128 128 128 128 128 128 128 104 50 51 52 53 53 54 55 56 57 58 59 59 61 62 63 64 65 66 67 68 70 71 72 74 75 77 78 80 81 83 84 86 88 89 91 93 95 97 99 101 103 105 107 109 111 113 115 117 120 122 124 126 128 128 128 128 128 129 199 218 218 217 217 216 215 215 214 213 212 212 211 210 209 208 208 207 206 205 203 203 202 200 199 198 197 195 194 193 191 190 188 187 185 183 181 180 177 175 174 171 169 167 164 162 160 157 154 152 149 146 144 141 138 135 132 129 127 127 127 127 127 127 127 127 127 127 127 127 127 127 127 127 127 127 127 127 127 127 127 127 127 127 127 127 127 127 127 127 127 0 0 0 0 0 0 0 0 0 0 0 0 0 0 0 0 0 0 0 0 0 0 0 0 0 0 0 0 0 0 0 0 0 0 0 0 0 0 0 0 0 0 0 0 0 0 0 0 0 0 0 0 0 0 0 0 0 0 0 0 0 127 127 127 127 127 127 127 127 127 127 127 127 127 127 127 127 127 127 127 127 127 127 127 127 127 127 127 127 127 127 127 127 127 127 127 127 120 117 114 112 109 106 103 100 98 95 93 90 88 86 84 81 80 77 75 74 72 70 68 67 65 64 62 61 60 58 57 56 55 54 52 51 50 49 48 48 47 46 45 44 43 43 42 41 40 40 39 39 38 37 44 88 125 128 128 128 128 128 129 131 133 135 138 140 142 144 146 148 150 152 154 156 158 160 162 164 166 167 169 171 172 174 176 177 179 180 181 183 184 185 186 188 189 190 191 192 193 194 196 196 197 198 199 200 201 202 203 203 204 201 173 134 128 128 128 128 128 128 128 128 128 128 126 123 120 117 114 112 109 106 103 100 98 95 93 90 88 86 84 81 80 77 75 74 72 70 68 67 65 64 62 61 60 58 57 56 55 54 52 51 50 49 48 48 47 46 45 44 43 43 42 41 40 40 39 39 38 37 44 88 125 128 128 128 128 128
128 128 128 128 128 128 157 217 216 216 215 215 214 213 213 212 211 210 210 209 208 207 206 205 204 203 202 201 200 199 198 197 195 194 193 191 190 188 187 185 183 182 180 178 176 174 172 170 168 166 163 161 159 156 154 151 148 146 143 140 137 135 132 129 128 128 128 128 128 128 128 128 128 128 121 57 49 50 51 51 52 53 54 55 56 57 57 58 59 60 61 63 64 65 66 67 69 70 71 73 74 76 77 79 80 82 83 85 87 88 90 92 94 96 98 100 102 104 106 108 111 113 115 117 120 122 124 126 128 128 128 128 128 128 157 217 216 216 215 215 214 213 213 212 211 210 210 209 208 207 206 205 204 203 202 201 200 199 198 197 195 194 193 191 190 188 187 185 183 182 180 178 176 174 172 170 168 166 163 161 159 156 154 151 148 146 143 140 137 135 132 129 127 127 127 127 127 127 127 127 127 127 127 127 127 127 127 127 127 127 127 127 127 127 127 127 127 127 127 127 127 127 127 127 127 0 0 0 0 0 0 0 0 0 0 0 0 0 0 0 0 0 0 0 0 0 0 0 0 0 0 0 0 0 0 0 0 0 0 0 0 0 0 0 0 0 0 0 0 0 0 0 0 0 0 0 0 0 0 0 0 0 0 0 0 0 127 127 127 127 127 127 127 127 127 127 127 127 127 127 127 127 127 127 127 127 127 127 127 127 127 127 127 127 127 127 127 127 127 127 127 127 120 118 115 112 109 107 104 101 99 96 94 92 89 87 85 83 81 79 77 75 73 72 70 68 67 65 64 62 61 60 58 57 56 55 54 53 52 51 50 49 48 47 46 45 45 44 43 42 42 41 40 40 39 39 56 115 127 128 128 128 128 128 129 131 133 135 138 140 142 144 147 149 151 153 155 157 159 161 163 165 166 168 170 172 173 175 176 178 179 181 182 184 185 187 188 189 190 191 192 193 194 195 197 198 199 199 200 201 202 203 204 205 205 206 200 155 130 128 128 128 128 128 128 128 128 128 126 123 120 118 115 112 109 107 104 101 99 96 94 92 89 87 85 83 81 79 77 75 73 72 70 68 67 65 64 62 61 60 58 57 56 55 54 53 52 51 50 49 48 47 46 45 45 44 43 42 42 41 40 40 39 39 56 115 127 128 128 128 128 128
128 128 128 128 128 128 129 197 215 215 214 214 213 212 211 211 210 209 208 208 207 206 205 204 203 202 201 200 199 198 196 195 194 192 191 190 188 187 185 184 182 180 179 177 175 173 171 169 167 165 162 160 157 155 153 150 148 145 142 140 137 134 132 129 128 128 128 128 128 128 128 128 128 128 79 47 48 49 50 50 51 52 53 54 54 55 56 57 58 59 61 61 63 64 65 66 67 69 70 71 73 74 76 77 79 81 82 84 86 87 89 91 93 95 97 99 101 104 106 108 110 112 115 117 119 122 124 126 128 128 128 128 128 128 129 197 215 215 214 214 213 212 211 211 210 209 208 208 207 206 205 204 203 202 201 200 199 198 196 195 194 192 191 190 188 187 185 184 182 180 179 177 175 173 171 169 167 165 162 160 157 155 153 150 148 145 142 140 137 134 132 129 127 127 127 127 127 127 127 127 127 127 127 127 127 127 127 127 127 127 127 127 127 127 127 127 127 127 127 127 127 127 127 127 127 0 0 0 0 0 0 0 0 0 0 0 0 0 0 0 0 0 0 0 0 0 0 0 0 0 0 0 0 0 0 0 0 0 0 0 0 0 0 0 0 0 0 0 0 0 0 0 0 0 0 0 0 0 0 0 0 0 0 0 0 0 127 127 127 127 127 127 127 127 127 127 127 127 127 127 127 127 127 127 127 127 127 127 127 127 127 127 127 127 127 127 127 127 127 127 127 127 121 118 115 113 110 107 105 102 100 97 95 93 90 88 86 84 82 80 78 76 75 73 71 70 68 67 65 64 62 61 60 59 57 56 55 54 53 52 51 50 49 49 47 47 46 45 44 44 43 42 42 41 40 46 89 125 128 128 128 128 128 128 129 131 133 136 138 140 143 145 147 149 151 154 156 158 160 162 164 166 167 169 171 173 174 176 178 179 181 182 184 185 186 188 188 190 191 192 194 195 196 197 198 199 200 201 201 203 203 204 205 206 206 207 207 191 141 129 128 128 128 128 128 128 128 128 126 124 121 118 115 113 110 107 105 102 100 97 95 93 90 88 86 84 82 80 78 76 75 73 71 70 68 67 65 64 62 61 60 59 57 56 55 54 53 52 51 50 49 49 47 47 46 45 44 44 43 42 42 41 40 46 89 125 128 128 128 128 128 128
128 128 128 128 128 128 128 152 214 214 213 212 212 211 210 210 209 208 207 206 205 204 203 203 202 201 199 199 197 196 195 194 192 191 190 188 187 185 184 182 181 179 177 175 174 172 170 168 166 164 161 159 157 154 152 150 147 145 142 139 137 134 131 129 128 128 128 128 128 128 128 128 128 106 45 46 47 47 48 49 50 51 51 52 53 54 55 56 57 58 59 60 61 63 64 65 66 68 69 70 72 73 75 76 78 79 81 83 85 87 88 90 92 94 96 99 101 103 105 107 110 112 114 117 119 121 124 126 128 128 128 128 128 128 128 152 214 214 213 212 212 211 210 210 209 208 207 206 205 204 203 203 202 201 199 199 197 196 195 194 192 191 190 188 187 185 184 182 181 179 177 175 174 172 170 168 166 164 161 159 157 154 152 150 147 145 142 139 137 134 131 129 127 127 127 127 127 127 127 127 127 127 127 127 127 127 127 127 127 127 127 127 127 127 127 127 127 127 127 127 127 127 127 127 127 0 0 0 0 0 0 0 0 0 0 0 0 0 0 0 0 0 0 0 0 0 0 0 0 0 0 0 0 0 0 0 0 0 0 0 0 0 0 0 0 0 0 0 0 0 0 0 0 0 0 0 0 0 0 0 0 0 0 0 0 0 127 127 127 127 127 127 127 127 127 127 127 127 127 127 127 127 127 127 127 127 127 127 127 127 127 127 127 127 127 127 127 127 127 127 127 127 121 118 116 113 111 108 105 103 101 98 96 94 91 89 87 85 83 81 79 78 76 74 73 71 69 68 67 65 64 63 61 60 59 58 56 56 54 53 52 52 50 50 49 48 47 46 46 45 44 43 43 42 42 59 116 127 128 128 128 128 128 128 129 131 134 136 138 141 143 145 148 150 152 154 157 159 161 163 165 167 168 170 172 174 175 177 179 180 182 183 185 186 187 189 190 191 192 193 195 196 197 198 199 200 201 202 202 203 204 205 206 207 207 208 209 206 174 134 128 128 128 128 128 128 128 128 126 123 121 118 116 113 111 108 105 103 101 98 96 94 91 89 87 85 83 81 79 78 76 74 73 71 69 68 67 65 64 63 61 60 59 58 56 56 54 53 52 52 50 50 49 48 47 46 46 45 44 43 43 42 42 59 116 127 128 128 128 128 128 128
128 128 128 128 128 128 128 128 189 213 212 211 211 210 209 208 207 207 206 205 204 203 202 201 200 199 198 197 196 195 194 192 191 190 189 187 186 184 183 181 179 178 176 174 172 170 169 167 165 163 160 158 156 154 151 149 146 144 141 139 136 134 131 129 128 128 128 128 128 128 128 128 125 57 44 45 46 47 47 48 49 50 50 51 52 53 54 55 56 57 58 59 60 61 63 64 65 66 68 69 71 72 73 75 77 78 80 82 84 86 87 89 91 93 95 98 100 102 105 107 109 111 114 116 119 121 124 126 128 128 128 128 128 128 128 128 189 213 212 211 211 210 209 208 207 207 206 205 204 203 202 201 200 199 198 197 196 195 194 192 191 190 189 187 186 184 183 181 179 178 176 174 172 170 169 167 165 163 160 158 156 154 151 149 146 144 141 139 136 134 131 129 127 127 127 127 127 127 127 127 127 127 127 127 127 127 127 127 127 127 127 127 127 127 127 127 127 127 127 127 127 127 127 127 127 0 0 0 0 0 0 0 0 0 0 0 0 0 0 0 0 0 0 0 0 0 0 0 0 0 0 0 0 0 0 0 0 0 0 0 0 0 0 0 0 0 0 0 0 0 0 0 0 0 0 0 0 0 0 0 0 0 0 0 0 0 127 127 127 127 127 127 127 127 127 127 127 127 127 127 127 127 127 127 127 127 127 127 127 127 127 127 127 127 127 127 127 127 127 127 127 127 121 118 116 113 111 109 106 104 102 99 97 95 92 90 88 86 84 83 81 79 77 76 74 72 71 69 68 66 65 64 63 61 60 59 58 57 56 55 54 53 52 51 50 49 48 47 47 46 45 45 44 43 50 95 125 128 128 128 128 128 128 128 129 131 134 136 139 141 144 146 148 151 153 155 157 160 161 164 166 168 169 171 173 175 176 178 180 182 183 184 186 187 189 190 191 192 194 195 196 197 198 199 200 201 202 203 204 205 206 206 207 208 209 209 210 210 202 151 130 128 128 128 128 128 128 128 126 124 121 118 116 113 111 109 106 104 102 99 97 95 92 90 88 86 84 83 81 79 77 76 74 72 71 69 68 66 65 64 63 61 60 59 58 57 56 55 54 53 52 51 50 49 48 47 47 46 45 45 44 43 50 95 125 128 128 128 128 128 128 128
128 128 128 128 128 128 128 128 142 208 210 210 209 209 208 207 206 206 205 204 203 202 201 200 199 198 197 196 195 194 192 191 190 189 187 186 184 183 182 180 178 176 175 173 171 169 168 166 164 161 160 157 155 153 151 148 146 144 141 139 136 134 131 129 128 128 128 128 128 128 128 128 94 42 43 44 45 45 46 47 47 48 49 50 51 52 53 54 55 56 57 58 59 60 61 63 64 65 66 68 69 71 72 74 76 77 79 81 83 84 86 88 90 92 95 97 99 102 104 106 109 111 113 116 118 121 124 126 128 128 128 128 128 128 128 128 142 208 210 210 209 209 208 207 206 206 205 204 203 202 201 200 199 198 197 196 195 194 192 191 190 189 187 186 184 183 182 180 178 176 175 173 171 169 168 166 164 161 160 157 155 153 151 148 146 144 141 139 136 134 131 129 127 127 127 127 127 127 127 127 127 127 127 127 127 127 127 127 127 127 127 127 127 127 127 127 127 127 127 127 127 127 127 127 127 0 0 0 0 0 0 0 0 0 0 0 0 0 0 0 0 0 0 0 0 0 0 0 0 0 0 0 0 0 0 0 0 0 0 0 0 0 0 0 0 0 0 0 0 0 0 0 0 0 0 0 0 0 0 0 0 0 0 0 0 0 127 127 127 127 127 127 127 127 127 127 127 127 127 127 127 127 127 127 127 127 127 127 127 127 127 127 127 127 127 127 127 127 127 127 127 127 121 119 116 114 111 109 107 105 102 100 98 95 93 91 89 87 86 84 82 80 78 77 75 73 72 71 69 68 66 65 64 63 61 60 59 58 57 56 55 54 53 52 51 50 50 49 48 47 47 46 45 46 68 120 128 128 128 128 128 128 128 128 129 131 134 136 139 141 144 146 149 151 154 156 158 160 163 165 167 169 170 172 174 176 178 179 181 183 184 186 187 189 190 191 192 194 195 196 197 198 199 200 201 202 203 204 205 206 207 207 208 209 210 211 211 212 211 186 136 128 128 128 128 128 128 128 126 124 121 119 116 114 111 109 107 105 102 100 98 95 93 91 89 87 86 84 82 80 78 77 75 73 72 71 69 68 66 65 64 63 61 60 59 58 57 56 55 54 53 52 51 50 50 49 48 47 47 46 45 46 68 120 128 128 128 128 128 128 128 128
128 128 128 128 128 128 128 128 128 173 210 209 208 207 207 206 205 204 203 202 202 201 200 199 198 197 196 195 193 192 191 190 189 187 186 185 183 182 180 179 177 175 174 172 170 168 167 165 163 161 159 157 154 152 150 148 145 143 141 138 136 134 131 129 128 128 128 128 128 128 128 121 44 41 42 43 43 44 45 46 46 47 48 49 50 50 52 52 53 54 56 56 58 59 60 61 63 64 65 67 68 69 71 73 74 76 78 79 81 83 85 87 89 91 94 96 98 101 103 105 108 111 113 116 118 121 123 126 128 128 128 128 128 128 128 128 128 173 210 209 208 207 207 206 205 204 203 202 202 201 200 199 198 197 196 195 193 192 191 190 189 187 186 185 183 182 180 179 177 175 174 172 170 168 167 165 163 161 159 157 154 152 150 148 145 143 141 138 136 134 131 129 127 127 127 127 127 127 127 127 127 127 127 127 127 127 127 127 127 127 127 127 127 127 127 127 127 127 127 127 127 127 127 127 127 0 0 0 0 0 0 0 0 0 0 0 0 0 0 0 0 0 0 0 0 0 0 0 0 0 0 0 0 0 0 0 0 0 0 0 0 0 0 0 0 0 0 0 0 0 0 0 0 0 0 0 0 0 0 0 0 0 0 0 0 0 127 127 127 127 127 127 127 127 127 127 127 127 127 127 127 127 127 127 127 127 127 127 127 127 127 127 127 127 127 127 127 127 127 127 127 127 121 119 117 114 112 110 107 105 103 101 99 96 94 92 90 88 87 85 83 81 79 78 76 75 73 72 70 69 68 66 65 64 63 61 60 59 58 57 56 55 54 53 52 51 51 50 49 48 47 47 46 56 104 126 128 128 128 128 128 128 128 128 129 131 134 137 139 142 145 147 150 152 154 157 159 161 164 166 168 170 172 174 175 177 179 181 182 184 185 187 188 190 191 192 194 195 196 197 199 199 201 202 203 203 204 205 206 207 208 209 210 210 211 212 212 213 214 208 159 131 128 128 128 128 128 128 126 124 121 119 117 114 112 110 107 105 103 101 99 96 94 92 90 88 87 85 83 81 79 78 76 75 73 72 70 69 68 66 65 64 63 61 60 59 58 57 56 55 54 53 52 51 51 50 49 48 47 47 46 56 104 126 128 128 128 128 128 128 128 128
128 128 128 128 128 128 128 128 128 131 196 208 207 206 206 205 204 203 203 201 201 200 199 198 197 196 195 194 192 191 190 188 188 186 185 184 182 181 179 178 176 174 173 171 169 167 166 164 162 160 158 156 154 151 149 147 145 143 140 138 136 133 131 129 128 128 128 128 128 128 128 86 40 40 41 42 42 43 44 44 45 46 47 47 49 49 50 51 52 53 54 55 56 57 59 60 61 62 64 65 67 68 70 71 73 75 76 78 80 82 84 86 88 90 93 95 97 100 102 105 107 110 113 115 118 121 124 126 128 128 128 128 128 128 128 128 128 131 196 208 207 206 206 205 204 203 203 201 201 200 199 198 197 196 195 194 192 191 190 188 188 186 185 184 182 181 179 178 176 174 173 171 169 167 166 164 162 160 158 156 154 151 149 147 145 143 140 138 136 133 131 129 127 127 127 127 127 127 127 127 127 127 127 127 127 127 127 127 127 127 127 127 127 127 127 127 127 127 127 127 127 127 127 127 127 0 0 0 0 0 0 0 0 0 0 0 0 0 0 0 0 0 0 0 0 0 0 0 0 0 0 0 0 0 0 0 0 0 0 0 0 0 0 0 0 0 0 0 0 0 0 0 0 0 0 0 0 0 0 0 0 0 0 0 0 0 127 127 127 127 127 127 127 127 127 127 127 127 127 127 127 127 127 127 127 127 127 127 127 127 127 127 127 127 127 127 127 127 127 127 127 127 122 119 117 115 112 110 108 106 104 101 99 97 95 93 91 89 87 86 84 82 81 79 77 76 74 73 71 70 69 67 66 65 64 63 61 61 59 58 57 56 55 54 54 53 52 51 50 50 49 48 52 84 124 128 128 128 128 128 128 128 128 128 129 132 134 137 140 142 145 148 150 153 155 157 160 162 165 167 169 171 173 175 177 179 180 182 184 185 187 188 190 191 192 194 195 196 198 199 200 201 202 203 204 205 206 207 208 208 209 210 211 211 212 213 214 214 215 213 193 138 128 128 128 128 128 128 126 124 122 119 117 115 112 110 108 106 104 101 99 97 95 93 91 89 87 86 84 82 81 79 77 76 74 73 71 70 69 67 66 65 64 63 61 61 59 58 57 56 55 54 54 53 52 51 50 50 49 48 52 84 124 128 128 128 128 128 128 128 128 128
128 128 128 128 128 128 128 128 128 128 149 205 206 205 205 204 203 202 201 200 199 199 198 197 195 194 193 192 191 190 189 188 187 185 184 182 181 179 178 176 175 173 172 170 168 166 165 163 161 159 157 155 153 151 149 147 144 142 140 138 135 133 131 129 128 128 128 128 128 128 120 41 38 39 40 40 41 42 42 43 44 45 45 46 47 48 49 50 51 52 53 54 55 56 57 58 60 61 62 64 65 67 68 70 72 73 75 77 79 81 83 85 87 89 92 94 96 99 101 104 107 109 112 115 118 120 123 126 128 128 128 128 128 128 128 128 128 128 149 205 206 205 205 204 203 202 201 200 199 199 198 197 195 194 193 192 191 190 189 188 187 185 184 182 181 179 178 176 175 173 172 170 168 166 165 163 161 159 157 155 153 151 149 147 144 142 140 138 135 133 131 129 127 127 127 127 127 127 127 127 127 127 127 127 127 127 127 127 127 127 127 127 127 127 127 127 127 127 127 127 127 127 127 127 127 0 0 0 0 0 0 0 0 0 0 0 0 0 0 0 0 0 0 0 0 0 0 0 0 0 0 0 0 0 0 0 0 0 0 0 0 0 0 0 0 0 0 0 0 0 0 0 0 0 0 0 0 0 0 0 0 0 0 0 0 0 127 127 127 127 127 127 127 127 127 127 127 127 127 127 127 127 127 127 127 127 127 127 127 127 127 127 127 127 127 127 127 127 127 127 127 127 122 120 117 115 113 111 108 106 104 102 100 98 96 94 92 90 88 87 85 83 82 80 79 77 76 74 73 71 70 69 67 66 65 64 63 61 60 59 58 57 57 56 55 54 53 52 51 51 50 50 68 116 127 128 128 128 128 128 128 128 128 128 129 132 135 137 140 143 146 148 151 154 156 159 161 163 166 168 170 172 174 176 178 180 182 183 185 187 188 190 191 193 194 195 197 198 199 200 201 202 203 204 205 206 207 208 209 210 210 211 212 213 213 214 215 215 216 216 212 163 131 128 128 128 128 128 126 124 122 120 117 115 113 111 108 106 104 102 100 98 96 94 92 90 88 87 85 83 82 80 79 77 76 74 73 71 70 69 67 66 65 64 63 61 60 59 58 57 57 56 55 54 53 52 51 51 50 50 68 116 127 128 128 128 128 128 128 128 128 128
128 128 128 128 128 128 128 128 128 128 128 173 205 204 203 203 202 201 200 199 198 197 196 196 194 193 192 191 190 189 188 186 185 184 183 181 180 179 177 176 174 172 171 169 167 166 164 162 160 158 156 154 152 150 148 146 144 142 140 138 135 133 131 129 128 128 128 128 128 128 86 37 37 38 39 39 40 40 41 42 43 43 44 45 46 47 48 48 49 50 51 52 54 55 56 57 58 60 61 62 64 65 67 68 70 72 74 75 77 80 81 84 86 88 90 93 95 98 100 103 106 109 112 114 117 120 123 126 128 128 128 128 128 128 128 128 128 128 128 173 205 204 203 203 202 201 200 199 198 197 196 196 194 193 192 191 190 189 188 186 185 184 183 181 180 179 177 176 174 172 171 169 167 166 164 162 160 158 156 154 152 150 148 146 144 142 140 138 135 133 131 129 127 127 127 127 127 127 127 127 127 127 127 127 127 127 127 127 127 127 127 127 127 127 127 127 127 127 127 127 127 127 127 127 127 0 0 0 0 0 0 0 0 0 0 0 0 0 0 0 0 0 0 0 0 0 0 0 0 0 0 0 0 0 0 0 0 0 0 0 0 0 0 0 0 0 0 0 0 0 0 0 0 0 0 0 0 0 0 0 0 0 0 0 0 0 127 127 127 127 127 127 127 127 127 127 127 127 127 127 127 127 127 127 127 127 127 127 127 127 127 127 127 127 127 127 127 127 127 127 127 127 122 120 117 115 113 111 109 107 105 103 101 99 97 95 93 91 89 88 86 84 83 81 80 78 77 75 74 72 71 70 68 67 66 65 64 63 62 61 59 59 58 57 56 55 54 53 53 52 51 60 103 126 128 128 128 128 128 128 128 128 128 128 129 132 135 138 141 144 146 149 152 154 157 160 162 164 167 169 171 174 175 177 180 181 183 185 187 188 190 191 193 194 195 197 198 199 200 202 203 203 205 206 207 208 208 209 210 211 212 212 213 214 215 215 216 217 217 218 216 195 138 128 128 128 128 128 126 124 122 120 117 115 113 111 109 107 105 103 101 99 97 95 93 91 89 88 86 84 83 81 80 78 77 75 74 72 71 70 68 67 66 65 64 63 62 61 59 59 58 57 56 55 54 53 53 52 51 60 103 126 128 128 128 128 128 128 128 128 128 128
128 128 128 128 128 128 128 128 128 128 128 131 189 203 202 202 201 200 199 198 197 196 195 194 193 192 191 190 189 188 187 185 184 183 182 180 179 178 176 174 173 171 170 168 166 165 163 161 159 158 156 154 152 150 148 146 143 141 139 137 135 133 131 129 128 128 128 128 128 122 39 36 36 37 37 38 39 39 40 41 41 42 43 44 44 45 46 47 48 49 50 51 52 53 54 56 57 58 59 61 62 64 65 67 69 70 72 74 76 78 80 82 85 87 89 92 94 97 100 102 105 108 111 114 117 120 123 126 128 128 128 128 128 128 128 128 128 128 128 131 189 203 202 202 201 200 199 198 197 196 195 194 193 192 191 190 189 188 187 185 184 183 182 180 179 178 176 174 173 171 170 168 166 165 163 161 159 158 156 154 152 150 148 146 143 141 139 137 135 133 131 129 127 127 127 127 127 127 127 127 127 127 127 127 127 127 127 127 127 127 127 127 127 127 127 127 127 127 127 127 127 127 127 127 127 0 0 0 0 0 0 0 0 0 0 0 0 0 0 0 0 0 0 0 0 0 0 0 0 0 0 0 0 0 0 0 0 0 0 0 0 0 0 0 0 0 0 0 0 0 0 0 0 0 0 0 0 0 0 0 0 0 0 0 0 0 127 127 127 127 127 127 127 127 127 127 127 127 127 127 127 127 127 127 127 127 127 127 127 127 127 127 127 127 127 127 127 127 127 127 127 127 122 120 118 116 114 111 109 107 105 103 101 99 98 96 94 92 91 89 87 85 84 82 81 79 78 76 75 73 72 71 69 68 67 66 65 64 63 62 61 60 59 58 57 56 55 54 54 53 57 89 124 128 128 128 128 128 128 128 128 128 128 128 129 132 135 138 141 144 147 150 153 155 158 161 163 166 168 170 173 175 177 179 181 183 185 186 188 190 191 193 194 196 197 198 200 201 202 203 204 205 206 207 208 209 210 211 211 212 213 214 214 215 216 216 217 218 218 219 219 213 160 131 128 128 128 128 126 124 122 120 118 116 114 111 109 107 105 103 101 99 98 96 94 92 91 89 87 85 84 82 81 79 78 76 75 73 72 71 69 68 67 66 65 64 63 62 61 60 59 58 57 56 55 54 54 53 57 89 124 128 128 128 128 128 128 128 128 128 128 128
128 128 128 128 128 128 128 128 128 128 128 128 141 198 201 201 200 199 198 197 196 195 194 194 192 191 190 189 188 187 186 184 183 182 181 179 178 176 175 173 172 171 169 167 166 164 162 160 159 157 155 153 151 149 147 145 143 141 139 137 135 133 131 129 128 128 128 128 128 91 34 35 35 36 36 37 37 38 38 39 40 41 41 42 43 44 45 46 46 47 48 50 51 52 53 54 55 57 58 59 61 62 64 65 67 69 71 73 74 77 79 81 83 86 88 91 93 96 98 101 104 107 110 113 116 120 123 126 128 128 128 128 128 128 128 128 128 128 128 128 141 198 201 201 200 199 198 197 196 195 194 194 192 191 190 189 188 187 186 184 183 182 181 179 178 176 175 173 172 171 169 167 166 164 162 160 159 157 155 153 151 149 147 145 143 141 139 137 135 133 131 129 127 127 127 127 127 127 127 127 127 127 127 127 127 127 127 127 127 127 127 127 127 127 127 127 127 127 127 127 127 127 127 127 127 0 0 0 0 0 0 0 0 0 0 0 0 0 0 0 0 0 0 0 0 0 0 0 0 0 0 0 0 0 0 0 0 0 0 0 0 0 0 0 0 0 0 0 0 0 0 0 0 0 0 0 0 0 0 0 0 0 0 0 0 0 127 127 127 127 127 127 127 127 127 127 127 127 127 127 127 127 127 127 127 127 127 127 127 127 127 127 127 127 127 127 127 127 127 127 127 127 122 120 118 116 114 112 110 108 106 104 102 100 98 97 95 93 91 89 88 86 85 83 81 80 79 77 76 75 73 72 70 69 68 67 66 65 64 63 62 61 60 59 58 57 56 55 54 56 77 120 128 128 128 128 128 128 128 128 128 128 128 128 129 132 136 139 142 145 148 151 154 157 159 162 164 167 169 172 174 176 178 181 183 184 186 188 190 191 193 194 196 197 199 200 201 202 203 204 205 206 208 208 209 210 211 212 213 213 214 215 216 216 217 218 218 219 219 220 221 219 192 136 128 128 128 128 127 124 122 120 118 116 114 112 110 108 106 104 102 100 98 97 95 93 91 89 88 86 85 83 81 80 79 77 76 75 73 72 70 69 68 67 66 65 64 63 62 61 60 59 58 57 56 55 54 56 77 120 128 128 128 128 128 128 128 128 128 128 128 128
128 128 128 128 128 128 128 128 128 128 128 128 128 154 199 199 199 198 197 196 195 194 193 192 191 190 189 188 187 186 185 183 182 181 180 178 177 175 174 172 171 169 168 166 165 163 161 160 158 156 154 152 151 149 147 145 143 141 139 137 135 133 131 129 128 128 128 128 125 48 33 33 34 34 35 35 36 37 37 38 39 39 40 41 42 42 43 44 45 46 47 48 49 50 51 52 54 55 56 58 59 60 62 64 65 67 69 71 73 75 77 79 82 84 86 89 92 95 97 100 104 106 109 113 116 119 122 126 128 128 128 128 128 128 128 128 128 128 128 128 128 154 199 199 199 198 197 196 195 194 193 192 191 190 189 188 187 186 185 183 182 181 180 178 177 175 174 172 171 169 168 166 165 163 161 160 158 156 154 152 151 149 147 145 143 141 139 137 135 133 131 129 127 127 127 127 127 127 127 127 127 127 127 127 127 127 127 127 127 127 127 127 127 127 127 127 127 127 127 127 127 127 127 127 127 0 0 0 0 0 0 0 0 0 0 0 0 0 0 0 0 0 0 0 0 0 0 0 0 0 0 0 0 0 0 0 0 0 0 0 0 0 0 0 0 0 0 0 0 0 0 0 0 0 0 0 0 0 0 0 0 0 0 0 0 0 127 127 127 127 127 127 127 127 127 127 127 127 127 127 127 127 127 127 127 127 127 127 127 127 127 127 127 127 127 127 127 127 127 127 127 127 122 120 118 116 114 112 110 108 106 105 103 101 99 97 95 94 92 90 89 87 85 84 82 81 80 78 77 75 74 73 72 70 69 68 67 66 65 64 63 62 61 60 59 58 57 56 57 70 114 127 128 128 128 128 128 128 128 128 128 128 128 128 129 133 136 139 142 145 149 152 155 157 160 163 166 169 171 173 176 178 180 182 184 186 188 190 191 193 194 196 197 199 200 201 203 204 205 206 207 208 209 210 211 212 213 213 214 215 216 216 217 218 218 219 220 220 221 221 222 222 214 152 130 128 128 128 127 124 122 120 118 116 114 112 110 108 106 105 103 101 99 97 95 94 92 90 89 87 85 84 82 81 80 78 77 75 74 73 72 70 69 68 67 66 65 64 63 62 61 60 59 58 57 56 57 70 114 127 128 128 128 128 128 128 128 128 128 128 128 128
128 128 128 128 128 128 128 128 128 128 128 128 128 128 167 198 198 197 196 195 194 193 192 191 190 189 188 187 186 185 184 182 181 180 179 177 176 175 173 171 170 169 167 166 164 162 161 159 157 156 154 152 150 148 146 144 142 140 139 137 134 133 130 129 128 128 128 128 106 31 31 32 32 33 34 34 35 35 36 37 37 38 39 39 40 41 42 43 44 45 46 46 48 48 50 51 52 53 55 56 57 59 61 62 64 66 67 69 71 73 76 78 80 83 85 88 91 93 96 99 102 106 109 112 116 119 122 126 128 128 128 128 128 128 128 128 128 128 128 128 128 128 167 198 198 197 196 195 194 193 192 191 190 189 188 187 186 185 184 182 181 180 179 177 176 175 173 171 170 169 167 166 164 162 161 159 157 156 154 152 150 148 146 144 142 140 139 137 134 133 130 129 127 127 127 127 127 127 127 127 127 127 127 127 127 127 127 127 127 127 127 127 127 127 127 127 127 127 127 127 127 127 127 127 127 0 0 0 0 0 0 0 0 0 0 0 0 0 0 0 0 0 0 0 0 0 0 0 0 0 0 0 0 0 0 0 0 0 0 0 0 0 0 0 0 0 0 0 0 0 0 0 0 0 0 0 0 0 0 0 0 0 0 0 0 0 127 127 127 127 127 127 127 127 127 127 127 127 127 127 127 127 127 127 127 127 127 127 127 127 127 127 127 127 127 127 127 127 127 127 127 127 123 121 119 117 115 113 111 109 107 105 103 101 100 98 96 94 93 91 89 88 86 85 83 82 80 79 78 76 75 74 73 71 70 69 68 67 66 65 64 63 62 61 60 59 58 58 67 106 126 128 128 128 128 128 128 128 128 128 128 128 128 128 129 133 136 139 143 146 149 153 156 159 161 164 167 170 172 175 177 179 182 184 186 188 189 191 193 194 196 197 199 200 202 203 204 205 207 207 209 209 211 212 212 213 214 215 215 216 217 218 218 219 220 220 221 221 222 222 223 224 221 183 134 128 128 128 127 124 123 121 119 117 115 113 111 109 107 105 103 101 100 98 96 94 93 91 89 88 86 85 83 82 80 79 78 76 75 74 73 71 70 69 68 67 66 65 64 63 62 61 60 59 58 58 67 106 126 128 128 128 128 128 128 128 128 128 128 128 128 128
128 128 128 128 128 128 128 128 128 128 128 128 128 128 129 176 197 196 195 194 193 192 191 190 189 188 187 186 185 184 183 181 180 179 178 176 175 174 172 171 169 168 166 165 163 162 160 158 156 155 153 151 149 148 146 144 142 140 138 136 134 133 130 129 128 128 128 128 67 30 30 31 31 32 32 33 33 34 35 35 36 37 37 38 39 40 40 41 42 43 44 45 46 47 48 49 50 52 53 54 56 57 59 60 62 64 66 68 70 72 74 76 79 81 84 86 89 92 95 98 101 105 108 111 115 119 122 126 128 128 128 128 128 128 128 128 128 128 128 128 128 128 129 176 197 196 195 194 193 192 191 190 189 188 187 186 185 184 183 181 180 179 178 176 175 174 172 171 169 168 166 165 163 162 160 158 156 155 153 151 149 148 146 144 142 140 138 136 134 133 130 129 127 127 127 127 127 127 127 127 127 127 127 127 127 127 127 127 127 127 127 127 127 127 127 127 127 127 127 127 127 127 127 127 127 0 0 0 0 0 0 0 0 0 0 0 0 0 0 0 0 0 0 0 0 0 0 0 0 0 0 0 0 0 0 0 0 0 0 0 0 0 0 0 0 0 0 0 0 0 0 0 0 0 0 0 0 0 0 0 0 0 0 0 0 0 127 127 127 127 127 127 127 127 127 127 127 127 127 127 127 127 127 127 127 127 127 127 127 127 127 127 127 127 127 127 127 127 127 127 127 127 123 121 119 117 115 113 111 109 107 105 104 102 100 98 97 95 93 92 90 89 87 86 84 83 81 80 79 77 76 75 74 73 71 70 69 68 67 66 65 64 63 62 61 60 59 65 98 125 128 128 128 128 128 128 128 128 128 128 128 128 128 128 129 133 136 140 144 147 150 154 157 160 163 166 169 171 174 176 179 181 183 185 187 189 191 193 195 196 198 199 201 202 203 205 206 207 208 209 210 211 212 213 214 215 216 216 217 218 218 219 220 220 221 222 222 223 223 224 224 225 224 209 141 128 128 128 127 125 123 121 119 117 115 113 111 109 107 105 104 102 100 98 97 95 93 92 90 89 87 86 84 83 81 80 79 77 76 75 74 73 71 70 69 68 67 66 65 64 63 62 61 60 59 65 98 125 128 128 128 128 128 128 128 128 128 128 128 128 128 128
128 128 128 128 128 128 128 128 128 128 128 128 128 128 128 131 180 195 194 193 192 191 190 189 188 187 186 185 184 183 182 180 179 178 177 175 174 173 171 170 169 167 165 164 162 161 159 158 156 154 153 151 149 147 145 143 142 140 138 136 134 132 130 128 128 128 128 121 31 29 29 30 30 30 31 31 32 33 33 34 35 35 36 37 37 38 39 40 40 41 42 43 44 45 46 48 49 50 51 52 54 55 57 59 60 62 64 66 68 70 72 74 77 79 82 85 88 91 94 97 100 104 107 111 114 118 122 126 128 128 128 128 128 128 128 128 128 128 128 128 128 128 128 131 180 195 194 193 192 191 190 189 188 187 186 185 184 183 182 180 179 178 177 175 174 173 171 170 169 167 165 164 162 161 159 158 156 154 153 151 149 147 145 143 142 140 138 136 134 132 130 128 127 127 127 127 127 127 127 127 127 127 127 127 127 127 127 127 127 127 127 127 127 127 127 127 127 127 127 127 127 127 127 127 127 0 0 0 0 0 0 0 0 0 0 0 0 0 0 0 0 0 0 0 0 0 0 0 0 0 0 0 0 0 0 0 0 0 0 0 0 0 0 0 0 0 0 0 0 0 0 0 0 0 0 0 0 0 0 0 0 0 0 0 0 0 127 127 127 127 127 127 127 127 127 127 127 127 127 127 127 127 127 127 127 127 127 127 127 127 127 127 127 127 127 127 127 127 127 127 127 127 123 121 119 117 115 113 112 110 108 106 104 102 101 99 98 96 94 93 91 89 88 87 85 84 82 81 80 78 77 76 74 73 72 71 70 69 68 67 66 65 64 63 62 61 66 95 124 128 128 128 128 128 128 128 128 128 128 128 128 128 128 128 129 133 137 141 144 148 151 155 158 161 164 167 170 173 176 178 181 183 185 187 189 191 193 195 196 198 200 201 203 204 205 206 208 209 210 211 212 213 214 215 215 216 217 218 219 219 220 220 221 222 222 223 223 224 224 225 226 226 227 221 164 131 128 128 127 125 123 121 119 117 115 113 112 110 108 106 104 102 101 99 98 96 94 93 91 89 88 87 85 84 82 81 80 78 77 76 74 73 72 71 70 69 68 67 66 65 64 63 62 61 66 95 124 128 128 128 128 128 128 128 128 128 128 128 128 128 128 128
128 128 128 128 128 128 128 128 128 128 128 128 128 128 128 128 134 183 193 192 191 190 189 188 187 186 185 184 183 182 181 180 178 177 176 175 173 172 170 169 168 166 165 163 162 160 159 157 155 154 152 150 148 147 145 143 141 140 138 136 134 132 130 129 128 128 128 96 27 27 28 28 28 29 30 30 31 31 32 32 33 34 34 35 36 36 37 38 39 40 41 42 43 44 45 46 47 48 49 51 52 53 55 57 58 60 62 64 66 68 70 73 75 78 80 83 86 89 92 96 99 103 106 110 114 118 122 126 128 128 128 128 128 128 128 128 128 128 128 128 128 128 128 128 134 183 193 192 191 190 189 188 187 186 185 184 183 182 181 180 178 177 176 175 173 172 170 169 168 166 165 163 162 160 159 157 155 154 152 150 148 147 145 143 141 140 138 136 134 132 130 129 127 127 127 127 127 127 127 127 127 127 127 127 127 127 127 127 127 127 127 127 127 127 127 127 127 127 127 127 127 127 127 127 127 0 0 0 0 0 0 0 0 0 0 0 0 0 0 0 0 0 0 0 0 0 0 0 0 0 0 0 0 0 0 0 0 0 0 0 0 0 0 0 0 0 0 0 0 0 0 0 0 0 0 0 0 0 0 0 0 0 0 0 0 0 127 127 127 127 127 127 127 127 127 127 127 127 127 127 127 127 127 127 127 127 127 127 127 127 127 127 127 127 127 127 127 127 127 127 127 127 123 121 119 117 115 114 112 110 108 107 105 103 101 100 98 96 95 93 92 90 89 87 86 84 83 82 80 79 78 77 76 74 73 72 71 70 69 68 67 66 64 64 63 66 91 122 128 128 128 128 128 128 128 128 128 128 128 128 128 128 128 128 129 134 137 141 145 149 152 156 159 163 166 169 172 175 177 180 182 185 187 189 191 193 195 197 199 200 202 203 204 206 207 208 209 210 211 213 213 214 215 216 217 218 219 219 220 221 221 222 222 223 224 224 225 225 226 226 227 227 228 225 193 135 128 128 127 125 123 121 119 117 115 114 112 110 108 107 105 103 101 100 98 96 95 93 92 90 89 87 86 84 83 82 80 79 78 77 76 74 73 72 71 70 69 68 67 66 64 64 63 66 91 122 128 128 128 128 128 128 128 128 128 128 128 128 128 128 128 128
128 128 128 128 128 128 128 128 128 128 128 128 128 128 128 128 128 136 183 191 190 189 188 187 186 185 184 183 182 181 180 179 177 176 175 174 172 171 170 168 167 165 164 163 161 160 158 156 155 153 151 150 148 146 145 143 141 139 138 136 134 132 130 128 128 128 128 62 26 26 27 27 27 28 28 29 29 30 31 31 32 32 33 33 34 35 36 36 37 38 39 40 41 42 43 44 45 46 47 49 50 52 53 55 56 58 60 62 64 66 68 70 73 76 78 81 84 88 91 94 98 102 105 109 113 117 121 125 128 128 128 128 128 128 128 128 128 128 128 128 128 128 128 128 128 136 183 191 190 189 188 187 186 185 184 183 182 181 180 179 177 176 175 174 172 171 170 168 167 165 164 163 161 160 158 156 155 153 151 150 148 146 145 143 141 139 138 136 134 132 130 128 127 127 127 127 127 127 127 127 127 127 127 127 127 127 127 127 127 127 127 127 127 127 127 127 127 127 127 127 127 127 127 127 127 0 0 0 0 0 0 0 0 0 0 0 0 0 0 0 0 0 0 0 0 0 0 0 0 0 0 0 0 0 0 0 0 0 0 0 0 0 0 0 0 0 0 0 0 0 0 0 0 0 0 0 0 0 0 0 0 0 0 0 0 0 127 127 127 127 127 127 127 127 127 127 127 127 127 127 127 127 127 127 127 127 127 127 127 127 127 127 127 127 127 127 127 127 127 127 127 127 123 121 119 117 116 114 112 110 109 107 105 104 102 100 99 97 95 94 93 91 89 88 87 85 84 83 81 80 79 78 76 75 74 73 72 71 70 68 68 67 66 65 68 88 121 127 128 128 128 128 128 128 128 128 128 128 128 128 128 128 128 128 130 134 138 142 146 150 154 157 161 164 168 171 174 177 180 182 184 187 189 191 193 195 197 199 200 202 204 205 206 208 209 210 211 212 213 214 215 216 217 218 219 219 220 221 221 222 223 223 224 224 225 226 226 227 227 228 228 229 229 228 215 143 128 128 126 125 123 121 119 117 116 114 112 110 109 107 105 104 102 100 99 97 95 94 93 91 89 88 87 85 84 83 81 80 79 78 76 75 74 73 72 71 70 68 68 67 66 65 68 88 121 127 128 128 128 128 128 128 128 128 128 128 128 128 128 128 128 128
128 128 128 128 128 128 128 128 128 128 128 128 128 128 128 128 128 128 136 182 190 188 187 187 185 184 183 182 181 180 179 178 177 175 174 173 172 170 169 168 166 165 163 162 160 159 157 156 154 152 151 149 147 146 144 142 141 139 137 135 134 132 130 129 128 128 121 28 24 25 25 26 26 27 27 28 28 28 29 29 30 31 31 32 33 33 34 35 36 36 37 38 39 40 41 42 43 44 46 47 48 49 51 52 54 56 58 60 62 64 66 68 71 74 76 79 82 86 89 92 96 100 104 108 112 117 121 125 128 128 128 128 128 128 128 128 128 128 128 128 128 128 128 128 128 128 136 182 190 188 187 187 185 184 183 182 181 180 179 178 177 175 174 173 172 170 169 168 166 165 163 162 160 159 157 156 154 152 151 149 147 146 144 142 141 139 137 135 134 132 130 129 127 127 127 127 127 127 127 127 127 127 127 127 127 127 127 127 127 127 127 127 127 127 127 127 127 127 127 127 127 127 127 127 127 0 0 0 0 0 0 0 0 0 0 0 0 0 0 0 0 0 0 0 0 0 0 0 0 0 0 0 0 0 0 0 0 0 0 0 0 0 0 0 0 0 0 0 0 0 0 0 0 0 0 0 0 0 0 0 0 0 0 0 0 0 127 127 127 127 127 127 127 127 127 127 127 127 127 127 127 127 127 127 127 127 127 127 127 127 127 127 127 127 127 127 127 127 127 127 127 127 123 121 120 118 116 114 113 111 109 107 106 104 102 101 99 98 96 95 93 92 90 89 87 86 85 83 82 81 80 78 77 76 75 74 73 72 71 70 68 68 66 70 89 120 127 128 128 128 128 128 128 128 128 128 128 128 128 128 128 128 128 128 130 134 139 143 147 151 155 159 163 166 169 173 176 179 182 184 187 189 191 193 196 197 199 201 202 204 205 207 208 209 211 212 213 214 215 216 217 218 219 220 220 221 222 222 223 224 224 225 225 226 227 227 227 228 229 229 229 230 230 231 225 164 131 128 127 125 123 121 120 118 116 114 113 111 109 107 106 104 102 101 99 98 96 95 93 92 90 89 87 86 85 83 82 81 80 78 77 76 75 74 73 72 71 70 68 68 66 70 89 120 127 128 128 128 128 128 128 128 128 128 128 128 128 128 128 128 128 128
128 128 128 128 128 128 128 128 128 128 128 128 128 128 128 128 128 128 128 135 178 188 187 186 185 184 183 182 180 179 178 177 176 175 173 172 171 169 168 167 166 164 163 161 160 158 157 155 154 152 150 149 147 146 144 142 140 139 137 135 133 132 130 128 128 128 102 23 23 24 24 24 25 25 26 26 27 27 28 28 29 29 30 30 31 32 32 33 34 35 35 36 37 38 39 40 41 42 44 45 46 47 49 50 52 54 55 57 59 62 64 66 69 71 74 77 80 84 87 91 95 99 103 107 112 116 120 125 128 128 128 128 128 128 128 128 128 128 128 128 128 128 128 128 128 128 128 135 178 188 187 186 185 184 183 182 180 179 178 177 176 175 173 172 171 169 168 167 166 164 163 161 160 158 157 155 154 152 150 149 147 146 144 142 140 139 137 135 133 132 130 128 127 127 127 127 127 127 127 127 127 127 127 127 127 127 127 127 127 127 127 127 127 127 127 127 127 127 127 127 127 127 127 127 127 0 0 0 0 0 0 0 0 0 0 0 0 0 0 0 0 0 0 0 0 0 0 0 0 0 0 0 0 0 0 0 0 0 0 0 0 0 0 0 0 0 0 0 0 0 0 0 0 0 0 0 0 0 0 0 0 0 0 0 0 0 127 127 127 127 127 127 127 127 127 127 127 127 127 127 127 127 127 127 127 127 127 127 127 127 127 127 127 127 127 127 127 127 127 127 127 127 123 121 120 118 116 114 113 111 110 108 106 105 103 101 100 98 97 95 94 92 91 90 88 87 86 84 83 82 80 79 78 77 75 74 73 72 71 70 69 68 72 93 121 127 128 128 128 128 128 128 128 128 128 128 128 128 128 128 128 128 128 128 130 134 139 144 148 152 156 160 164 168 172 175 178 181 184 186 189 191 193 196 198 200 201 203 205 206 208 209 210 212 213 214 215 216 217 218 219 220 220 221 222 223 223 224 225 225 226 226 227 228 228 229 229 229 230 230 231 231 231 232 229 191 135 128 127 125 123 121 120 118 116 114 113 111 110 108 106 105 103 101 100 98 97 95 94 92 91 90 88 87 86 84 83 82 80 79 78 77 75 74 73 72 71 70 69 68 72 93 121 127 128 128 128 128 128 128 128 128 128 128 128 128 128 128 128 128 128 128
128 128 128 128 128 128 128 128 128 128 128 128 128 128 128 128 128 128 128 128 133 173 186 185 184 183 182 181 180 179 177 176 175 174 173 171 170 169 167 166 165 163 162 161 159 158 156 155 153 152 150 148 147 145 144 142 140 138 137 135 133 132 130 128 128 128 77 22 22 22 23 23 23 24 24 25 25 25 26 27 27 28 28 29 29 30 31 32 32 33 34 35 35 36 37 38 39 40 41 43 44 45 47 48 50 51 53 55 57 59 61 64 66 69 72 75 78 82 85 89 93 97 101 106 110 115 120 125 128 128 128 128 128 128 128 128 128 128 128 128 128 128 128 128 128 128 128 128 133 173 186 185 184 183 182 181 180 179 177 176 175 174 173 171 170 169 167 166 165 163 162 161 159 158 156 155 153 152 150 148 147 145 144 142 140 138 137 135 133 132 130 128 127 127 127 127 127 127 127 127 127 127 127 127 127 127 127 127 127 127 127 127 127 127 127 127 127 127 127 127 127 127 127 127 127 0 0 0 0 0 0 0 0 0 0 0 0 0 0 0 0 0 0 0 0 0 0 0 0 0 0 0 0 0 0 0 0 0 0 0 0 0 0 0 0 0 0 0 0 0 0 0 0 0 0 0 0 0 0 0 0 0 0 0 0 0 127 127 127 127 127 127 127 127 127 127 127 127 127 127 127 127 127 127 127 127 127 127 127 127 127 127 127 127 127 127 127 127 127 127 127 127 123 122 120 118 117 115 113 112 110 108 107 105 103 102 100 99 97 96 94 93 92 90 89 88 86 85 84 82 81 80 79 77 76 75 74 73 72 71 70 75 98 123 128 128 128 128 128 128 128 128 128 128 128 128 128 128 128 128 128 128 128 128 130 135 140 144 149 154 158 162 166 170 173 177 180 183 186 189 191 194 196 198 200 202 204 205 207 209 210 211 212 214 215 216 217 218 219 220 221 221 222 223 224 224 225 226 226 227 227 228 228 229 229 230 230 231 231 231 232 232 232 233 232 212 140 128 127 125 123 122 120 118 117 115 113 112 110 108 107 105 103 102 100 99 97 96 94 93 92 90 89 88 86 85 84 82 81 80 79 77 76 75 74 73 72 71 70 75 98 123 128 128 128 128 128 128 128 128 128 128 128 128 128 128 128 128 128 128 128 128
128 128 128 128 128 128 128 128 128 128 128 128 128 128 128 128 128 128 128 128 128 131 167 184 183 182 181 180 179 178 177 175 174 173 172 171 169 168 167 165 164 163 161 160 159 157 156 154 153 151 150 148 146 145 143 142 140 138 137 135 133 131 130 128 128 129 34 20 21 21 21 22 22 22 23 23 24 24 25 25 25 26 27 27 28 28 29 29 30 31 32 33 34 34 35 36 37 38 39 40 42 43 44 46 47 49 51 53 55 56 59 61 64 66 69 72 76 79 83 87 91 95 100 104 109 115 120 125 128 128 128 128 128 128 128 128 128 128 128 128 128 128 128 128 128 128 128 128 128 131 167 184 183 182 181 180 179 178 177 175 174 173 172 171 169 168 167 165 164 163 161 160 159 157 156 154 153 151 150 148 146 145 143 142 140 138 137 135 133 131 130 128 127 127 127 127 127 127 127 127 127 127 127 127 127 127 127 127 127 127 127 127 127 127 127 127 127 127 127 127 127 127 127 127 127 0 0 0 0 0 0 0 0 0 0 0 0 0 0 0 0 0 0 0 0 0 0 0 0 0 0 0 0 0 0 0 0 0 0 0 0 0 0 0 0 0 0 0 0 0 0 0 0 0 0 0 0 0 0 0 0 0 0 0 0 0 127 127 127 127 127 127 127 127 127 127 127 127 127 127 127 127 127 127 127 127 127 127 127 127 127 127 127 127 127 127 127 127 127 127 127 127 123 122 120 118 117 115 114 112 110 109 107 105 104 102 101 99 98 96 95 94 92 91 89 88 87 86 84 83 82 81 80 79 77 76 75 74 73 73 78 102 124 128 128 128 128 128 128 128 128 128 128 128 128 128 128 128 128 128 128 128 128 128 130 135 140 146 151 155 160 164 168 172 176 179 183 186 189 191 194 196 198 200 202 204 206 208 209 211 212 213 214 216 217 218 219 220 221 222 222 223 224 225 225 226 227 227 228 228 229 229 230 230 231 231 232 232 232 233 233 234 234 234 235 226 151 129 127 125 123 122 120 118 117 115 114 112 110 109 107 105 104 102 101 99 98 96 95 94 92 91 89 88 87 86 84 83 82 81 80 79 77 76 75 74 73 73 78 102 124 128 128 128 128 128 128 128 128 128 128 128 128 128 128 128 128 128 128 128 128 128
128 128 128 128 128 128 128 128 128 128 128 128 128 128 128 128 128 128 128 128 128 128 129 157 181 181 180 179 178 177 176 175 174 172 171 170 169 167 166 165 164 162 161 159 158 156 155 154 152 151 149 148 146 144 143 141 140 138 137 135 133 132 130 128 128 116 20 19 20 20 20 20 21 21 21 22 22 23 23 24 24 25 25 26 26 27 27 28 29 29 30 31 32 32 33 34 35 36 37 38 39 41 42 44 45 46 48 50 52 54 56 59 61 64 67 70 73 77 80 85 89 93 98 103 108 114 119 125 128 128 128 128 128 128 128 128 128 128 128 128 128 128 128 128 128 128 128 128 128 128 129 157 181 181 180 179 178 177 176 175 174 172 171 170 169 167 166 165 164 162 161 159 158 156 155 154 152 151 149 148 146 144 143 141 140 138 137 135 133 132 130 128 127 127 127 127 127 127 127 127 127 127 127 127 127 127 127 127 127 127 127 127 127 127 127 127 127 127 127 127 127 127 127 127 127 0 0 0 0 0 0 0 0 0 0 0 0 0 0 0 0 0 0 0 0 0 0 0 0 0 0 0 0 0 0 0 0 0 0 0 0 0 0 0 0 0 0 0 0 0 0 0 0 0 0 0 0 0 0 0 0 0 0 0 0 0 127 127 127 127 127 127 127 127 127 127 127 127 127 127 127 127 127 127 127 127 127 127 127 127 127 127 127 127 127 127 127 127 127 127 127 127 123 122 120 119 117 115 114 112 110 109 107 106 104 103 101 100 99 97 96 94 93 91 90 89 88 86 85 84 83 81 80 79 78 77 76 75 75 82 109 125 128 128 128 128 128 128 128 128 128 128 128 128 128 128 128 128 128 128 128 128 128 128 130 136 141 147 152 157 162 166 170 174 178 182 185 188 191 194 197 199 201 203 205 207 209 210 212 213 214 216 217 218 219 220 221 222 223 224 224 225 226 226 227 228 228 229 229 230 231 231 231 232 232 233 233 234 234 234 235 235 235 236 236 231 173 132 127 125 123 122 120 119 117 115 114 112 110 109 107 106 104 103 101 100 99 97 96 94 93 91 90 89 88 86 85 84 83 81 80 79 78 77 76 75 75 82 109 125 128 128 128 128 128 128 128 128 128 128 128 128 128 128 128 128 128 128 128 128 128 128
128 128 128 128 128 128 128 128 128 128 128 128 128 128 128 128 128 128 128 128 128 128 128 128 146 177 179 178 177 176 175 174 173 172 171 169 168 167 166 164 163 161 160 159 157 156 155 153 152 150 149 147 145 144 143 141 140 138 136 135 133 132 130 128 128 100 18 18 18 18 19 19 19 20 20 21 21 21 22 22 22 23 23 24 24 25 26 26 27 28 28 29 30 30 31 32 33 34 35 36 37 38 40 41 42 44 45 47 49 51 53 56 58 61 63 67 70 74 78 82 86 91 96 101 107 113 119 125 128 128 128 128 128 128 128 128 128 128 128 128 128 128 128 128 128 128 128 128 128 128 128 128 146 177 179 178 177 176 175 174 173 172 171 169 168 167 166 164 163 161 160 159 157 156 155 153 152 150 149 147 145 144 143 141 140 138 136 135 133 132 130 128 127 127 127 127 127 127 127 127 127 127 127 127 127 127 127 127 127 127 127 127 127 127 127 127 127 127 127 127 127 127 127 127 127 0 0 0 0 0 0 0 0 0 0 0 0 0 0 0 0 0 0 0 0 0 0 0 0 0 0 0 0 0 0 0 0 0 0 0 0 0 0 0 0 0 0 0 0 0 0 0 0 0 0 0 0 0 0 0 0 0 0 0 0 0 127 127 127 127 127 127 127 127 127 127 127 127 127 127 127 127 127 127 127 127 127 127 127 127 127 127 127 127 127 127 127 127 127 127 127 127 123 122 120 119 117 115 114 112 111 110 108 106 105 103 102 100 99 98 96 95 93 92 91 90 88 87 86 85 84 82 81 80 79 78 77 78 89 116 126 128 128 128 128 128 128 128 128 128 128 128 128 128 128 128 128 128 128 128 128 128 128 128 131 137 142 148 154 159 164 169 173 177 181 185 188 191 194 197 199 202 204 206 208 210 211 213 214 216 217 218 219 220 221 222 223 224 225 226 226 227 228 228 229 229 230 231 231 231 232 232 233 233 234 234 234 235 235 236 236 236 237 237 237 234 194 135 127 125 123 122 120 119 117 115 114 112 111 110 108 106 105 103 102 100 99 98 96 95 93 92 91 90 88 87 86 85 84 82 81 80 79 78 77 78 89 116 126 128 128 128 128 128 128 128 128 128 128 128 128 128 128 128 128 128 128 128 128 128 128 128
128 128 128 128 128 128 128 128 128 128 128 128 128 128 128 128 128 128 128 128 128 128 128 128 128 136 168 178 176 175 174 173 172 171 170 169 167 166 165 164 162 161 160 158 157 156 154 153 151 150 148 147 145 144 142 141 139 138 136 135 133 131 130 128 128 81 16 16 17 17 17 18 18 18 19 19 19 20 20 20 21 21 22 22 23 23 24 24 25 25 26 27 28 28 29 30 31 31 33 34 35 36 37 38 40 41 43 44 46 48 51 53 55 58 61 64 67 71 75 79 84 89 94 99 105 111 118 124 128 128 128 128 128 128 128 128 128 128 128 128 128 128 128 128 128 128 128 128 128 128 128 128 128 136 168 178 176 175 174 173 172 171 170 169 167 166 165 164 162 161 160 158 157 156 154 153 151 150 148 147 145 144 142 141 139 138 136 135 133 131 130 128 127 127 127 127 127 127 127 127 127 127 127 127 127 127 127 127 127 127 127 127 127 127 127 127 127 127 127 127 127 127 127 127 127 0 0 0 0 0 0 0 0 0 0 0 0 0 0 0 0 0 0 0 0 0 0 0 0 0 0 0 0 0 0 0 0 0 0 0 0 0 0 0 0 0 0 0 0 0 0 0 0 0 0 0 0 0 0 0 0 0 0 0 0 0 127 127 127 127 127 127 127 127 127 127 127 127 127 127 127 127 127 127 127 127 127 127 127 127 127 127 127 127 127 127 127 127 127 127 127 127 123 122 120 119 117 116 114 113 111 110 108 107 105 104 102 101 100 98 97 95 94 93 91 90 89 88 87 85 84 83 82 81 80 79 82 98 121 127 128 128 128 128 128 128 128 128 128 128 128 128 128 128 128 128 128 128 128 128 128 128 128 128 131 137 144 150 156 161 166 171 176 180 184 188 191 195 197 200 202 205 207 209 211 212 214 215 217 218 219 220 221 222 223 224 225 226 227 228 228 229 229 230 231 231 232 232 233 233 234 234 235 235 235 236 236 236 237 237 237 238 238 238 238 237 212 138 127 125 123 122 120 119 117 116 114 113 111 110 108 107 105 104 102 101 100 98 97 95 94 93 91 90 89 88 87 85 84 83 82 81 80 79 82 98 121 127 128 128 128 128 128 128 128 128 128 128 128 128 128 128 128 128 128 128 128 128 128 128 128 128
128 128 128 128 128 128 128 128 128 128 128 128 128 128 128 128 128 128 128 128 128 128 128 128 128 128 130 155 175 175 173 173 171 170 169 168 167 165 164 163 162 160 159 158 156 155 154 152 151 149 148 146 145 144 142 140 139 138 136 135 133 131 130 128 128 63 15 15 15 16 16 16 17 17 17 18 18 18 18 19 19 20 20 20 21 22 22 23 23 24 24 25 25 26 27 28 29 29 30 31 32 33 34 36 37 38 40 42 43 45 47 49 52 54 57 60 64 67 72 76 81 86 91 97 104 110 117 124 128 128 128 128 128 128 128 128 128 128 128 128 128 128 128 128 128 128 128 128 128 128 128 128 128 128 130 155 175 175 173 173 171 170 169 168 167 165 164 163 162 160 159 158 156 155 154 152 151 149 148 146 145 144 142 140 139 138 136 135 133 131 130 128 127 127 127 127 127 127 127 127 127 127 127 127 127 127 127 127 127 127 127 127 127 127 127 127 127 127 127 127 127 127 127 127 127 0 0 0 0 0 0 0 0 0 0 0 0 0 0 0 0 0 0 0 0 0 0 0 0 0 0 0 0 0 0 0 0 0 0 0 0 0 0 0 0 0 0 0 0 0 0 0 0 0 0 0 0 0 0 0 0 0 0 0 0 0 127 127 127 127 127 127 127 127 127 127 127 127 127 127 127 127 127 127 127 127 127 127 127 127 127 127 127 127 127 127 127 127 127 127 127 127 124 122 120 119 117 116 115 113 111 110 109 107 106 104 103 101 100 99 97 96 95 93 92 91 89 88 87 86 85 84 83 81 82 88 109 125 128 128 128 128 128 128 128 128 128 128 128 128 128 128 128 128 128 128 128 128 128 128 128 128 128 128 131 138 145 152 158 164 169 174 179 183 187 191 195 198 201 203 205 208 210 212 213 215 217 218 219 220 222 223 224 225 226 227 227 228 229 229 230 231 231 232 233 233 234 234 234 235 235 236 236 237 237 237 238 238 238 238 239 239 239 239 240 239 226 143 127 125 124 122 120 119 117 116 115 113 111 110 109 107 106 104 103 101 100 99 97 96 95 93 92 91 89 88 87 86 85 84 83 81 82 88 109 125 128 128 128 128 128 128 128 128 128 128 128 128 128 128 128 128 128 128 128 128 128 128 128 128 128 128
128 128 128 128 128 128 128 128 128 128 128 128 128 128 128 128 128 128 128 128 128 128 128 128 128 128 128 128 140 166 173 172 171 170 168 167 166 165 164 162 161 160 159 157 156 155 153 152 150 149 148 146 145 143 142 140 139 137 136 134 133 131 130 128 130 25 14 14 14 14 15 15 15 16 16 16 16 17 17 17 18 18 19 19 19 20 20 20 21 22 22 23 23 24 25 25 26 27 28 29 30 31 32 33 34 36 37 39 40 42 44 46 48 51 54 57 60 64 68 72 77 83 88 95 101 109 116 124 128 128 128 128 128 128 128 128 128 128 128 128 128 128 128 128 128 128 128 128 128 128 128 128 128 128 128 128 140 166 173 172 171 170 168 167 166 165 164 162 161 160 159 157 156 155 153 152 150 149 148 146 145 143 142 140 139 137 136 134 133 131 130 128 127 127 127 127 127 127 127 127 127 127 127 127 127 127 127 127 127 127 127 127 127 127 127 127 127 127 127 127 127 127 127 127 127 0 0 0 0 0 0 0 0 0 0 0 0 0 0 0 0 0 0 0 0 0 0 0 0 0 0 0 0 0 0 0 0 0 0 0 0 0 0 0 0 0 0 0 0 0 0 0 0 0 0 0 0 0 0 0 0 0 0 0 0 0 127 127 127 127 127 127 127 127 127 127 127 127 127 127 127 127 127 127 127 127 127 127 127 127 127 127 127 127 127 127 127 127 127 127 127 127 124 122 121 119 118 116 115 113 112 110 109 108 106 105 103 102 100 99 98 96 95 94 92 91 90 89 88 87 86 84 84 86 98 119 126 128 128 128 128 128 128 128 128 128 128 128 128 128 128 128 128 128 128 128 128 128 128 128 128 128 128 128 132 139 147 154 160 167 173 178 183 187 191 195 198 201 204 207 209 211 213 215 217 218 220 221 222 223 224 225 226 227 228 229 230 230 231 232 232 233 233 234 234 235 235 236 236 237 237 237 238 238 238 239 239 239 240 240 240 240 241 241 241 241 234 154 128 125 124 122 121 119 118 116 115 113 112 110 109 108 106 105 103 102 100 99 98 96 95 94 92 91 90 89 88 87 86 84 84 86 98 119 126 128 128 128 128 128 128 128 128 128 128 128 128 128 128 128 128 128 128 128 128 128 128 128 128 128 128 128
128 128 128 128 128 128 128 128 128 128 128 128 128 128 128 128 128 128 128 128 128 128 128 128 128 128 128 128 128 130 151 169 170 169 168 167 165 164 163 162 161 159 158 157 155 154 153 151 150 149 147 146 145 143 142 140 139 137 136 134 133 131 130 128 116 14 12 13 13 13 13 14 14 14 14 15 15 15 16 16 16 16 17 17 17 18 18 19 19 19 20 21 21 22 22 23 24 24 25 26 27 28 29 30 31 32 34 35 37 39 40 42 45 47 50 53 56 60 64 68 73 79 85 92 99 106 115 123 128 128 128 128 128 128 128 128 128 128 128 128 128 128 128 128 128 128 128 128 128 128 128 128 128 128 128 128 128 130 151 169 170 169 168 167 165 164 163 162 161 159 158 157 155 154 153 151 150 149 147 146 145 143 142 140 139 137 136 134 133 131 130 128 127 127 127 127 127 127 127 127 127 127 127 127 127 127 127 127 127 127 127 127 127 127 127 127 127 127 127 127 127 127 127 127 127 0 0 0 0 0 0 0 0 0 0 0 0 0 0 0 0 0 0 0 0 0 0 0 0 0 0 0 0 0 0 0 0 0 0 0 0 0 0 0 0 0 0 0 0 0 0 0 0 0 0 0 0 0 0 0 0 0 0 0 0 0 127 127 127 127 127 127 127 127 127 127 127 127 127 127 127 127 127 127 127 127 127 127 127 127 127 127 127 127 127 127 127 127 127 127 127 127 124 122 121 119 118 116 115 113 112 111 109 108 106 105 104 102 101 100 98 97 96 94 93 92 91 90 89 87 86 87 93 111 125 127 128 128 128 128 128 128 128 128 128 128 128 128 128 128 128 128 128 128 128 128 128 128 128 128 128 128 128 128 132 140 148 156 163 170 176 182 187 191 195 199 202 205 208 210 213 215 216 218 220 221 222 224 225 226 227 228 229 230 231 231 232 233 233 234 234 235 236 236 236 237 237 238 238 238 239 239 239 240 240 240 241 241 241 241 241 242 242 242 242 243 238 172 131 125 124 122 121 119 118 116 115 113 112 111 109 108 106 105 104 102 101 100 98 97 96 94 93 92 91 90 89 87 86 87 93 111 125 127 128 128 128 128 128 128 128 128 128 128 128 128 128 128 128 128 128 128 128 128 128 128 128 128 128 128 128 128
128 128 128 128 128 128 128 128 128 128 128 128 128 128 128 128 128 128 128 128 128 128 128 128 128 128 128 128 128 128 128 134 156 168 167 166 165 164 163 161 160 159 157 156 155 154 152 151 150 148 147 145 144 143 141 140 138 137 136 134 132 131 130 128 114 11 11 12 12 12 12 12 12 13 13 13 13 14 14 14 14 15 15 15 16 16 17 17 17 18 18 19 19 20 20 21 22 22 23 24 24 25 26 27 28 29 31 32 33 35 37 39 41 43 46 48 52 55 59 64 69 75 81 88 96 104 113 123 128 128 128 128 128 128 128 128 128 128 128 128 128 128 128 128 128 128 128 128 128 128 128 128 128 128 128 128 128 128 128 134 156 168 167 166 165 164 163 161 160 159 157 156 155 154 152 151 150 148 147 145 144 143 141 140 138 137 136 134 132 131 130 128 127 127 127 127 127 127 127 127 127 127 127 127 127 127 127 127 127 127 127 127 127 127 127 127 127 127 127 127 127 127 127 127 127 0 0 0 0 0 0 0 0 0 0 0 0 0 0 0 0 0 0 0 0 0 0 0 0 0 0 0 0 0 0 0 0 0 0 0 0 0 0 0 0 0 0 0 0 0 0 0 0 0 0 0 0 0 0 0 0 0 0 0 0 0 127 127 127 127 127 127 127 127 127 127 127 127 127 127 127 127 127 127 127 127 127 127 127 127 127 127 127 127 127 127 127 127 127 127 127 127 124 122 121 120 118 117 115 114 112 111 109 108 107 105 104 103 101 100 99 97 96 95 94 93 91 90 89 90 93 107 122 127 128 128 128 128 128 128 128 128 128 128 128 128 128 128 128 128 128 128 128 128 128 128 128 128 128 128 128 128 128 128 133 142 151 159 167 174 180 186 191 196 200 203 206 209 212 214 216 218 220 222 223 224 226 227 228 229 230 231 231 232 233 234 234 235 235 236 236 237 237 238 238 239 239 239 240 240 240 241 241 241 241 242 242 242 242 243 243 243 243 243 244 244 240 186 133 125 124 122 121 120 118 117 115 114 112 111 109 108 107 105 104 103 101 100 99 97 96 95 94 93 91 90 89 90 93 107 122 127 128 128 128 128 128 128 128 128 128 128 128 128 128 128 128 128 128 128 128 128 128 128 128 128 128 128 128 128 128 128
128 128 128 128 128 128 128 128 128 128 128 128 128 128 128 128 128 128 128 128 128 128 128 128 128 128 128 128 128 128 128 128 128 138 157 165 164 163 162 161 159 158 157 156 154 153 152 151 149 148 146 145 144 142 141 140 138 137 135 134 132 131 130 128 96 10 10 10 10 10 11 11 11 11 11 11 12 12 12 13 13 13 13 13 14 14 15 15 15 16 16 16 17 17 18 18 19 20 20 21 22 22 23 24 25 26 27 28 30 31 33 35 36 39 41 44 47 50 54 59 64 70 76 84 92 102 111 122 128 128 128 128 128 128 128 128 128 128 128 128 128 128 128 128 128 128 128 128 128 128 128 128 128 128 128 128 128 128 128 128 128 138 157 165 164 163 162 161 159 158 157 156 154 153 152 151 149 148 146 145 144 142 141 140 138 137 135 134 132 131 130 128 127 127 127 127 127 127 127 127 127 127 127 127 127 127 127 127 127 127 127 127 127 127 127 127 127 127 127 127 127 127 127 127 127 0 0 0 0 0 0 0 0 0 0 0 0 0 0 0 0 0 0 0 0 0 0 0 0 0 0 0 0 0 0 0 0 0 0 0 0 0 0 0 0 0 0 0 0 0 0 0 0 0 0 0 0 0 0 0 0 0 0 0 0 0 127 127 127 127 127 127 127 127 127 127 127 127 127 127 127 127 127 127 127 127 127 127 127 127 127 127 127 127 127 127 127 127 127 127 127 127 124 123 121 120 118 117 115 114 113 111 110 108 107 106 104 103 102 100 99 98 97 96 94 93 92 92 94 106 120 126 128 128 128 128 128 128 128 128 128 128 128 128 128 128 128 128 128 128 128 128 128 128 128 128 128 128 128 128 128 128 128 128 134 144 154 163 171 179 185 191 196 201 205 208 211 214 216 218 220 222 224 225 227 228 229 230 231 232 232 233 234 235 235 236 237 237 238 238 239 239 239 240 240 240 241 241 241 242 242 242 243 243 243 243 244 244 244 244 244 244 245 245 245 245 242 199 135 125 124 123 121 120 118 117 115 114 113 111 110 108 107 106 104 103 102 100 99 98 97 96 94 93 92 92 94 106 120 126 128 128 128 128 128 128 128 128 128 128 128 128 128 128 128 128 128 128 128 128 128 128 128 128 128 128 128 128 128 128 128 128
128 128 128 128 128 128 128 128 128 128 128 128 128 128 128 128 128 128 128 128 128 128 128 128 128 128 128 128 128 128 128 128 128 128 128 138 155 162 161 160 159 158 157 155 154 153 152 150 149 148 146 145 143 142 141 139 138 137 135 134 132 131 130 128 99 8 9 9 9 9 9 9 9 10 10 10 10 10 11 11 11 11 11 12 12 12 13 13 13 14 14 14 15 15 16 16 17 17 18 18 19 19 20 21 22 23 24 25 26 27 29 31 32 34 36 39 42 45 49 53 58 64 71 78 87 98 109 121 128 128 128 128 128 128 128 128 128 128 128 128 128 128 128 128 128 128 128 128 128 128 128 128 128 128 128 128 128 128 128 128 128 128 128 138 155 162 161 160 159 158 157 155 154 153 152 150 149 148 146 145 143 142 141 139 138 137 135 134 132 131 130 128 127 127 127 127 127 127 127 127 127 127 127 127 127 127 127 127 127 127 127 127 127 127 127 127 127 127 127 127 127 127 127 127 127 0 0 0 0 0 0 0 0 0 0 0 0 0 0 0 0 0 0 0 0 0 0 0 0 0 0 0 0 0 0 0 0 0 0 0 0 0 0 0 0 0 0 0 0 0 0 0 0 0 0 0 0 0 0 0 0 0 0 0 0 0 127 127 127 127 127 127 127 127 127 127 127 127 127 127 127 127 127 127 127 127 127 127 127 127 127 127 127 127 127 127 127 127 127 127 127 127 124 123 121 120 118 117 116 114 113 112 110 109 107 106 105 103 102 101 100 98 97 96 95 95 97 107 120 126 128 128 128 128 128 128 128 128 128 128 128 128 128 128 128 128 128 128 128 128 128 128 128 128 128 128 128 128 128 128 128 128 128 129 135 146 157 168 177 184 191 197 202 206 210 213 216 219 221 223 224 226 228 229 230 231 232 233 234 235 235 236 237 237 238 238 239 239 240 240 241 241 241 242 242 242 243 243 243 244 244 244 244 244 245 245 245 245 245 246 246 246 246 246 246 247 244 209 137 125 124 123 121 120 118 117 116 114 113 112 110 109 107 106 105 103 102 101 100 98 97 96 95 95 97 107 120 126 128 128 128 128 128 128 128 128 128 128 128 128 128 128 128 128 128 128 128 128 128 128 128 128 128 128 128 128 128 128 128 128 128 128
128 128 128 128 128 128 128 128 128 128 128 128 128 128 128 128 128 128 128 128 128 128 128 128 128 128 128 128 128 128 128 128 128 128 128 128 128 136 150 159 159 157 156 155 154 152 151 150 148 147 146 145 143 142 140 139 138 136 135 134 132 131 130 128 73 7 7 7 8 8 8 8 8 8 8 8 9 9 9 9 9 10 10 10 10 11 11 11 11 12 12 12 12 13 13 14 14 14 15 16 16 17 17 18 19 19 20 21 22 23 25 26 28 30 32 34 36 39 43 47 51 57 64 72 82 93 106 120 128 128 128 128 128 128 128 128 128 128 128 128 128 128 128 128 128 128 128 128 128 128 128 128 128 128 128 128 128 128 128 128 128 128 128 128 128 136 150 159 159 157 156 155 154 152 151 150 148 147 146 145 143 142 140 139 138 136 135 134 132 131 130 128 127 127 127 127 127 127 127 127 127 127 127 127 127 127 127 127 127 127 127 127 127 127 127 127 127 127 127 127 127 127 127 127 127 0 0 0 0 0 0 0 0 0 0 0 0 0 0 0 0 0 0 0 0 0 0 0 0 0 0 0 0 0 0 0 0 0 0 0 0 0 0 0 0 0 0 0 0 0 0 0 0 0 0 0 0 0 0 0 0 0 0 0 0 0 127 127 127 127 127 127 127 127 127 127 127 127 127 127 127 127 127 127 127 127 127 127 127 127 127 127 127 127 127 127 127 127 127 127 127 127 124 123 121 120 118 117 116 114 113 112 111 109 108 106 105 104 102 101 100 99 99 99 100 110 122 126 127 128 128 128 128 128 128 128 128 128 128 128 128 128 128 128 128 128 128 128 128 128 128 128 128 128 128 128 128 128 128 128 128 128 128 129 136 149 162 174 183 191 198 204 209 213 216 219 222 224 226 227 229 230 231 233 234 235 236 236 237 238 238 239 240 240 240 241 241 242 242 243 243 243 244 244 244 244 245 245 245 245 245 246 246 246 246 246 246 247 247 247 247 247 247 248 248 248 246 220 139 125 124 123 121 120 118 117 116 114 113 112 111 109 108 106 105 104 102 101 100 99 99 99 100 110 122 126 127 128 128 128 128 128 128 128 128 128 128 128 128 128 128 128 128 128 128 128 128 128 128 128 128 128 128 128 128 128 128 128 128 128 128 128
128 128 128 128 128 128 128 128 128 128 128 128 128 128 128 128 128 128 128 128 128 128 128 128 128 128 128 128 128 128 128 128 128 128 128 128 128 128 128 132 143 153 156 154 153 152 151 150 148 147 146 144 143 142 140 139 138 136 135 134 132 131 129 128 73 6 6 6 6 6 6 6 7 7 7 7 7 7 8 8 8 8 8 8 9 8 9 9 9 10 10 10 10 11 11 11 12 12 12 13 13 13 14 15 15 16 17 18 19 19 21 22 23 25 26 28 30 33 36 40 44 49 56 64 74 86 101 119 128 128 128 128 128 128 128 128 128 128 128 128 128 128 128 128 128 128 128 128 128 128 128 128 128 128 128 128 128 128 128 128 128 128 128 128 128 128 128 132 143 153 156 154 153 152 151 150 148 147 146 144 143 142 140 139 138 136 135 134 132 131 129 128 127 127 127 127 127 127 127 127 127 127 127 127 127 127 127 127 127 127 127 127 127 127 127 127 127 127 127 127 127 127 127 127 127 0 0 0 0 0 0 0 0 0 0 0 0 0 0 0 0 0 0 0 0 0 0 0 0 0 0 0 0 0 0 0 0 0 0 0 0 0 0 0 0 0 0 0 0 0 0 0 0 0 0 0 0 0 0 0 0 0 0 0 0 0 127 127 127 127 127 127 127 127 127 127 127 127 127 127 127 127 127 127 127 127 127 127 127 127 127 127 127 127 127 127 127 127 127 127 127 127 124 123 121 120 119 117 116 115 113 112 111 109 108 107 106 104 103 102 102 102 106 116 124 126 128 128 128 128 128 128 128 128 128 128 128 128 128 128 128 128 128 128 128 128 128 128 128 128 128 128 128 128 128 128 128 128 128 128 128 128 128 129 137 154 169 181 191 199 206 211 215 219 222 225 227 229 231 232 233 235 236 237 237 238 239 240 240 241 241 242 242 243 243 244 244 244 245 245 245 245 246 246 246 246 247 247 247 247 247 247 248 248 248 248 248 248 248 248 249 249 249 249 249 249 247 225 139 125 124 123 121 120 119 117 116 115 113 112 111 109 108 107 106 104 103 102 102 102 106 116 124 126 128 128 128 128 128 128 128 128 128 128 128 128 128 128 128 128 128 128 128 128 128 128 128 128 128 128 128 128 128 128 128 128 128 128 128 128 128 128
128 128 128 128 128 128 128 128 128 128 128 128 128 128 128 128 128 128 128 128 128 128 128 128 128 128 128 128 128 128 128 128 128 128 128 128 128 128 128 128 128 128 135 144 150 152 150 149 148 146 145 144 143 141 140 139 138 136 135 133 132 131 130 128 77 4 5 5 5 5 5 5 5 5 5 5 5 6 6 6 6 6 6 6 6 7 7 7 7 7 8 8 8 8 8 9 9 9 10 10 10 11 11 12 12 13 13 14 14 15 16 17 18 19 21 22 24 26 29 32 36 40 46 54 64 77 95 116 128 128 128 128 128 128 128 128 128 128 128 128 128 128 128 128 128 128 128 128 128 128 128 128 128 128 128 128 128 128 128 128 128 128 128 128 128 128 128 128 128 128 135 144 150 152 150 149 148 146 145 144 143 141 140 139 138 136 135 133 132 131 130 128 127 127 127 127 127 127 127 127 127 127 127 127 127 127 127 127 127 127 127 127 127 127 127 127 127 127 127 127 127 127 127 127 127 0 0 0 0 0 0 0 0 0 0 0 0 0 0 0 0 0 0 0 0 0 0 0 0 0 0 0 0 0 0 0 0 0 0 0 0 0 0 0 0 0 0 0 0 0 0 0 0 0 0 0 0 0 0 0 0 0 0 0 0 0 127 127 127 127 127 127 127 127 127 127 127 127 127 127 127 127 127 127 127 127 127 127 127 127 127 127 127 127 127 127 127 127 127 127 127 127 124 123 121 120 119 117 116 115 113 112 111 110 108 107 107 106 106 109 115 122 126 127 128 128 128 128 128 128 128 128 128 128 128 128 128 128 128 128 128 128 128 128 128 128 128 128 128 128 128 128 128 128 128 128 128 128 128 128 128 128 128 129 140 161 178 191 201 209 215 220 223 226 229 231 233 234 236 237 238 239 240 241 241 242 242 243 244 244 244 245 245 246 246 246 247 246 247 247 247 247 247 248 248 248 248 249 249 249 249 249 249 249 249 249 250 250 250 250 250 250 250 250 250 251 249 230 140 126 124 123 121 120 119 117 116 115 113 112 111 110 108 107 107 106 106 109 115 122 126 127 128 128 128 128 128 128 128 128 128 128 128 128 128 128 128 128 128 128 128 128 128 128 128 128 128 128 128 128 128 128 128 128 128 128 128 128 128 128 128 128
128 128 128 128 128 128 128 128 128 128 128 128 128 128 128 128 128 128 128 128 128 128 128 128 128 128 128 128 128 128 128 128 128 128 128 128 128 128 128 128 128 128 128 128 128 134 140 145 147 146 145 144 142 141 140 139 137 136 135 133 132 131 129 128 72 3 3 3 3 3 4 4 4 4 4 4 4 4 4 4 4 4 4 5 5 5 5 5 5 5 5 6 6 6 6 6 6 7 7 7 7 8 8 8 9 9 9 10 10 11 12 12 13 14 15 16 17 19 21 23 26 30 35 41 51 64 84 112 128 128 128 128 128 128 128 128 128 128 128 128 128 128 128 128 128 128 128 128 128 128 128 128 128 128 128 128 128 128 128 128 128 128 128 128 128 128 128 128 128 128 128 128 128 134 140 145 147 146 145 144 142 141 140 139 137 136 135 133 132 131 129 128 127 127 127 127 127 127 127 127 127 127 127 127 127 127 127 127 127 127 127 127 127 127 127 127 127 127 127 127 127 127 127 127 127 0 0 0 0 0 0 0 0 0 0 0 0 0 0 0 0 0 0 0 0 0 0 0 0 0 0 0 0 0 0 0 0 0 0 0 0 0 0 0 0 0 0 0 0 0 0 0 0 0 0 0 0 0 0 0 0 0 0 0 0 0 127 127 127 127 127 127 127 127 127 127 127 127 127 127 127 127 127 127 127 127 127 127 127 127 127 127 127 127 127 127 127 127 127 127 127 127 124 123 122 120 119 117 116 115 114 112 112 111 110 110 114 118 123 126 127 128 128 128 128 128 128 128 128 128 128 128 128 128 128 128 128 128 128 128 128 128 128 128 128 128 128 128 128 128 128 128 128 128 128 128 128 128 128 128 128 128 128 129 146 172 192 205 214 220 225 229 232 234 236 238 239 240 241 242 243 244 244 245 245 246 246 246 247 247 247 248 248 248 248 249 249 249 249 249 249 250 250 250 250 250 250 250 251 250 251 251 251 251 251 251 251 251 251 251 251 252 252 252 252 252 251 236 141 126 124 123 122 120 119 117 116 115 114 112 112 111 110 110 114 118 123 126 127 128 128 128 128 128 128 128 128 128 128 128 128 128 128 128 128 128 128 128 128 128 128 128 128 128 128 128 128 128 128 128 128 128 128 128 128 128 128 128 128 128 128 128
128 128 128 128 128 128 128 128 128 128 128 128 128 128 128 128 128 128 128 128 128 128 128 128 128 128 128 128 128 128 128 128 128 128 128 128 128 128 128 128 128 128 128 128 128 128 128 128 129 133 137 139 141 141 140 138 137 136 135 133 132 131 129 128 53 2 2 2 2 2 2 2 2 2 2 2 2 3 2 2 3 3 3 3 3 3 3 3 3 3 3 3 4 4 4 4 4 4 4 4 5 5 5 5 5 5 6 6 6 7 7 7 8 8 9 10 10 12 13 14 16 19 22 27 34 45 65 103 128 128 128 128 128 128 128 128 128 128 128 128 128 128 128 128 128 128 128 128 128 128 128 128 128 128 128 128 128 128 128 128 128 128 128 128 128 128 128 128 128 128 128 128 128 128 128 128 129 133 137 139 141 141 140 138 137 136 135 133 132 131 129 128 127 127 127 127 127 127 127 127 127 127 127 127 127 127 127 127 127 127 127 127 127 127 127 127 127 127 127 127 127 127 127 127 127 0 0 0 0 0 0 0 0 0 0 0 0 0 0 0 0 0 0 0 0 0 0 0 0 0 0 0 0 0 0 0 0 0 0 0 0 0 0 0 0 0 0 0 0 0 0 0 0 0 0 0 0 0 0 0 0 0 0 0 0 0 127 127 127 127 127 127 127 127 127 127 127 127 127 127 127 127 127 127 127 127 127 127 127 127 127 127 127 127 127 127 127 127 127 127 127 127 124 123 122 120 119 118 117 116 115 116 118 120 123 126 127 127 128 128 128 128 128 128 128 128 128 128 128 128 128 128 128 128 128 128 128 128 128 128 128 128 128 128 128 128 128 128 128 128 128 128 128 128 128 128 128 128 128 128 128 128 128 131 159 193 211 222 229 234 236 239 241 242 244 244 245 246 247 247 248 248 248 249 249 249 250 250 250 250 250 251 251 251 251 251 251 251 252 252 252 252 252 252 252 252 252 252 252 252 252 252 252 253 253 253 253 253 253 253 253 253 253 253 253 253 252 241 142 125 124 123 122 120 119 118 117 116 115 116 118 120 123 126 127 127 128 128 128 128 128 128 128 128 128 128 128 128 128 128 128 128 128 128 128 128 128 128 128 128 128 128 128 128 128 128 128 128 128 128 128 128 128 128 128 128 128 128 128 128 128 128
128 128 128 128 128 128 128 128 128 128 128 128 128 128 128 128 128 128 128 128 128 128 128 128 128 128 128 128 128 128 128 128 128 128 128 128 128 128 128 128 128 128 128 128 128 128 128 128 128 128 128 128 128 129 131 132 133 133 133 132 131 130 129 128 48 40 40 40 40 40 40 40 40 40 40 40 40 40 40 40 40 40 40 40 40 40 40 40 40 40 40 40 40 40 40 40 40 40 40 40 40 40 40 40 40 40 40 40 40 40 40 40 40 40 41 41 41 41 41 41 41 41 42 42 43 45 51 81 128 128 128 128 128 128 128 128 128 128 128 128 128 128 128 128 128 128 128 128 128 128 128 128 128 128 128 128 128 128 128 128 128 128 128 128 128 128 128 128 128 128 128 128 128 128 128 128 128 128 128 128 128 129 131 132 133 133 133 132 131 130 129 128 127 127 127 127 127 127 127 127 127 127 127 127 127 127 127 127 127 127 127 127 127 127 127 127 127 127 127 127 127 127 127 127 127 0 0 0 0 0 0 0 0 0 0 0 0 0 0 0 0 0 0 0 0 0 0 0 0 0 0 0 0 0 0 0 0 0 0 0 0 0 0 0 0 0 0 0 0 0 0 0 0 0 0 0 0 0 0 0 0 0 0 0 0 0 127 127 127 127 127 127 127 127 127 127 127 127 127 127 127 127 127 127 127 127 127 127 127 127 127 127 127 127 127 127 127 127 127 127 127 127 125 125 124 124 124 124 124 125 126 127 127 127 128 128 128 128 128 128 128 128 128 128 128 128 128 128 128 128 128 128 128 128 128 128 128 128 128 128 128 128 128 128 128 128 128 128 128 128 128 128 128 128 128 128 128 128 128 128 128 128 128 134 182 214 226 231 234 235 236 237 238 238 239 239 240 240 241 241 241 241 241 241 242 242 242 242 242 242 242 242 242 242 242 242 242 243 242 242 243 243 243 243 243 243 243 243 243 243 243 243 243 243 243 243 243 243 243 243 243 243 243 243 243 243 243 234 142 126 125 125 124 124 124 124 124 125 126 127 127 127 128 128 128 128 128 128 128 128 128 128 128 128 128 128 128 128 128 128 128 128 128 128 128 128 128 128 128 128 128 128 128 128 128 128 128 128 128 128 128 128 128 128 128 128 128 128 128 128 128 128
128 128 128 128 128 128 128 128 128 128 128 128 128 128 128 128 128 128 128 128 128 128 128 128 128 128 128 128 128 128 128 128 128 128 128 128 128 128 128 128 128 128 128 128 128 128 128 128 128 128 128 128 128 127 125 124 123 123 123 123 124 125 126 127 250 252 252 252 252 252 252 252 252 252 252 252 252 252 252 252 252 252 252 252 252 252 252 252 252 252 252 252 251 251 252 251 251 251 251 251 251 251 251 251 251 251 251 251 250 250 250 250 250 250 250 249 249 249 248 248 247 246 245 244 241 237 227 192 128 128 128 128 128 128 128 128 128 128 128 128 128 128 128 128 128 128 128 128 128 128 128 128 128 128 128 128 128 128 128 128 128 128 128 128 128 128 128 128 128 128 128 128 128 128 128 128 128 128 128 128 128 127 125 124 123 123 123 123 124 125 126 127 127 127 127 127 127 127 127 127 127 127 127 127 127 127 127 127 127 127 127 127 127 127 127 127 127 127 127 127 127 127 127 127 127 0 0 0 0 0 0 0 0 0 0 0 0 0 0 0 0 0 0 0 0 0 0 0 0 0 0 0 0 0 0 0 0 0 0 0 0 0 0 0 0 0 0 0 0 0 0 0 0 0 0 0 0 0 0 0 0 0 0 0 0 0 127 127 127 127 127 127 127 127 127 127 127 127 127 127 127 127 127 127 127 127 127 127 127 127 127 127 127 127 127 127 127 127 127 127 127 127 130 131 131 132 132 132 132 131 130 129 129 129 128 128 128 128 128 128 128 128 128 128 128 128 128 128 128 128 128 128 128 128 128 128 128 128 128 128 128 128 128 128 128 128 128 128 128 128 128 128 128 128 128 128 128 128 128 128 128 128 128 126 101 88 87 87 87 87 87 87 88 88 88 88 88 88 88 88 88 88 88 88 88 88 88 88 88 88 88 88 88 88 88 88 88 89 88 88 89 89 89 89 89 89 89 89 89 89 89 89 89 89 89 89 89 89 89 89 89 89 89 89 89 89 89 95 125 129 130 131 131 132 132 132 132 131 130 129 129 129 128 128 128 128 128 128 128 128 128 128 128 128 128 128 128 128 128 128 128 128 128 128 128 128 128 128 128 128 128 128 128 128 128 128 128 128 128 128 128 128 128 128 128 128 128 128 128 128 128 128
128 128 128 128 128 128 128 128 128 128 128 128 128 128 128 128 128 128 128 128 128 128 128 128 128 128 128 128 128 128 128 128 128 128 128 128 128 128 128 128 128 128 128 128 128 128 128 128 127 124 120 117 115 114 115 117 118 119 120 122 123 124 125 127 248 253 253 253 253 253 253 253 253 253 253 253 253 253 253 252 252 252 252 252 252 252 252 252 252 252 252 252 252 252 251 251 251 251 251 251 251 250 250 250 250 250 249 249 249 248 248 248 247 247 246 245 244 244 242 241 239 236 234 229 222 211 192 155 128 128 128 128 128 128 128 128 128 128 128 128 128 128 128 128 128 128 128 128 128 128 128 128 128 128 128 128 128 128 128 128 128 128 128 128 128 128 128 128 128 128 128 128 128 128 128 128 127 124 120 117 115 114 115 117 118 119 120 122 123 124 125 127 127 127 127 127 127 127 127 127 127 127 127 127 127 127 127 127 127 127 127 127 127 127 127 127 127 127 127 127 127 127 127 127 127 0 0 0 0 0 0 0 0 0 0 0 0 0 0 0 0 0 0 0 0 0 0 0 0 0 0 0 0 0 0 0 0 0 0 0 0 0 0 0 0 0 0 0 0 0 0 0 0 0 0 0 0 0 0 0 0 0 0 0 0 0 127 127 127 127 127 127 127 127 127 127 127 127 127 127 127 127 127 127 127 127 127 127 127 127 127 127 127 127 127 127 127 127 127 127 127 127 131 132 133 135 136 137 138 139 140 140 139 137 134 131 130 129 129 128 128 128 128 128 128 128 128 128 128 128 128 128 128 128 128 128 128 128 128 128 128 128 128 128 128 128 128 128 128 128 128 128 128 128 128 128 128 128 128 128 128 128 128 126 102 68 48 37 30 26 23 20 18 18 17 15 15 14 13 13 13 12 12 12 12 11 11 11 11 11 11 11 10 10 10 10 10 10 10 10 9 9 9 9 9 9 9 9 9 9 9 9 8 8 9 8 8 8 8 8 8 8 8 8 8 8 16 63 124 129 131 132 133 135 136 137 138 139 140 140 139 137 134 131 130 129 129 128 128 128 128 128 128 128 128 128 128 128 128 128 128 128 128 128 128 128 128 128 128 128 128 128 128 128 128 128 128 128 128 128 128 128 128 128 128 128 128 128 128 128 128 128
128 128 128 128 128 128 128 128 128 128 128 128 128 128 128 128 128 128 128 128 128 128 128 128 128 128 128 128 128 128 128 128 128 128 128 128 128 128 128 128 128 128 128 128 128 124 118 113 108 109 110 111 112 114 115 116 117 119 120 122 123 124 126 127 242 252 252 252 252 252 252 251 251 251 251 251 251 251 251 251 251 251 250 251 250 250 250 250 250 250 250 249 249 249 249 249 249 248 248 248 248 247 247 247 246 246 246 245 245 244 244 243 242 241 240 239 238 236 234 232 229 225 220 214 205 192 172 144 128 128 128 128 128 128 128 128 128 128 128 128 128 128 128 128 128 128 128 128 128 128 128 128 128 128 128 128 128 128 128 128 128 128 128 128 128 128 128 128 128 128 128 128 128 124 118 113 108 109 110 111 112 114 115 116 117 119 120 122 123 124 126 127 127 127 127 127 127 127 127 127 127 127 127 127 127 127 127 127 127 127 127 127 127 127 127 127 127 127 127 127 127 127 127 127 127 0 0 0 0 0 0 0 0 0 0 0 0 0 0 0 0 0 0 0 0 0 0 0 0 0 0 0 0 0 0 0 0 0 0 0 0 0 0 0 0 0 0 0 0 0 0 0 0 0 0 0 0 0 0 0 0 0 0 0 0 0 127 127 127 127 127 127 127 127 127 127 127 127 127 127 127 127 127 127 127 127 127 127 127 127 127 127 127 127 127 127 127 127 127 127 127 127 131 132 133 135 136 137 139 140 141 142 144 144 145 145 144 140 135 130 129 129 128 128 128 128 128 128 128 128 128 128 128 128 128 128 128 128 128 128 128 128 128 128 128 128 128 128 128 128 128 128 128 128 128 128 128 128 128 128 128 128 128 127 111 85 65 52 42 35 30 26 23 21 19 17 16 15 14 13 12 12 11 10 10 9 9 9 8 8 8 7 7 7 7 6 6 6 6 6 6 5 5 5 5 5 5 5 5 4 4 4 4 4 4 4 4 4 4 4 4 4 3 3 3 3 18 75 125 129 131 132 133 135 136 137 139 140 141 142 144 144 145 145 144 140 135 130 129 129 128 128 128 128 128 128 128 128 128 128 128 128 128 128 128 128 128 128 128 128 128 128 128 128 128 128 128 128 128 128 128 128 128 128 128 128 128 128 128 128 128 128
128 128 128 128 128 128 128 128 128 128 128 128 128 128 128 128 128 128 128 128 128 128 128 128 128 128 128 128 128 128 128 128 128 128 128 128 128 128 128 128 128 128 124 114 107 104 105 106 107 108 110 111 112 113 115 116 117 119 120 121 123 124 126 127 235 250 251 250 250 250 250 250 250 250 250 250 249 249 249 249 249 249 249 249 249 248 248 248 248 247 247 247 247 247 246 247 246 246 246 245 245 244 244 244 243 242 242 241 241 240 239 238 237 236 234 233 231 229 226 223 220 215 209 201 191 178 160 139 128 128 128 128 128 128 128 128 128 128 128 128 128 128 128 128 128 128 128 128 128 128 128 128 128 128 128 128 128 128 128 128 128 128 128 128 128 128 128 128 128 128 124 114 107 104 105 106 107 108 110 111 112 113 115 116 117 119 120 121 123 124 126 127 127 127 127 127 127 127 127 127 127 127 127 127 127 127 127 127 127 127 127 127 127 127 127 127 127 127 127 127 127 127 127 127 127 0 0 0 0 0 0 0 0 0 0 0 0 0 0 0 0 0 0 0 0 0 0 0 0 0 0 0 0 0 0 0 0 0 0 0 0 0 0 0 0 0 0 0 0 0 0 0 0 0 0 0 0 0 0 0 0 0 0 0 0 0 127 127 127 127 127 127 127 127 127 127 127 127 127 127 127 127 127 127 127 127 127 127 127 127 127 127 127 127 127 127 127 127 127 127 127 127 131 132 133 135 136 138 139 140 141 143 144 145 146 148 149 149 150 148 143 136 131 129 128 128 128 128 128 128 128 128 128 128 128 128 128 128 128 128 128 128 128 128 128 128 128 128 128 128 128 128 128 128 128 128 128 128 128 128 128 128 128 127 115 95 78 64 54 46 40 36 32 29 26 24 22 21 19 18 17 16 15 14 14 13 13 12 12 11 11 10 10 10 9 9 9 8 8 8 8 8 7 7 7 7 7 6 6 6 6 6 6 6 6 5 5 5 5 5 5 5 5 5 5 5 20 79 125 130 131 132 133 135 136 138 139 140 141 143 144 145 146 148 149 149 150 148 143 136 131 129 128 128 128 128 128 128 128 128 128 128 128 128 128 128 128 128 128 128 128 128 128 128 128 128 128 128 128 128 128 128 128 128 128 128 128 128 128 128 128 128
128 128 128 128 128 128 128 128 128 128 128 128 128 128 128 128 128 128 128 128 128 128 128 128 128 128 128 128 128 128 128 128 128 128 128 128 128 128 128 126 116 104 100 101 102 103 104 106 107 108 109 111 112 113 115 116 117 119 120 121 123 124 125 127 230 249 249 249 249 249 249 249 248 248 248 248 248 248 248 248 247 247 247 247 247 247 246 246 246 246 245 245 245 245 244 244 244 243 243 242 242 241 241 240 240 239 238 237 237 236 235 233 232 231 229 227 225 222 219 215 211 206 199 191 181 169 154 136 128 128 128 128 128 128 128 128 128 128 128 128 128 128 128 128 128 128 128 128 128 128 128 128 128 128 128 128 128 128 128 128 128 128 128 128 128 128 128 126 116 104 100 101 102 103 104 106 107 108 109 111 112 113 115 116 117 119 120 121 123 124 125 127 127 127 127 127 127 127 127 127 127 127 127 127 127 127 127 127 127 127 127 127 127 127 127 127 127 127 127 127 127 127 127 127 127 0 0 0 0 0 0 0 0 0 0 0 0 0 0 0 0 0 0 0 0 0 0 0 0 0 0 0 0 0 0 0 0 0 0 0 0 0 0 0 0 0 0 0 0 0 0 0 0 0 0 0 0 0 0 0 0 0 0 0 0 0 127 127 127 127 127 127 127 127 127 127 127 127 127 127 127 127 127 127 127 127 127 127 127 127 127 127 127 127 127 127 127 127 127 127 127 127 131 132 134 135 136 138 139 140 142 143 144 146 147 148 150 151 152 153 153 154 151 143 135 130 129 128 128 128 128 128 128 128 128 128 128 128 128 128 128 128 128 128 128 128 128 128 128 128 128 128 128 128 128 128 128 128 128 128 128 128 128 127 118 101 86 74 64 56 49 44 40 36 33 30 28 26 25 23 22 21 19 19 18 17 16 15 15 14 13 13 13 12 12 12 11 11 11 10 10 10 10 9 9 9 8 9 8 8 8 8 8 8 7 7 7 7 7 7 6 6 6 6 6 6 21 77 125 129 131 132 134 135 136 138 139 140 142 143 144 146 147 148 150 151 152 153 153 154 151 143 135 130 129 128 128 128 128 128 128 128 128 128 128 128 128 128 128 128 128 128 128 128 128 128 128 128 128 128 128 128 128 128 128 128 128 128 128 128 128 128
128 128 128 128 128 128 128 128 128 128 128 128 128 128 128 128 128 128 128 128 128 128 128 128 128 128 128 128 128 128 128 128 128 128 128 128 128 124 109 97 97 98 99 100 101 102 104 105 106 108 109 111 112 113 114 116 117 118 120 121 123 124 125 127 225 248 248 248 248 247 247 247 247 247 247 246 246 246 246 246 246 245 245 245 245 245 244 244 244 244 243 243 243 242 242 241 241 240 240 240 239 238 238 237 236 236 235 234 233 231 230 229 227 226 224 222 219 216 213 209 204 198 191 183 174 162 149 135 128 128 128 128 128 128 128 128 128 128 128 128 128 128 128 128 128 128 128 128 128 128 128 128 128 128 128 128 128 128 128 128 128 128 128 128 128 124 109 97 97 98 99 100 101 102 104 105 106 108 109 111 112 113 114 116 117 118 120 121 123 124 125 127 127 127 127 127 127 127 127 127 127 127 127 127 127 127 127 127 127 127 127 127 127 127 127 127 127 127 127 127 127 127 127 127 127 0 0 0 0 0 0 0 0 0 0 0 0 0 0 0 0 0 0 0 0 0 0 0 0 0 0 0 0 0 0 0 0 0 0 0 0 0 0 0 0 0 0 0 0 0 0 0 0 0 0 0 0 0 0 0 0 0 0 0 0 0 127 127 127 127 127 127 127 127 127 127 127 127 127 127 127 127 127 127 127 127 127 127 127 127 127 127 127 127 127 127 127 127 127 127 127 127 131 132 134 135 136 138 139 140 142 143 145 146 147 148 150 151 152 154 155 156 157 158 156 149 138 131 129 128 128 128 128 128 128 128 128 128 128 128 128 128 128 128 128 128 128 128 128 128 128 128 128 128 128 128 128 128 128 128 128 128 128 127 120 106 93 82 72 64 57 51 47 43 39 36 34 32 30 28 26 25 23 22 21 20 19 19 18 17 17 16 16 15 14 14 14 13 13 12 12 12 12 11 11 11 11 10 10 10 10 9 9 9 9 9 8 8 8 8 8 8 8 8 7 7 22 79 125 130 131 132 134 135 136 138 139 140 142 143 145 146 147 148 150 151 152 154 155 156 157 158 156 149 138 131 129 128 128 128 128 128 128 128 128 128 128 128 128 128 128 128 128 128 128 128 128 128 128 128 128 128 128 128 128 128 128 128 128 128 128 128
128 128 128 128 128 128 128 128 128 128 128 128 128 128 128 128 128 128 128 128 128 128 128 128 128 128 128 128 128 128 128 128 128 128 128 122 105 93 94 95 96 97 98 100 101 102 103 105 106 107 109 110 112 113 114 116 117 118 120 121 123 124 125 127 211 247 247 246 246 246 246 246 246 245 245 245 245 245 244 244 244 244 244 243 243 243 242 242 242 241 241 241 240 240 239 239 238 238 237 237 236 235 235 234 233 232 231 230 229 228 226 224 223 221 219 216 213 210 206 202 197 191 184 177 168 157 146 134 128 128 128 128 128 128 128 128 128 128 128 128 128 128 128 128 128 128 128 128 128 128 128 128 128 128 128 128 128 128 128 128 128 128 128 122 105 93 94 95 96 97 98 100 101 102 103 105 106 107 109 110 112 113 114 116 117 118 120 121 123 124 125 127 127 127 127 127 127 127 127 127 127 127 127 127 127 127 127 127 127 127 127 127 127 127 127 127 127 127 127 127 127 127 127 127 127 0 0 0 0 0 0 0 0 0 0 0 0 0 0 0 0 0 0 0 0 0 0 0 0 0 0 0 0 0 0 0 0 0 0 0 0 0 0 0 0 0 0 0 0 0 0 0 0 0 0 0 0 0 0 0 0 0 0 0 0 0 127 127 127 127 127 127 127 127 127 127 127 127 127 127 127 127 127 127 127 127 127 127 127 127 127 127 127 127 127 127 127 127 127 127 127 127 131 132 134 135 137 138 139 141 142 143 145 146 148 149 150 152 153 154 155 157 158 159 160 160 160 153 140 131 129 128 128 128 128 128 128 128 128 128 128 128 128 128 128 128 128 128 128 128 128 128 128 128 128 128 128 128 128 128 128 128 128 127 121 109 98 87 78 71 64 58 53 49 45 42 39 36 34 32 31 29 27 26 25 24 23 22 21 20 19 19 18 18 17 17 16 16 15 15 14 14 14 13 13 13 12 12 12 11 11 11 11 11 10 10 10 10 10 9 9 9 9 9 9 9 29 96 126 130 131 132 134 135 137 138 139 141 142 143 145 146 148 149 150 152 153 154 155 157 158 159 160 160 160 153 140 131 129 128 128 128 128 128 128 128 128 128 128 128 128 128 128 128 128 128 128 128 128 128 128 128 128 128 128 128 128 128 128 128 128 128
128 128 128 128 128 128 128 128 128 128 128 128 128 128 128 128 128 128 128 128 128 128 128 128 128 128 128 128 128 128 128 128 128 123 104 90 91 92 93 94 96 97 98 99 100 102 103 104 106 107 108 110 111 113 114 115 117 118 120 121 123 124 125 127 200 245 245 245 245 245 244 244 244 244 244 244 243 243 243 243 242 242 242 241 241 241 240 240 240 239 239 239 238 238 237 237 236 235 235 234 233 232 232 231 230 229 228 227 225 224 222 220 218 216 214 211 208 205 201 196 191 185 179 171 163 154 144 133 128 128 128 128 128 128 128 128 128 128 128 128 128 128 128 128 128 128 128 128 128 128 128 128 128 128 128 128 128 128 128 128 128 123 104 90 91 92 93 94 96 97 98 99 100 102 103 104 106 107 108 110 111 113 114 115 117 118 120 121 123 124 125 127 127 127 127 127 127 127 127 127 127 127 127 127 127 127 127 127 127 127 127 127 127 127 127 127 127 127 127 127 127 127 127 127 127 0 0 0 0 0 0 0 0 0 0 0 0 0 0 0 0 0 0 0 0 0 0 0 0 0 0 0 0 0 0 0 0 0 0 0 0 0 0 0 0 0 0 0 0 0 0 0 0 0 0 0 0 0 0 0 0 0 0 0 0 0 127 127 127 127 127 127 127 127 127 127 127 127 127 127 127 127 127 127 127 127 127 127 127 127 127 127 127 127 127 127 127 127 127 127 127 127 131 132 134 135 137 138 140 141 142 144 145 146 148 149 151 152 153 154 156 157 158 159 161 162 163 163 162 155 141 131 129 128 128 128 128 128 128 128 128 128 128 128 128 128 128 128 128 128 128 128 128 128 128 128 128 128 128 128 128 128 128 128 122 111 102 92 84 76 70 64 59 54 50 47 44 41 39 36 35 33 31 30 28 27 26 25 24 23 22 22 21 20 20 19 18 18 17 17 16 16 16 15 15 15 14 14 13 13 13 13 13 12 12 12 11 11 11 11 11 11 10 10 10 10 30 97 126 130 131 132 134 135 137 138 140 141 142 144 145 146 148 149 151 152 153 154 156 157 158 159 161 162 163 163 162 155 141 131 129 128 128 128 128 128 128 128 128 128 128 128 128 128 128 128 128 128 128 128 128 128 128 128 128 128 128 128 128 128 128 128
128 128 128 128 128 128 128 128 128 128 128 128 128 128 128 128 128 128 128 128 128 128 128 128 128 128 128 128 128 128 128 125 106 88 88 89 90 91 93 94 95 96 97 99 100 101 103 104 105 107 108 109 111 112 114 115 117 118 120 121 122 124 125 127 184 244 244 244 243 243 243 243 243 242 242 242 242 241 241 241 241 240 240 240 239 239 239 238 238 237 237 236 236 235 235 234 234 233 232 231 231 230 229 228 227 226 224 223 222 220 218 216 214 212 209 206 203 200 196 191 186 180 174 167 159 151 142 132 128 128 128 128 128 128 128 128 128 128 128 128 128 128 128 128 128 128 128 128 128 128 128 128 128 128 128 128 128 128 128 125 106 88 88 89 90 91 93 94 95 96 97 99 100 101 103 104 105 107 108 109 111 112 114 115 117 118 120 121 122 124 125 127 127 127 127 127 127 127 127 127 127 127 127 127 127 127 127 127 127 127 127 127 127 127 127 127 127 127 127 127 127 127 127 127 127 0 0 0 0 0 0 0 0 0 0 0 0 0 0 0 0 0 0 0 0 0 0 0 0 0 0 0 0 0 0 0 0 0 0 0 0 0 0 0 0 0 0 0 0 0 0 0 0 0 0 0 0 0 0 0 0 0 0 0 0 0 127 127 127 127 127 127 127 127 127 127 127 127 127 127 127 127 127 127 127 127 127 127 127 127 127 127 127 127 127 127 127 127 127 127 127 127 131 132 134 136 137 138 140 141 143 144 145 147 148 150 151 152 154 155 156 157 159 160 161 163 164 165 166 166 165 155 138 131 128 128 128 128 128 128 128 128 128 128 128 128 128 128 128 128 128 128 128 128 128 128 128 128 128 128 128 128 128 128 123 113 104 96 88 81 75 69 64 59 55 52 48 46 43 41 39 37 35 33 32 31 29 28 27 26 25 24 24 23 22 22 21 20 20 19 19 18 18 17 17 17 16 16 15 15 15 14 14 14 14 13 13 13 13 12 12 12 12 12 12 11 35 110 127 130 131 132 134 136 137 138 140 141 143 144 145 147 148 150 151 152 154 155 156 157 159 160 161 163 164 165 166 166 165 155 138 131 128 128 128 128 128 128 128 128 128 128 128 128 128 128 128 128 128 128 128 128 128 128 128 128 128 128 128 128 128 128
128 128 128 128 128 128 128 128 128 128 128 128 128 128 128 128 128 128 128 128 128 128 128 128 128 128 128 128 128 128 112 88 85 86 87 89 90 91 92 93 94 96 97 98 100 101 102 104 105 106 108 109 111 112 113 115 116 118 119 121 122 124 125 127 167 243 243 242 242 242 242 241 241 241 241 241 240 240 240 239 239 239 238 238 238 237 237 236 236 236 235 234 234 233 233 232 231 231 230 229 228 227 226 225 224 222 221 220 218 216 215 213 210 208 205 202 199 195 191 187 182 176 170 163 156 148 140 132 128 128 128 128 128 128 128 128 128 128 128 128 128 128 128 128 128 128 128 128 128 128 128 128 128 128 128 128 128 128 112 88 85 86 87 89 90 91 92 93 94 96 97 98 100 101 102 104 105 106 108 109 111 112 113 115 116 118 119 121 122 124 125 127 127 127 127 127 127 127 127 127 127 127 127 127 127 127 127 127 127 127 127 127 127 127 127 127 127 127 127 127 127 127 127 127 127 0 0 0 0 0 0 0 0 0 0 0 0 0 0 0 0 0 0 0 0 0 0 0 0 0 0 0 0 0 0 0 0 0 0 0 0 0 0 0 0 0 0 0 0 0 0 0 0 0 0 0 0 0 0 0 0 0 0 0 0 0 127 127 127 127 127 127 127 127 127 127 127 127 127 127 127 127 127 127 127 127 127 127 127 127 127 127 127 127 127 127 127 127 127 127 127 127 131 133 134 136 137 139 140 142 143 145 146 147 149 150 151 153 154 155 157 158 159 161 162 163 164 165 167 168 169 169 166 151 135 129 128 128 128 128 128 128 128 128 128 128 128 128 128 128 128 128 128 128 128 128 128 128 128 128 128 128 128 128 123 115 106 99 92 85 79 73 68 64 60 56 53 50 47 45 42 40 39 37 35 34 32 31 30 29 28 27 26 25 24 24 23 22 22 21 21 20 19 19 19 18 18 17 17 17 16 16 16 16 15 15 15 14 14 14 14 13 13 13 13 12 38 114 127 130 131 133 134 136 137 139 140 142 143 145 146 147 149 150 151 153 154 155 157 158 159 161 162 163 164 165 167 168 169 169 166 151 135 129 128 128 128 128 128 128 128 128 128 128 128 128 128 128 128 128 128 128 128 128 128 128 128 128 128 128 128 128
128 128 128 128 128 128 128 128 128 128 128 128 128 128 128 128 128 128 128 128 128 128 128 128 128 128 128 128 122 95 82 83 84 86 87 88 89 90 91 92 94 95 96 98 99 100 102 103 105 106 108 109 110 112 113 115 116 118 119 121 122 124 125 127 143 240 241 241 241 241 240 240 240 240 239 239 239 238 238 238 237 237 237 236 236 235 235 234 234 233 233 232 232 231 230 230 229 228 227 226 225 224 223 222 221 220 218 217 215 213 211 209 207 204 201 198 195 191 187 183 178 173 167 160 154 147 139 131 128 128 128 128 128 128 128 128 128 128 128 128 128 128 128 128 128 128 128 128 128 128 128 128 128 128 128 128 122 95 82 83 84 86 87 88 89 90 91 92 94 95 96 98 99 100 102 103 105 106 108 109 110 112 113 115 116 118 119 121 122 124 125 127 127 127 127 127 127 127 127 127 127 127 127 127 127 127 127 127 127 127 127 127 127 127 127 127 127 127 127 127 127 127 127 127 127 0 0 0 0 0 0 0 0 0 0 0 0 0 0 0 0 0 0 0 0 0 0 0 0 0 0 0 0 0 0 0 0 0 0 0 0 0 0 0 0 0 0 0 0 0 0 0 0 0 0 0 0 0 0 0 0 0 0 0 0 0 127 127 127 127 127 127 127 127 127 127 127 127 127 127 127 127 127 127 127 127 127 127 127 127 127 127 127 127 127 127 127 127 127 127 127 127 131 133 134 136 137 139 140 142 143 145 146 148 149 150 152 153 155 156 157 159 160 161 162 164 165 166 167 168 170 171 172 171 163 143 131 128 128 128 128 128 128 128 128 128 128 128 128 128 128 128 128 128 128 128 128 128 128 128 128 128 128 128 124 116 109 101 95 88 83 77 72 68 64 60 57 54 51 48 46 44 42 40 39 37 36 34 33 32 31 30 29 28 27 26 25 25 24 23 23 22 22 21 20 20 20 19 19 19 18 18 17 17 17 16 16 16 16 15 15 15 14 14 14 16 48 124 128 130 131 133 134 136 137 139 140 142 143 145 146 148 149 150 152 153 155 156 157 159 160 161 162 164 165 166 167 168 170 171 172 171 163 143 131 128 128 128 128 128 128 128 128 128 128 128 128 128 128 128 128 128 128 128 128 128 128 128 128 128 128 128
128 128 128 128 128 128 128 128 128 128 128 128 128 128 128 128 128 128 128 128 128 128 128 128 128 128 128 110 82 80 81 83 84 85 86 87 88 89 91 92 93 95 96 97 99 100 101 103 104 106 107 109 110 111 113 115 116 117 119 120 122 124 125 127 131 232 240 240 239 239 239 239 238 238 238 238 237 237 237 236 236 235 235 234 234 234 233 233 232 231 231 230 229 229 228 227 227 226 225 224 223 222 220 219 218 217 215 213 212 210 208 205 203 201 198 195 191 187 183 179 174 169 164 158 152 145 138 131 128 128 128 128 128 128 128 128 128 128 128 128 128 128 128 128 128 128 128 128 128 128 128 128 128 128 128 110 82 80 81 83 84 85 86 87 88 89 91 92 93 95 96 97 99 100 101 103 104 106 107 109 110 111 113 115 116 117 119 120 122 124 125 127 127 127 127 127 127 127 127 127 127 127 127 127 127 127 127 127 127 127 127 127 127 127 127 127 127 127 127 127 127 127 127 127 127 0 0 0 0 0 0 0 0 0 0 0 0 0 0 0 0 0 0 0 0 0 0 0 0 0 0 0 0 0 0 0 0 0 0 0 0 0 0 0 0 0 0 0 0 0 0 0 0 0 0 0 0 0 0 0 0 0 0 0 0 0 127 127 127 127 127 127 127 127 127 127 127 127 127 127 127 127 127 127 127 127 127 127 127 127 127 127 127 127 127 127 127 127 127 127 127 127 131 133 135 136 138 139 140 142 144 145 146 148 149 151 152 154 155 156 158 159 160 162 163 164 165 167 168 169 170 171 173 173 174 171 155 135 129 128 128 128 128 128 128 128 128 128 128 128 128 128 128 128 128 128 128 128 128 128 128 128 128 128 124 117 110 104 97 91 86 81 76 72 67 64 60 57 54 52 49 47 45 43 42 40 38 37 36 34 33 32 31 30 29 29 28 27 26 25 25 24 24 23 23 22 22 21 20 20 20 19 19 18 18 18 18 17 17 17 16 16 16 15 15 23 69 124 128 130 131 133 135 136 138 139 140 142 144 145 146 148 149 151 152 154 155 156 158 159 160 162 163 164 165 167 168 169 170 171 173 173 174 171 155 135 129 128 128 128 128 128 128 128 128 128 128 128 128 128 128 128 128 128 128 128 128 128 128 128 128 128
128 128 128 128 128 128 128 128 128 128 128 128 128 128 128 128 128 128 128 128 128 128 128 128 128 125 95 77 79 80 81 82 83 84 85 87 88 89 90 91 93 94 95 97 98 100 101 102 104 105 107 108 110 111 113 114 116 117 119 120 122 123 125 127 128 216 239 238 238 238 238 237 237 237 236 236 236 235 235 235 234 234 233 233 232 232 231 231 230 229 229 228 228 227 226 225 224 223 222 221 220 219 218 217 215 214 212 211 209 207 205 202 200 197 195 191 188 184 180 176 171 166 161 156 150 144 137 131 128 128 128 128 128 128 128 128 128 128 128 128 128 128 128 128 128 128 128 128 128 128 128 128 128 125 95 77 79 80 81 82 83 84 85 87 88 89 90 91 93 94 95 97 98 100 101 102 104 105 107 108 110 111 113 114 116 117 119 120 122 123 125 127 127 127 127 127 127 127 127 127 127 127 127 127 127 127 127 127 127 127 127 127 127 127 127 127 127 127 127 127 127 127 127 127 127 0 0 0 0 0 0 0 0 0 0 0 0 0 0 0 0 0 0 0 0 0 0 0 0 0 0 0 0 0 0 0 0 0 0 0 0 0 0 0 0 0 0 0 0 0 0 0 0 0 0 0 0 0 0 0 0 0 0 0 0 0 127 127 127 127 127 127 127 127 127 127 127 127 127 127 127 127 127 127 127 127 127 127 127 127 127 127 127 127 127 127 127 127 127 127 127 127 131 133 135 136 138 139 141 142 144 145 147 148 150 151 153 154 156 157 158 160 161 162 164 165 166 167 169 170 171 172 173 174 175 176 175 165 141 130 128 128 128 128 128 128 128 128 128 128 128 128 128 128 128 128 128 128 128 128 128 128 128 128 124 118 111 105 99 94 89 84 79 75 71 67 64 61 58 55 53 51 48 46 44 43 41 40 38 37 36 35 34 33 31 31 30 29 28 28 27 26 25 25 24 24 23 23 22 22 21 21 20 20 20 19 19 19 18 18 18 17 17 17 16 28 84 125 128 130 131 133 135 136 138 139 141 142 144 145 147 148 150 151 153 154 156 157 158 160 161 162 164 165 166 167 169 170 171 172 173 174 175 176 175 165 141 130 128 128 128 128 128 128 128 128 128 128 128 128 128 128 128 128 128 128 128 128 128 128 128 128
128 128 128 128 128 128 128 128 128 128 128 128 128 128 128 128 128 128 128 128 128 128 128 128 119 83 76 77 78 79 80 81 82 84 85 86 87 88 90 91 92 93 95 96 98 99 100 102 103 105 106 108 110 111 112 114 115 117 119 120 122 123 125 127 128 194 237 237 237 237 236 236 236 235 235 234 234 234 233 233 232 232 231 231 231 230 229 229 228 228 227 226 226 225 224 223 222 221 220 219 218 217 216 214 213 211 210 208 206 204 202 199 197 194 191 188 185 181 177 173 169 164 159 154 148 142 137 131 128 128 128 128 128 128 128 128 128 128 128 128 128 128 128 128 128 128 128 128 128 128 128 128 119 83 76 77 78 79 80 81 82 84 85 86 87 88 90 91 92 93 95 96 98 99 100 102 103 105 106 108 110 111 112 114 115 117 119 120 122 123 125 127 127 127 127 127 127 127 127 127 127 127 127 127 127 127 127 127 127 127 127 127 127 127 127 127 127 127 127 127 127 127 127 127 127 0 0 0 0 0 0 0 0 0 0 0 0 0 0 0 0 0 0 0 0 0 0 0 0 0 0 0 0 0 0 0 0 0 0 0 0 0 0 0 0 0 0 0 0 0 0 0 0 0 0 0 0 0 0 0 0 0 0 0 0 0 127 127 127 127 127 127 127 127 127 127 127 127 127 127 127 127 127 127 127 127 127 127 127 127 127 127 127 127 127 127 127 127 127 127 127 127 132 133 135 136 138 140 141 143 144 145 147 149 150 152 153 155 156 157 159 160 161 163 164 166 167 168 169 171 172 173 174 175 176 177 178 178 173 149 132 128 128 128 128 128 128 128 128 128 128 128 128 128 128 128 128 128 128 128 128 128 128 128 125 119 113 107 101 96 91 86 82 78 74 70 67 63 61 58 56 53 51 49 47 45 44 42 41 40 38 37 36 35 34 33 32 31 30 30 29 28 28 27 26 26 25 24 24 23 23 22 22 22 21 21 21 20 20 19 19 19 18 18 18 34 99 126 128 130 132 133 135 136 138 140 141 143 144 145 147 149 150 152 153 155 156 157 159 160 161 163 164 166 167 168 169 171 172 173 174 175 176 177 178 178 173 149 132 128 128 128 128 128 128 128 128 128 128 128 128 128 128 128 128 128 128 128 128 128 128 128
128 128 128 128 128 128 128 128 128 128 128 128 128 128 128 128 128 128 128 128 128 128 128 111 75 74 75 76 77 78 79 80 81 83 84 85 86 88 89 90 91 93 94 96 97 99 100 101 103 104 106 107 109 110 112 114 115 117 119 120 122 123 125 127 128 169 236 236 236 235 235 235 234 234 234 233 233 232 232 231 231 231 230 229 229 228 228 227 226 226 225 224 224 223 222 221 220 219 218 217 216 214 213 212 210 209 207 205 203 201 199 197 194 191 188 185 182 178 174 170 166 162 157 152 147 141 136 130 128 128 128 128 128 128 128 128 128 128 128 128 128 128 128 128 128 128 128 128 128 128 128 111 75 74 75 76 77 78 79 80 81 83 84 85 86 88 89 90 91 93 94 96 97 99 100 101 103 104 106 107 109 110 112 114 115 117 119 120 122 123 125 127 127 127 127 127 127 127 127 127 127 127 127 127 127 127 127 127 127 127 127 127 127 127 127 127 127 127 127 127 127 127 127 127 127 0 0 0 0 0 0 0 0 0 0 0 0 0 0 0 0 0 0 0 0 0 0 0 0 0 0 0 0 0 0 0 0 0 0 0 0 0 0 0 0 0 0 0 0 0 0 0 0 0 0 0 0 0 0 0 0 0 0 0 0 0 127 127 127 127 127 127 127 127 127 127 127 127 127 127 127 127 127 127 127 127 127 127 127 127 127 127 127 127 127 127 127 127 127 127 127 127 132 133 135 137 138 140 141 143 144 146 148 149 151 152 154 155 156 158 159 161 162 164 165 166 167 169 170 171 172 174 175 176 177 178 179 180 181 177 157 135 129 128 128 128 128 128 128 128 128 128 128 128 128 128 128 128 128 128 128 128 128 128 125 119 114 108 103 98 93 89 85 80 77 73 70 67 64 61 59 56 54 52 50 48 46 45 44 42 41 39 38 37 36 35 34 33 32 32 31 30 29 29 28 27 27 26 26 25 25 24 24 23 23 22 22 21 21 21 20 20 20 20 19 40 113 127 128 130 132 133 135 137 138 140 141 143 144 146 148 149 151 152 154 155 156 158 159 161 162 164 165 166 167 169 170 171 172 174 175 176 177 178 179 180 181 177 157 135 129 128 128 128 128 128 128 128 128 128 128 128 128 128 128 128 128 128 128 128 128 128
128 128 128 128 128 128 128 128 128 128 128 128 128 128 128 128 128 128 128 128 128 128 101 72 72 73 74 75 76 77 79 80 81 82 83 84 86 87 88 89 91 92 94 95 96 98 99 101 102 104 105 107 109 110 112 114 115 117 118 120 122 123 125 127 128 139 233 235 234 234 234 233 233 232 232 232 231 231 230 230 229 229 228 228 227 227 226 225 225 224 223 222 222 221 220 219 218 217 216 214 213 212 211 209 208 206 204 202 200 198 196 194 191 189 186 183 179 176 172 168 164 160 155 151 146 140 135 130 128 128 128 128 128 128 128 128 128 128 128 128 128 128 128 128 128 128 128 128 128 128 101 72 72 73 74 75 76 77 79 80 81 82 83 84 86 87 88 89 91 92 94 95 96 98 99 101 102 104 105 107 109 110 112 114 115 117 118 120 122 123 125 127 127 127 127 127 127 127 127 127 127 127 127 127 127 127 127 127 127 127 127 127 127 127 127 127 127 127 127 127 127 127 127 127 127 0 0 0 0 0 0 0 0 0 0 0 0 0 0 0 0 0 0 0 0 0 0 0 0 0 0 0 0 0 0 0 0 0 0 0 0 0 0 0 0 0 0 0 0 0 0 0 0 0 0 0 0 0 0 0 0 0 0 0 0 0 127 127 127 127 127 127 127 127 127 127 127 127 127 127 127 127 127 127 127 127 127 127 127 127 127 127 127 127 127 127 127 127 127 127 127 127 131 133 135 137 138 140 142 143 145 146 148 150 151 153 154 156 157 159 160 161 163 164 165 167 168 169 171 172 173 174 175 177 178 179 180 181 182 183 181 165 137 129 128 128 128 128 128 128 128 128 128 128 128 128 128 128 128 128 128 128 128 128 125 120 115 109 104 100 95 91 87 83 79 76 72 69 66 64 61 59 56 55 53 51 49 47 46 44 43 42 40 39 38 37 36 35 34 34 33 32 31 30 29 29 28 28 27 27 26 25 25 25 24 24 23 23 22 22 22 21 21 21 22 53 123 128 128 130 131 133 135 137 138 140 142 143 145 146 148 150 151 153 154 156 157 159 160 161 163 164 165 167 168 169 171 172 173 174 175 177 178 179 180 181 182 183 181 165 137 129 128 128 128 128 128 128 128 128 128 128 128 128 128 128 128 128 128 128 128 128
128 128 128 128 128 128 128 128 128 128 128 128 128 128 128 128 128 128 128 128 127 96 69 70 71 72 73 74 75 76 77 79 80 81 82 84 85 86 88 89 90 92 93 94 96 97 99 100 102 103 105 107 108 110 112 113 115 117 118 120 122 123 125 127 128 129 216 233 233 232 232 232 231 231 231 230 230 229 229 228 228 227 227 226 226 225 224 224 223 222 221 221 220 219 218 217 216 215 214 212 211 210 209 207 205 204 202 200 198 196 194 191 189 186 183 180 177 173 170 166 162 158 154 149 144 140 135 130 128 128 128 128 128 128 128 128 128 128 128 128 128 128 128 128 128 128 128 128 127 96 69 70 71 72 73 74 75 76 77 79 80 81 82 84 85 86 88 89 90 92 93 94 96 97 99 100 102 103 105 107 108 110 112 113 115 117 118 120 122 123 125 127 127 127 127 127 127 127 127 127 127 127 127 127 127 127 127 127 127 127 127 127 127 127 127 127 127 127 127 127 127 127 127 127 127 0 0 0 0 0 0 0 0 0 0 0 0 0 0 0 0 0 0 0 0 0 0 0 0 0 0 0 0 0 0 0 0 0 0 0 0 0 0 0 0 0 0 0 0 0 0 0 0 0 0 0 0 0 0 0 0 0 0 0 0 0 127 127 127 127 127 127 127 127 127 127 127 127 127 127 127 127 127 127 127 127 127 127 127 127 127 127 127 127 127 127 127 127 127 127 127 127 132 133 135 137 138 140 142 144 145 147 148 150 152 153 155 156 158 159 161 162 163 165 166 167 169 170 171 173 174 175 176 177 179 180 181 182 183 184 185 184 170 140 129 128 128 128 128 128 128 128 128 128 128 128 128 128 128 128 128 128 128 128 125 120 115 110 106 101 97 93 89 85 82 78 75 72 69 66 64 61 59 57 55 53 51 50 48 47 45 44 43 41 40 39 38 37 36 35 35 34 33 32 32 31 30 29 29 28 28 27 27 26 25 25 25 24 24 23 23 23 22 22 31 80 125 128 128 130 132 133 135 137 138 140 142 144 145 147 148 150 152 153 155 156 158 159 161 162 163 165 166 167 169 170 171 173 174 175 176 177 179 180 181 182 183 184 185 184 170 140 129 128 128 128 128 128 128 128 128 128 128 128 128 128 128 128 128 128 128 128
128 128 128 128 128 128 128 128 128 128 128 128 128 128 128 128 128 128 128 125 89 67 68 69 70 71 72 73 74 75 77 78 79 80 82 83 84 86 87 88 90 91 92 94 95 97 98 100 101 103 105 106 108 110 111 113 114 116 118 120 121 123 125 127 128 128 191 232 232 231 231 231 230 230 229 229 229 228 228 227 226 226 225 225 224 223 223 222 221 220 220 219 218 217 216 215 214 213 212 210 209 208 206 205 203 201 200 198 196 193 191 189 186 184 181 178 175 172 168 164 160 156 152 148 144 139 134 130 128 128 128 128 128 128 128 128 128 128 128 128 128 128 128 128 128 128 128 125 89 67 68 69 70 71 72 73 74 75 77 78 79 80 82 83 84 86 87 88 90 91 92 94 95 97 98 100 101 103 105 106 108 110 111 113 114 116 118 120 121 123 125 127 127 127 127 127 127 127 127 127 127 127 127 127 127 127 127 127 127 127 127 127 127 127 127 127 127 127 127 127 127 127 127 127 127 0 0 0 0 0 0 0 0 0 0 0 0 0 0 0 0 0 0 0 0 0 0 0 0 0 0 0 0 0 0 0 0 0 0 0 0 0 0 0 0 0 0 0 0 0 0 0 0 0 0 0 0 0 0 0 0 0 0 0 0 0 127 127 127 127 127 127 127 127 127 127 127 127 127 127 127 127 127 127 127 127 127 127 127 127 127 127 127 127 127 127 127 127 127 127 127 127 132 133 135 137 139 140 142 144 146 147 149 150 152 154 155 157 158 160 161 163 164 166 167 168 169 171 172 173 175 176 177 178 179 180 182 183 184 185 186 187 186 174 142 130 128 128 128 128 128 128 128 128 128 128 128 128 128 128 128 128 128 128 125 120 116 112 107 103 99 95 91 87 84 80 77 74 71 69 66 64 62 59 57 55 54 52 50 49 47 46 45 44 42 41 40 39 38 37 36 35 35 34 33 32 32 31 30 30 29 29 28 28 27 27 26 26 25 25 24 24 24 23 38 101 126 128 128 130 132 133 135 137 139 140 142 144 146 147 149 150 152 154 155 157 158 160 161 163 164 166 167 168 169 171 172 173 175 176 177 178 179 180 182 183 184 185 186 187 186 174 142 130 128 128 128 128 128 128 128 128 128 128 128 128 128 128 128 128 128 128
128 128 128 128 128 128 128 128 128 128 128 128 128 128 128 128 128 128 125 83 66 66 68 68 70 71 72 73 74 75 76 77 78 80 81 82 83 85 86 87 89 90 92 93 95 96 98 99 101 102 104 106 107 109 111 113 114 116 118 120 121 123 125 127 128 128 158 231 231 230 230 229 229 229 228 227 227 227 226 225 225 224 224 223 222 222 221 220 220 219 218 217 216 215 214 213 212 211 209 208 207 205 204 202 201 199 197 196 193 191 189 187 184 182 179 176 173 169 166 163 159 155 151 147 143 139 134 130 128 128 128 128 128 128 128 128 128 128 128 128 128 128 128 128 128 128 125 83 66 66 68 68 70 71 72 73 74 75 76 77 78 80 81 82 83 85 86 87 89 90 92 93 95 96 98 99 101 102 104 106 107 109 111 113 114 116 118 120 121 123 125 127 127 127 127 127 127 127 127 127 127 127 127 127 127 127 127 127 127 127 127 127 127 127 127 127 127 127 127 127 127 127 127 127 127 0 0 0 0 0 0 0 0 0 0 0 0 0 0 0 0 0 0 0 0 0 0 0 0 0 0 0 0 0 0 0 0 0 0 0 0 0 0 0 0 0 0 0 0 0 0 0 0 0 0 0 0 0 0 0 0 0 0 0 0 0 127 127 127 127 127 127 127 127 127 127 127 127 127 127 127 127 127 127 127 127 127 127 127 127 127 127 127 127 127 127 127 127 127 127 127 127 132 134 135 137 139 141 142 144 146 147 149 151 152 154 156 157 159 160 162 163 165 166 168 169 170 172 173 174 175 177 178 179 180 181 182 183 184 185 187 187 188 188 177 143 130 128 128 128 128 128 128 128 128 128 128 128 128 128 128 128 128 128 125 121 117 112 108 104 100 96 92 89 86 82 79 76 74 71 68 66 64 62 60 58 56 54 52 51 49 48 47 46 44 43 42 41 40 39 38 37 36 36 35 34 33 33 32 31 31 30 29 29 28 28 28 27 27 26 26 25 25 25 47 116 127 128 129 130 132 134 135 137 139 141 142 144 146 147 149 151 152 154 156 157 159 160 162 163 165 166 168 169 170 172 173 174 175 177 178 179 180 181 182 183 184 185 187 187 188 188 177 143 130 128 128 128 128 128 128 128 128 128 128 128 128 128 128 128 128 128
128 128 128 128 128 128 128 128 128 128 128 128 128 128 128 128 128 125 82 64 65 66 67 68 68 70 71 72 73 74 75 76 78 79 80 81 83 84 85 87 88 89 91 93 94 95 97 99 100 102 104 105 107 109 110 112 114 116 117 119 121 123 125 126 128 128 131 221 229 229 229 228 228 227 227 226 226 225 224 224 223 223 222 221 221 220 219 219 218 217 216 215 214 213 212 211 210 209 208 206 205 204 202 200 199 197 195 193 191 189 187 184 182 180 177 174 171 168 164 161 157 154 150 146 142 138 134 130 128 128 128 128 128 128 128 128 128 128 128 128 128 128 128 128 128 125 82 64 65 66 67 68 68 70 71 72 73 74 75 76 78 79 80 81 83 84 85 87 88 89 91 93 94 95 97 99 100 102 104 105 107 109 110 112 114 116 117 119 121 123 125 126 127 127 127 127 127 127 127 127 127 127 127 127 127 127 127 127 127 127 127 127 127 127 127 127 127 127 127 127 127 127 127 127 127 0 0 0 0 0 0 0 0 0 0 0 0 0 0 0 0 0 0 0 0 0 0 0 0 0 0 0 0 0 0 0 0 0 0 0 0 0 0 0 0 0 0 0 0 0 0 0 0 0 0 0 0 0 0 0 0 0 0 0 0 0 127 127 127 127 127 127 127 127 127 127 127 127 127 127 127 127 127 127 127 127 127 127 127 127 127 127 127 127 127 127 127 127 127 127 127 127 132 134 136 138 139 141 143 145 146 148 150 151 153 155 156 158 160 161 163 164 165 167 168 170 171 172 174 175 176 177 179 180 181 182 183 184 185 186 187 188 189 190 190 178 143 129 128 128 128 128 128 128 128 128 128 128 128 128 128 128 128 128 125 121 117 113 109 105 102 98 94 91 88 84 81 78 76 73 70 68 66 64 62 60 58 56 55 53 52 50 49 47 46 45 44 43 42 41 40 39 38 37 36 36 35 34 33 33 32 32 31 31 30 29 29 28 28 27 27 27 26 31 70 124 128 128 128 130 132 134 136 138 139 141 143 145 146 148 150 151 153 155 156 158 160 161 163 164 165 167 168 170 171 172 174 175 176 177 179 180 181 182 183 184 185 186 187 188 189 190 190 178 143 129 128 128 128 128 128 128 128 128 128 128 128 128 128 128 128 128
128 128 128 128 128 128 128 128 128 128 128 128 128 128 128 128 127 87 62 63 64 64 66 67 68 69 70 71 72 73 74 76 77 78 79 80 82 83 84 86 87 89 90 92 93 95 96 98 100 101 103 105 107 108 110 112 114 115 117 119 121 123 125 127 128 128 128 195 228 228 227 227 226 226 225 225 224 224 223 222 222 221 221 220 219 219 218 217 216 215 214 213 213 211 210 209 208 207 206 204 203 202 200 199 197 195 193 191 189 187 185 182 180 177 175 172 169 166 163 159 156 152 149 145 141 137 134 129 128 128 128 128 128 128 128 128 128 128 128 128 128 128 128 128 127 87 62 63 64 64 66 67 68 69 70 71 72 73 74 76 77 78 79 80 82 83 84 86 87 89 90 92 93 95 96 98 100 101 103 105 107 108 110 112 114 115 117 119 121 123 125 127 127 127 127 127 127 127 127 127 127 127 127 127 127 127 127 127 127 127 127 127 127 127 127 127 127 127 127 127 127 127 127 127 127 0 0 0 0 0 0 0 0 0 0 0 0 0 0 0 0 0 0 0 0 0 0 0 0 0 0 0 0 0 0 0 0 0 0 0 0 0 0 0 0 0 0 0 0 0 0 0 0 0 0 0 0 0 0 0 0 0 0 0 0 0 127 127 127 127 127 127 127 127 127 127 127 127 127 127 127 127 127 127 127 127 127 127 127 127 127 127 127 127 127 127 127 127 127 127 127 127 132 134 136 138 140 141 143 145 147 148 150 152 154 155 157 159 160 162 163 165 166 168 169 170 172 173 175 176 177 178 180 181 182 183 184 185 186 187 188 189 190 191 192 191 179 142 129 128 128 128 128 128 128 128 128 128 128 128 128 128 128 128 126 122 118 114 110 106 103 99 96 92 89 86 83 80 78 75 73 70 68 66 64 62 60 58 57 55 53 52 51 49 48 47 46 45 44 43 42 41 40 39 38 37 36 36 35 34 34 33 32 32 31 31 30 30 29 28 28 28 27 39 96 126 128 128 129 130 132 134 136 138 140 141 143 145 147 148 150 152 154 155 157 159 160 162 163 165 166 168 169 170 172 173 175 176 177 178 180 181 182 183 184 185 186 187 188 189 190 191 192 191 179 142 129 128 128 128 128 128 128 128 128 128 128 128 128 128 128 128
128 128 128 128 128 128 128 128 128 128 128 128 128 128 128 128 93 60 61 62 63 64 65 66 67 68 69 70 71 72 73 74 76 77 78 80 81 82 84 85 87 88 89 91 93 94 96 98 99 101 102 104 106 108 110 112 113 115 117 119 121 123 125 127 128 128 128 158 226 227 226 226 225 224 224 223 223 222 222 221 220 220 219 219 218 217 216 215 215 214 213 212 211 210 209 208 206 205 204 203 201 200 198 196 195 193 191 189 187 185 183 181 178 176 173 170 167 164 161 158 155 151 148 144 141 137 133 129 128 128 128 128 128 128 128 128 128 128 128 128 128 128 128 128 93 60 61 62 63 64 65 66 67 68 69 70 71 72 73 74 76 77 78 80 81 82 84 85 87 88 89 91 93 94 96 98 99 101 102 104 106 108 110 112 113 115 117 119 121 123 125 127 127 127 127 127 127 127 127 127 127 127 127 127 127 127 127 127 127 127 127 127 127 127 127 127 127 127 127 127 127 127 127 127 127 0 0 0 0 0 0 0 0 0 0 0 0 0 0 0 0 0 0 0 0 0 0 0 0 0 0 0 0 0 0 0 0 0 0 0 0 0 0 0 0 0 0 0 0 0 0 0 0 0 0 0 0 0 0 0 0 0 0 0 0 0 127 127 127 127 127 127 127 127 127 127 127 127 127 127 127 127 127 127 127 127 127 127 127 127 127 127 127 127 127 127 127 127 127 127 127 127 132 134 136 138 140 142 143 145 147 149 151 153 154 156 158 159 161 162 164 165 167 169 170 171 173 174 175 177 178 179 180 182 183 184 185 186 187 188 189 190 191 192 193 194 193 177 139 129 128 128 128 128 128 128 128 128 128 128 128 128 128 128 126 122 118 114 111 107 104 100 97 94 91 88 85 82 79 77 74 72 70 68 66 64 62 60 59 57 55 54 52 51 50 49 48 46 45 44 43 42 41 40 40 39 38 37 37 36 35 35 34 33 33 32 31 31 30 30 30 29 30 49 116 127 128 128 128 130 132 134 136 138 140 142 143 145 147 149 151 153 154 156 158 159 161 162 164 165 167 169 170 171 173 174 175 177 178 179 180 182 183 184 185 186 187 188 189 190 191 192 193 194 193 177 139 129 128 128 128 128 128 128 128 128 128 128 128 128 128 128
128 128 128 128 128 128 128 128 128 128 128 128 128 128 128 97 58 59 60 61 62 63 64 65 66 67 68 69 70 71 73 74 75 76 77 79 80 81 83 84 86 87 89 90 92 93 95 97 98 100 102 104 105 107 109 111 113 115 117 119 121 123 125 127 128 128 128 130 215 225 225 224 224 223 223 222 222 221 220 220 219 218 218 217 216 216 215 214 213 212 211 210 209 208 207 206 205 203 202 201 199 198 196 195 193 191 189 187 185 183 181 179 176 174 171 169 166 163 160 157 154 150 147 144 140 136 133 129 128 128 128 128 128 128 128 128 128 128 128 128 128 128 128 97 58 59 60 61 62 63 64 65 66 67 68 69 70 71 73 74 75 76 77 79 80 81 83 84 86 87 89 90 92 93 95 97 98 100 102 104 105 107 109 111 113 115 117 119 121 123 125 127 127 127 127 127 127 127 127 127 127 127 127 127 127 127 127 127 127 127 127 127 127 127 127 127 127 127 127 127 127 127 127 127 127 0 0 0 0 0 0 0 0 0 0 0 0 0 0 0 0 0 0 0 0 0 0 0 0 0 0 0 0 0 0 0 0 0 0 0 0 0 0 0 0 0 0 0 0 0 0 0 0 0 0 0 0 0 0 0 0 0 0 0 0 0 127 127 127 127 127 127 127 127 127 127 127 127 127 127 127 127 127 127 127 127 127 127 127 127 127 127 127 127 127 127 127 127 127 127 127 127 133 134 136 138 140 142 144 146 148 149 151 153 155 156 158 160 162 163 165 166 168 169 171 172 174 175 176 178 179 180 181 183 184 185 186 187 188 189 190 191 192 193 194 195 196 194 174 136 128 128 128 128 128 128 128 128 128 128 128 128 128 128 126 122 119 115 111 108 105 101 98 95 92 89 86 84 81 79 76 74 72 70 68 66 64 62 60 59 57 56 54 53 52 50 49 48 47 46 45 44 43 42 41 40 40 39 38 37 37 36 35 35 34 33 33 32 32 31 31 30 35 74 124 128 128 128 129 130 133 134 136 138 140 142 144 146 148 149 151 153 155 156 158 160 162 163 165 166 168 169 171 172 174 175 176 178 179 180 181 183 184 185 186 187 188 189 190 191 192 193 194 195 196 194 174 136 128 128 128 128 128 128 128 128 128 128 128 128 128 128
128 128 128 128 128 128 128 128 128 128 128 128 128 128 108 58 57 58 59 60 61 62 63 64 65 66 67 68 69 70 71 73 74 75 76 78 79 80 82 83 85 86 88 89 91 93 94 96 98 100 101 103 105 107 109 111 113 115 117 119 121 123 124 127 128 128 128 128 182 224 224 223 222 222 221 221 220 220 219 218 218 217 216 215 215 214 213 212 212 211 209 209 207 207 205 204 203 202 200 199 197 196 194 193 191 189 188 186 184 182 179 177 175 172 170 167 164 161 159 156 153 149 146 143 139 136 133 129 128 128 128 128 128 128 128 128 128 128 128 128 128 128 108 58 57 58 59 60 61 62 63 64 65 66 67 68 69 70 71 73 74 75 76 78 79 80 82 83 85 86 88 89 91 93 94 96 98 100 101 103 105 107 109 111 113 115 117 119 121 123 124 127 127 127 127 127 127 127 127 127 127 127 127 127 127 127 127 127 127 127 127 127 127 127 127 127 127 127 127 127 127 127 127 127 127 0 0 0 0 0 0 0 0 0 0 0 0 0 0 0 0 0 0 0 0 0 0 0 0 0 0 0 0 0 0 0 0 0 0 0 0 0 0 0 0 0 0 0 0 0 0 0 0 0 0 0 0 0 0 0 0 0 0 0 0 0 127 127 127 127 127 127 127 127 127 127 127 127 127 127 127 127 127 127 127 127 127 127 127 127 127 127 127 127 127 127 127 127 127 127 127 127 133 134 137 139 140 142 144 146 148 150 152 154 156 157 159 161 162 164 166 167 169 170 171 173 175 176 177 179 180 181 182 184 185 186 187 188 189 190 191 192 193 194 195 196 197 198 194 167 134 128 128 128 128 128 128 128 128 128 128 128 128 128 126 122 119 116 112 109 106 102 99 96 93 91 88 85 83 80 78 76 73 71 69 67 66 64 62 61 59 57 56 55 53 52 51 50 48 48 46 46 45 44 43 42 41 40 39 39 38 37 37 36 35 35 34 34 33 32 32 31 44 104 126 128 128 128 129 130 133 134 137 139 140 142 144 146 148 150 152 154 156 157 159 161 162 164 166 167 169 170 171 173 175 176 177 179 180 181 182 184 185 186 187 188 189 190 191 192 193 194 195 196 197 198 194 167 134 128 128 128 128 128 128 128 128 128 128 128 128 128
128 128 128 128 128 128 128 128 128 128 128 128 128 118 59 56 56 57 58 59 60 61 62 63 64 65 66 67 68 69 70 72 73 74 75 77 78 80 81 82 84 85 87 89 90 92 94 95 97 99 101 103 105 106 108 110 112 114 116 118 120 122 124 127 128 128 128 128 142 220 222 222 221 221 220 220 219 218 218 217 216 216 215 214 213 213 212 211 210 209 208 207 206 205 204 203 201 200 199 197 196 194 193 191 190 188 186 184 182 180 178 176 173 171 169 166 163 160 157 155 152 149 145 142 139 136 133 129 128 128 128 128 128 128 128 128 128 128 128 128 128 118 59 56 56 57 58 59 60 61 62 63 64 65 66 67 68 69 70 72 73 74 75 77 78 80 81 82 84 85 87 89 90 92 94 95 97 99 101 103 105 106 108 110 112 114 116 118 120 122 124 127 127 127 127 127 127 127 127 127 127 127 127 127 127 127 127 127 127 127 127 127 127 127 127 127 127 127 127 127 127 127 127 127 127 0 0 0 0 0 0 0 0 0 0 0 0 0 0 0 0 0 0 0 0 0 0 0 0 0 0 0 0 0 0 0 0 0 0 0 0 0 0 0 0 0 0 0 0 0 0 0 0 0 0 0 0 0 0 0 0 0 0 0 0 0 127 127 127 127 127 127 127 127 127 127 127 127 127 127 127 127 127 127 127 127 127 127 127 127 127 127 127 127 127 127 127 127 127 127 127 127 133 135 137 139 141 143 145 147 149 151 152 154 156 158 160 161 163 165 166 168 169 171 172 174 175 177 178 180 181 182 183 185 186 187 188 189 190 191 192 193 194 195 196 197 198 199 199 194 158 132 128 128 128 128 128 128 128 128 128 128 128 128 126 122 119 116 113 109 106 104 100 97 95 92 89 86 84 82 79 77 75 73 71 69 67 65 64 62 60 59 58 56 55 54 52 51 50 49 48 47 46 45 44 43 42 42 41 40 39 39 38 37 37 36 35 35 34 34 33 35 61 120 128 128 128 128 129 131 133 135 137 139 141 143 145 147 149 151 152 154 156 158 160 161 163 165 166 168 169 171 172 174 175 177 178 180 181 182 183 185 186 187 188 189 190 191 192 193 194 195 196 197 198 199 199 194 158 132 128 128 128 128 128 128 128 128 128 128 128 128
128 128 128 128 128 128 128 128 128 128 128 128 125 67 54 54 55 56 57 58 59 60 61 62 63 64 65 66 67 68 69 70 72 73 75 76 77 79 80 81 83 85 86 88 89 91 93 95 97 98 100 102 104 106 108 110 112 114 116 118 120 122 124 127 128 128 128 128 128 195 221 221 220 219 219 218 218 217 216 216 215 214 213 213 212 211 210 209 208 208 206 205 204 203 202 201 200 199 197 196 194 193 191 190 188 186 184 183 181 178 176 174 172 169 167 164 162 159 157 154 151 148 145 142 139 136 132 129 128 128 128 128 128 128 128 128 128 128 128 128 125 67 54 54 55 56 57 58 59 60 61 62 63 64 65 66 67 68 69 70 72 73 75 76 77 79 80 81 83 85 86 88 89 91 93 95 97 98 100 102 104 106 108 110 112 114 116 118 120 122 124 127 127 127 127 127 127 127 127 127 127 127 127 127 127 127 127 127 127 127 127 127 127 127 127 127 127 127 127 127 127 127 127 127 127 0 0 0 0 0 0 0 0 0 0 0 0 0 0 0 0 0 0 0 0 0 0 0 0 0 0 0 0 0 0 0 0 0 0 0 0 0 0 0 0 0 0 0 0 0 0 0 0 0 0 0 0 0 0 0 0 0 0 0 0 0 127 127 127 127 127 127 127 127 127 127 127 127 127 127 127 127 127 127 127 127 127 127 127 127 127 127 127 127 127 127 127 127 127 127 127 127 133 135 137 139 141 143 145 147 149 151 153 155 157 159 160 162 164 166 167 169 171 172 173 175 176 178 179 181 182 183 184 186 187 188 189 190 191 192 194 194 195 196 197 198 199 200 201 200 192 149 130 128 128 128 128 128 128 128 128 128 128 128 126 123 120 116 113 110 107 104 101 98 96 93 91 88 86 83 81 79 77 74 73 71 69 67 65 64 62 61 59 58 57 55 54 53 52 51 50 48 47 46 46 45 44 43 42 41 41 40 39 38 38 37 37 36 36 35 35 43 92 125 128 128 128 128 129 131 133 135 137 139 141 143 145 147 149 151 153 155 157 159 160 162 164 166 167 169 171 172 173 175 176 178 179 181 182 183 184 186 187 188 189 190 191 192 194 194 195 196 197 198 199 200 201 200 192 149 130 128 128 128 128 128 128 128 128 128 128 128
128 128 128 128 128 128 128 128 128 128 128 128 85 52 53 54 54 55 56 57 58 59 60 61 62 63 64 65 66 67 68 69 71 72 73 75 76 78 79 81 82 84 85 87 89 91 92 94 96 98 99 101 103 105 107 109 111 114 116 118 120 122 124 126 128 128 128 128 128 153 219 219 219 218 218 217 216 216 215 214 214 213 212 211 211 210 209 208 207 206 205 204 203 202 201 200 198 197 196 194 193 191 190 188 186 185 183 181 179 177 175 173 170 168 166 163 161 158 155 153 150 147 144 141 138 135 132 129 128 128 128 128 128 128 128 128 128 128 128 128 85 52 53 54 54 55 56 57 58 59 60 61 62 63 64 65 66 67 68 69 71 72 73 75 76 78 79 81 82 84 85 87 89 91 92 94 96 98 99 101 103 105 107 109 111 114 116 118 120 122 124 126 127 127 127 127 127 127 127 127 127 127 127 127 127 127 127 127 127 127 127 127 127 127 127 127 127 127 127 127 127 127 127 127 127 0 0 0 0 0 0 0 0 0 0 0 0 0 0 0 0 0 0 0 0 0 0 0 0 0 0 0 0 0 0 0 0 0 0 0 0 0 0 0 0 0 0 0 0 0 0 0 0 0 0 0 0 0 0 0 0 0 0 0 0 0 127 127 127 127 127 127 127 127 127 127 127 127 127 127 127 127 127 127 127 127 127 127 127 127 127 127 127 127 127 127 127 127 127 127 127 127 133 135 137 139 141 143 146 148 150 152 154 156 158 159 161 163 165 166 168 170 171 173 174 176 178 179 180 182 183 184 185 187 188 189 190 191 192 193 194 195 196 197 198 199 200 201 202 202 201 185 140 129 128 128 128 128 128 128 128 128 128 128 126 123 120 117 114 111 108 105 102 100 97 94 92 89 87 85 82 80 78 76 74 72 70 69 67 65 64 62 61 59 58 57 56 54 53 52 51 50 49 48 47 46 45 44 44 43 42 41 41 40 39 39 38 37 37 36 37 56 117 127 128 128 128 128 129 131 133 135 137 139 141 143 146 148 150 152 154 156 158 159 161 163 165 166 168 170 171 173 174 176 178 179 180 182 183 184 185 187 188 189 190 191 192 193 194 195 196 197 198 199 200 201 202 202 201 185 140 129 128 128 128 128 128 128 128 128 128 128
128 128 128 128 128 128 128 128 128 128 128 104 50 51 52 53 53 54 55 56 57 58 59 59 61 62 63 64 65 66 67 68 70 71 72 74 75 77 78 80 81 83 84 86 88 89 91 93 95 97 99 101 103 105 107 109 111 113 115 117 120 122 124 126 128 128 128 128 128 129 199 218 218 217 217 216 215 215 214 213 212 212 211 210 209 208 208 207 206 205 203 203 202 200 199 198 197 195 194 193 191 190 188 187 185 183 181 180 177 175 174 171 169 167 164 162 160 157 154 152 149 146 144 141 138 135 132 129 128 128 128 128 128 128 128 128 128 128 128 104 50 51 52 53 53 54 55 56 57 58 59 59 61 62 63 64 65 66 67 68 70 71 72 74 75 77 78 80 81 83 84 86 88 89 91 93 95 97 99 101 103 105 107 109 111 113 115 117 120 122 124 126 127 127 127 127 127 127 127 127 127 127 127 127 127 127 127 127 127 127 127 127 127 127 127 127 127 127 127 127 127 127 127 127 127 0 0 0 0 0 0 0 0 0 0 0 0 0 0 0 0 0 0 0 0 0 0 0 0 0 0 0 0 0 0 0 0 0 0 0 0 0 0 0 0 0 0 0 0 0 0 0 0 0 0 0 0 0 0 0 0 0 0 0 0 0 127 127 127 127 127 127 127 127 127 127 127 127 127 127 127 127 127 127 127 127 127 127 127 127 127 127 127 127 127 127 127 127 127 127 127 127 133 135 138 140 142 144 146 148 150 152 154 156 158 160 162 164 166 167 169 171 172 174 176 177 179 180 181 183 184 185 186 188 189 190 191 192 193 194 196 196 197 198 199 200 201 202 203 203 204 201 173 134 128 128 128 128 128 128 128 128 128 128 126 123 120 117 114 112 109 106 103 100 98 95 93 90 88 86 84 81 80 77 75 74 72 70 68 67 65 64 62 61 60 58 57 56 55 54 52 51 50 49 48 48 47 46 45 44 43 43 42 41 40 40 39 39 38 37 44 88 125 128 128 128 128 128 129 131 133 135 138 140 142 144 146 148 150 152 154 156 158 160 162 164 166 167 169 171 172 174 176 177 179 180 181 183 184 185 186 188 189 190 191 192 193 194 196 196 197 198 199 200 201 202 203 203 204 201 173 134 128 128 128 128 128 128 128 128 128 128
128 128 128 128 128 128 128 128 128 128 121 57 49 50 51 51 52 53 54 55 56 57 57 58 59 60 61 63 64 65 66 67 69 70 71 73 74 76 77 79 80 82 83 85 87 88 90 92 94 96 98 100 102 104 106 108 111 113 115 117 120 122 124 126 128 128 128 128 128 128 157 217 216 216 215 215 214 213 213 212 211 210 210 209 208 207 206 205 204 203 202 201 200 199 198 197 195 194 193 191 190 188 187 185 183 182 180 178 176 174 172 170 168 166 163 161 159 156 154 151 148 146 143 140 137 135 132 129 128 128 128 128 128 128 128 128 128 128 121 57 49 50 51 51 52 53 54 55 56 57 57 58 59 60 61 63 64 65 66 67 69 70 71 73 74 76 77 79 80 82 83 85 87 88 90 92 94 96 98 100 102 104 106 108 111 113 115 117 120 122 124 126 127 127 127 127 127 127 127 127 127 127 127 127 127 127 127 127 127 127 127 127 127 127 127 127 127 127 127 127 127 127 127 127 127 0 0 0 0 0 0 0 0 0 0 0 0 0 0 0 0 0 0 0 0 0 0 0 0 0 0 0 0 0 0 0 0 0 0 0 0 0 0 0 0 0 0 0 0 0 0 0 0 0 0 0 0 0 0 0 0 0 0 0 0 0 127 127 127 127 127 127 127 127 127 127 127 127 127 127 127 127 127 127 127 127 127 127 127 127 127 127 127 127 127 127 127 127 127 127 127 127 133 135 138 140 142 144 147 149 151 153 155 157 159 161 163 165 166 168 170 172 173 175 176 178 179 181 182 184 185 187 188 189 190 191 192 193 194 195 197 198 199 199 200 201 202 203 204 205 205 206 200 155 130 128 128 128 128 128 128 128 128 128 126 123 120 118 115 112 109 107 104 101 99 96 94 92 89 87 85 83 81 79 77 75 73 72 70 68 67 65 64 62 61 60 58 57 56 55 54 53 52 51 50 49 48 47 46 45 45 44 43 42 42 41 40 40 39 39 56 115 127 128 128 128 128 128 129 131 133 135 138 140 142 144 147 149 151 153 155 157 159 161 163 165 166 168 170 172 173 175 176 178 179 181 182 184 185 187 188 189 190 191 192 193 194 195 197 198 199 199 200 201 202 203 204 205 205 206 200 155 130 128 128 128 128 128 128 128 128 128
128 128 128 128 128 128 128 128 128 128 79 47 48 49 50 50 51 52 53 54 54 55 56 57 58 59 61 61 63 64 65 66 67 69 70 71 73 74 76 77 79 81 82 84 86 87 89 91 93 95 97 99 101 104 106 108 110 112 115 117 119 122 124 126 128 128 128 128 128 128 129 197 215 215 214 214 213 212 211 211 210 209 208 208 207 206 205 204 203 202 201 200 199 198 196 195 194 192 191 190 188 187 185 184 182 180 179 177 175 173 171 169 167 165 162 160 157 155 153 150 148 145 142 140 137 134 132 129 128 128 128 128 128 128 128 128 128 128 79 47 48 49 50 50 51 52 53 54 54 55 56 57 58 59 61 61 63 64 65 66 67 69 70 71 73 74 76 77 79 81 82 84 86 87 89 91 93 95 97 99 101 104 106 108 110 112 115 117 119 122 124 126 127 127 127 127 127 127 127 127 127 127 127 127 127 127 127 127 127 127 127 127 127 127 127 127 127 127 127 127 127 127 127 127 127 0 0 0 0 0 0 0 0 0 0 0 0 0 0 0 0 0 0 0 0 0 0 0 0 0 0 0 0 0 0 0 0 0 0 0 0 0 0 0 0 0 0 0 0 0 0 0 0 0 0 0 0 0 0 0 0 0 0 0 0 0 127 127 127 127 127 127 127 127 127 127 127 127 127 127 127 127 127 127 127 127 127 127 127 127 127 127 127 127 127 127 127 127 127 127 127 127 133 136 138 140 143 145 147 149 151 154 156 158 160 162 164 166 167 169 171 173 174 176 178 179 181 182 184 185 186 188 188 190 191 192 194 195 196 197 198 199 200 201 201 203 203 204 205 206 206 207 207 191 141 129 128 128 128 128 128 128 128 128 126 124 121 118 115 113 110 107 105 102 100 97 95 93 90 88 86 84 82 80 78 76 75 73 71 70 68 67 65 64 62 61 60 59 57 56 55 54 53 52 51 50 49 49 47 47 46 45 44 44 43 42 42 41 40 46 89 125 128 128 128 128 128 128 129 131 133 136 138 140 143 145 147 149 151 154 156 158 160 162 164 166 167 169 171 173 174 176 178 179 181 182 184 185 186 188 188 190 191 192 194 195 196 197 198 199 200 201 201 203 203 204 205 206 206 207 207 191 141 129 128 128 128 128 128 128 128 128
128 128 128 128 128 128 128 128 128 106 45 46 47 47 48 49 50 51 51 52 53 54 55 56 57 58 59 60 61 63 64 65 66 68 69 70 72 73 75 76 78 79 81 83 85 87 88 90 92 94 96 99 101 103 105 107 110 112 114 117 119 121 124 126 128 128 128 128 128 128 128 152 214 214 213 212 212 211 210 210 209 208 207 206 205 204 203 203 202 201 199 199 197 196 195 194 192 191 190 188 187 185 184 182 181 179 177 175 174 172 170 168 166 164 161 159 157 154 152 150 147 145 142 139 137 134 131 129 128 128 128 128 128 128 128 128 128 106 45 46 47 47 48 49 50 51 51 52 53 54 55 56 57 58 59 60 61 63 64 65 66 68 69 70 72 73 75 76 78 79 81 83 85 87 88 90 92 94 96 99 101 103 105 107 110 112 114 117 119 121 124 126 127 127 127 127 127 127 127 127 127 127 127 127 127 127 127 127 127 127 127 127 127 127 127 127 127 127 127 127 127 127 127 127 127 0 0 0 0 0 0 0 0 0 0 0 0 0 0 0 0 0 0 0 0 0 0 0 0 0 0 0 0 0 0 0 0 0 0 0 0 0 0 0 0 0 0 0 0 0 0 0 0 0 0 0 0 0 0 0 0 0 0 0 0 0 127 127 127 127 127 127 127 127 127 127 127 127 127 127 127 127 127 127 127 127 127 127 127 127 127 127 127 127 127 127 127 127 127 127 127 127 134 136 138 141 143 145 148 150 152 154 157 159 161 163 165 167 168 170 172 174 175 177 179 180 182 183 185 186 187 189 190 191 192 193 195 196 197 198 199 200 201 202 202 203 204 205 206 207 207 208 209 206 174 134 128 128 128 128 128 128 128 128 126 123 121 118 116 113 111 108 105 103 101 98 96 94 91 89 87 85 83 81 79 78 76 74 73 71 69 68 67 65 64 63 61 60 59 58 56 56 54 53 52 52 50 50 49 48 47 46 46 45 44 43 43 42 42 59 116 127 128 128 128 128 128 128 129 131 134 136 138 141 143 145 148 150 152 154 157 159 161 163 165 167 168 170 172 174 175 177 179 180 182 183 185 186 187 189 190 191 192 193 195 196 197 198 199 200 201 202 202 203 204 205 206 207 207 208 209 206 174 134 128 128 128 128 128 128 128 128
128 128 128 128 128 128 128 128 125 57 44 45 46 47 47 48 49 50 50 51 52 53 54 55 56 57 58 59 60 61 63 64 65 66 68 69 71 72 73 75 77 78 80 82 84 86 87 89 91 93 95 98 100 102 105 107 109 111 114 116 119 121 124 126 128 128 128 128 128 128 128 128 189 213 212 211 211 210 209 208 207 207 206 205 204 203 202 201 200 199 198 197 196 195 194 192 191 190 189 187 186 184 183 181 179 178 176 174 172 170 169 167 165 163 160 158 156 154 151 149 146 144 141 139 136 134 131 129 128 128 128 128 128 128 128 128 125 57 44 45 46 47 47 48 49 50 50 51 52 53 54 55 56 57 58 59 60 61 63 64 65 66 68 69 71 72 73 75 77 78 80 82 84 86 87 89 91 93 95 98 100 102 105 107 109 111 114 116 119 121 124 126 127 127 127 127 127 127 127 127 127 127 127 127 127 127 127 127 127 127 127 127 127 127 127 127 127 127 127 127 127 127 127 127 127 0 0 0 0 0 0 0 0 0 0 0 0 0 0 0 0 0 0 0 0 0 0 0 0 0 0 0 0 0 0 0 0 0 0 0 0 0 0 0 0 0 0 0 0 0 0 0 0 0 0 0 0 0 0 0 0 0 0 0 0 0 127 127 127 127 127 127 127 127 127 127 127 127 127 127 127 127 127 127 127 127 127 127 127 127 127 127 127 127 127 127 127 127 127 127 127 127 134 136 139 141 144 146 148 151 153 155 157 160 161 164 166 168 169 171 173 175 176 178 180 182 183 184 186 187 189 190 191 192 194 195 196 197 198 199 200 201 202 203 204 205 206 206 207 208 209 209 210 210 202 151 130 128 128 128 128 128 128 128 126 124 121 118 116 113 111 109 106 104 102 99 97 95 92 90 88 86 84 83 81 79 77 76 74 72 71 69 68 66 65 64 63 61 60 59 58 57 56 55 54 53 52 51 50 49 48 47 47 46 45 45 44 43 50 95 125 128 128 128 128 128 128 128 129 131 134 136 139 141 144 146 148 151 153 155 157 160 161 164 166 168 169 171 173 175 176 178 180 182 183 184 186 187 189 190 191 192 194 195 196 197 198 199 200 201 202 203 204 205 206 206 207 208 209 209 210 210 202 151 130 128 128 128 128 128 128 128
128 128 128 128 128 128 128 128 94 42 43 44 45 45 46 47 47 48 49 50 51 52 53 54 55 56 57 58 59 60 61 63 64 65 66 68 69 71 72 74 76 77 79 81 83 84 86 88 90 92 95 97 99 102 104 106 109 111 113 116 118 121 124 126 128 128 128 128 128 128 128 128 142 208 210 210 209 209 208 207 206 206 205 204 203 202 201 200 199 198 197 196 195 194 192 191 190 189 187 186 184 183 182 180 178 176 175 173 171 169 168 166 164 161 160 157 155 153 151 148 146 144 141 139 136 134 131 129 128 128 128 128 128 128 128 128 94 42 43 44 45 45 46 47 47 48 49 50 51 52 53 54 55 56 57 58 59 60 61 63 64 65 66 68 69 71 72 74 76 77 79 81 83 84 86 88 90 92 95 97 99 102 104 106 109 111 113 116 118 121 124 126 127 127 127 127 127 127 127 127 127 127 127 127 127 127 127 127 127 127 127 127 127 127 127 127 127 127 127 127 127 127 127 127 127 0 0 0 0 0 0 0 0 0 0 0 0 0 0 0 0 0 0 0 0 0 0 0 0 0 0 0 0 0 0 0 0 0 0 0 0 0 0 0 0 0 0 0 0 0 0 0 0 0 0 0 0 0 0 0 0 0 0 0 0 0 127 127 127 127 127 127 127 127 127 127 127 127 127 127 127 127 127 127 127 127 127 127 127 127 127 127 127 127 127 127 127 127 127 127 127 127 134 136 139 141 144 146 149 151 154 156 158 160 163 165 167 169 170 172 174 176 178 179 181 183 184 186 187 189 190 191 192 194 195 196 197 198 199 200 201 202 203 204 205 206 207 207 208 209 210 211 211 212 211 186 136 128 128 128 128 128 128 128 126 124 121 119 116 114 111 109 107 105 102 100 98 95 93 91 89 87 86 84 82 80 78 77 75 73 72 71 69 68 66 65 64 63 61 60 59 58 57 56 55 54 53 52 51 50 50 49 48 47 47 46 45 46 68 120 128 128 128 128 128 128 128 128 129 131 134 136 139 141 144 146 149 151 154 156 158 160 163 165 167 169 170 172 174 176 178 179 181 183 184 186 187 189 190 191 192 194 195 196 197 198 199 200 201 202 203 204 205 206 207 207 208 209 210 211 211 212 211 186 136 128 128 128 128 128 128 128
128 128 128 128 128 128 128 121 44 41 42 43 43 44 45 46 46 47 48 49 50 50 52 52 53 54 56 56 58 59 60 61 63 64 65 67 68 69 71 73 74 76 78 79 81 83 85 87 89 91 94 96 98 101 103 105 108 111 113 116 118 121 123 126 128 128 128 128 128 128 128 128 128 173 210 209 208 207 207 206 205 204 203 202 202 201 200 199 198 197 196 195 193 192 191 190 189 187 186 185 183 182 180 179 177 175 174 172 170 168 167 165 163 161 159 157 154 152 150 148 145 143 141 138 136 134 131 129 128 128 128 128 128 128 128 121 44 41 42 43 43 44 45 46 46 47 48 49 50 50 52 52 53 54 56 56 58 59 60 61 63 64 65 67 68 69 71 73 74 76 78 79 81 83 85 87 89 91 94 96 98 101 103 105 108 111 113 116 118 121 123 126 127 127 127 127 127 127 127 127 127 127 127 127 127 127 127 127 127 127 127 127 127 127 127 127 127 127 127 127 127 127 127 127 127 0 0 0 0 0 0 0 0 0 0 0 0 0 0 0 0 0 0 0 0 0 0 0 0 0 0 0 0 0 0 0 0 0 0 0 0 0 0 0 0 0 0 0 0 0 0 0 0 0 0 0 0 0 0 0 0 0 0 0 0 0 127 127 127 127 127 127 127 127 127 127 127 127 127 127 127 127 127 127 127 127 127 127 127 127 127 127 127 127 127 127 127 127 127 127 127 127 134 137 139 142 145 147 150 152 154 157 159 161 164 166 168 170 172 174 175 177 179 181 182 184 185 187 188 190 191 192 194 195 196 197 199 199 201 202 203 203 204 205 206 207 208 209 210 210 211 212 212 213 214 208 159 131 128 128 128 128 128 128 126 124 121 119 117 114 112 110 107 105 103 101 99 96 94 92 90 88 87 85 83 81 79 78 76 75 73 72 70 69 68 66 65 64 63 61 60 59 58 57 56 55 54 53 52 51 51 50 49 48 47 47 46 56 104 126 128 128 128 128 128 128 128 128 129 131 134 137 139 142 145 147 150 152 154 157 159 161 164 166 168 170 172 174 175 177 179 181 182 184 185 187 188 190 191 192 194 195 196 197 199 199 201 202 203 203 204 205 206 207 208 209 210 210 211 212 212 213 214 208 159 131 128 128 128 128 128 128
128 128 128 128 128 128 128 86 40 40 41 42 42 43 44 44 45 46 47 47 49 49 50 51 52 53 54 55 56 57 59 60 61 62 64 65 67 68 70 71 73 75 76 78 80 82 84 86 88 90 93 95 97 100 102 105 107 110 113 115 118 121 124 126 128 128 128 128 128 128 128 128 128 131 196 208 207 206 206 205 204 203 203 201 201 200 199 198 197 196 195 194 192 191 190 188 188 186 185 184 182 181 179 178 176 174 173 171 169 167 166 164 162 160 158 156 154 151 149 147 145 143 140 138 136 133 131 129 128 128 128 128 128 128 128 86 40 40 41 42 42 43 44 44 45 46 47 47 49 49 50 51 52 53 54 55 56 57 59 60 61 62 64 65 67 68 70 71 73 75 76 78 80 82 84 86 88 90 93 95 97 100 102 105 107 110 113 115 118 121 124 126 127 127 127 127 127 127 127 127 127 127 127 127 127 127 127 127 127 127 127 127 127 127 127 127 127 127 127 127 127 127 127 127 127 0 0 0 0 0 0 0 0 0 0 0 0 0 0 0 0 0 0 0 0 0 0 0 0 0 0 0 0 0 0 0 0 0 0 0 0 0 0 0 0 0 0 0 0 0 0 0 0 0 0 0 0 0 0 0 0 0 0 0 0 0 127 127 127 127 127 127 127 127 127 127 127 127 127 127 127 127 127 127 127 127 127 127 127 127 127 127 127 127 127 127 127 127 127 127 127 127 134 137 140 142 145 148 150 153 155 157 160 162 165 167 169 171 173 175 177 179 180 182 184 185 187 188 190 191 192 194 195 196 198 199 200 201 202 203 204 205 206 207 208 208 209 210 211 211 212 213 214 214 215 213 193 138 128 128 128 128 128 128 126 124 122 119 117 115 112 110 108 106 104 101 99 97 95 93 91 89 87 86 84 82 81 79 77 76 74 73 71 70 69 67 66 65 64 63 61 61 59 58 57 56 55 54 54 53 52 51 50 50 49 48 52 84 124 128 128 128 128 128 128 128 128 128 129 132 134 137 140 142 145 148 150 153 155 157 160 162 165 167 169 171 173 175 177 179 180 182 184 185 187 188 190 191 192 194 195 196 198 199 200 201 202 203 204 205 206 207 208 208 209 210 211 211 212 213 214 214 215 213 193 138 128 128 128 128 128 128
128 128 128 128 128 128 120 41 38 39 40 40 41 42 42 43 44 45 45 46 47 48 49 50 51 52 53 54 55 56 57 58 60 61 62 64 65 67 68 70 72 73 75 77 79 81 83 85 87 89 92 94 96 99 101 104 107 109 112 115 118 120 123 126 128 128 128 128 128 128 128 128 128 128 149 205 206 205 205 204 203 202 201 200 199 199 198 197 195 194 193 192 191 190 189 188 187 185 184 182 181 179 178 176 175 173 172 170 168 166 165 163 161 159 157 155 153 151 149 147 144 142 140 138 135 133 131 129 128 128 128 128 128 128 120 41 38 39 40 40 41 42 42 43 44 45 45 46 47 48 49 50 51 52 53 54 55 56 57 58 60 61 62 64 65 67 68 70 72 73 75 77 79 81 83 85 87 89 92 94 96 99 101 104 107 109 112 115 118 120 123 126 127 127 127 127 127 127 127 127 127 127 127 127 127 127 127 127 127 127 127 127 127 127 127 127 127 127 127 127 127 127 127 127 127 0 0 0 0 0 0 0 0 0 0 0 0 0 0 0 0 0 0 0 0 0 0 0 0 0 0 0 0 0 0 0 0 0 0 0 0 0 0 0 0 0 0 0 0 0 0 0 0 0 0 0 0 0 0 0 0 0 0 0 0 0 127 127 127 127 127 127 127 127 127 127 127 127 127 127 127 127 127 127 127 127 127 127 127 127 127 127 127 127 127 127 127 127 127 127 127 127 135 137 140 143 146 148 151 154 156 159 161 163 166 168 170 172 174 176 178 180 182 183 185 187 188 190 191 193 194 195 197 198 199 200 201 202 203 204 205 206 207 208 209 210 210 211 212 213 213 214 215 215 216 216 212 163 131 128 128 128 128 128 126 124 122 120 117 115 113 111 108 106 104 102 100 98 96 94 92 90 88 87 85 83 82 80 79 77 76 74 73 71 70 69 67 66 65 64 63 61 60 59 58 57 57 56 55 54 53 52 51 51 50 50 68 116 127 128 128 128 128 128 128 128 128 128 129 132 135 137 140 143 146 148 151 154 156 159 161 163 166 168 170 172 174 176 178 180 182 183 185 187 188 190 191 193 194 195 197 198 199 200 201 202 203 204 205 206 207 208 209 210 210 211 212 213 213 214 215 215 216 216 212 163 131 128 128 128 128 128
128 128 128 128 128 128 86 37 37 38 39 39 40 40 41 42 43 43 44 45 46 47 48 48 49 50 51 52 54 55 56 57 58 60 61 62 64 65 67 68 70 72 74 75 77 80 81 84 86 88 90 93 95 98 100 103 106 109 112 114 117 120 123 126 128 128 128 128 128 128 128 128 128 128 128 173 205 204 203 203 202 201 200 199 198 197 196 196 194 193 192 191 190 189 188 186 185 184 183 181 180 179 177 176 174 172 171 169 167 166 164 162 160 158 156 154 152 150 148 146 144 142 140 138 135 133 131 129 128 128 128 128 128 128 86 37 37 38 39 39 40 40 41 42 43 43 44 45 46 47 48 48 49 50 51 52 54 55 56 57 58 60 61 62 64 65 67 68 70 72 74 75 77 80 81 84 86 88 90 93 95 98 100 103 106 109 112 114 117 120 123 126 127 127 127 127 127 127 127 127 127 127 127 127 127 127 127 127 127 127 127 127 127 127 127 127 127 127 127 127 127 127 127 127 127 0 0 0 0 0 0 0 0 0 0 0 0 0 0 0 0 0 0 0 0 0 0 0 0 0 0 0 0 0 0 0 0 0 0 0 0 0 0 0 0 0 0 0 0 0 0 0 0 0 0 0 0 0 0 0 0 0 0 0 0 0 127 127 127 127 127 127 127 127 127 127 127 127 127 127 127 127 127 127 127 127 127 127 127 127 127 127 127 127 127 127 127 127 127 127 127 127 135 138 141 144 146 149 152 154 157 160 162 164 167 169 171 174 175 177 180 181 183 185 187 188 190 191 193 194 195 197 198 199 200 202 203 203 205 206 207 208 208 209 210 211 212 212 213 214 215 215 216 217 217 218 216 195 138 128 128 128 128 128 126 124 122 120 117 115 113 111 109 107 105 103 101 99 97 95 93 91 89 88 86 84 83 81 80 78 77 75 74 72 71 70 68 67 66 65 64 63 62 61 59 59 58 57 56 55 54 53 53 52 51 60 103 126 128 128 128 128 128 128 128 128 128 128 129 132 135 138 141 144 146 149 152 154 157 160 162 164 167 169 171 174 175 177 180 181 183 185 187 188 190 191 193 194 195 197 198 199 200 202 203 203 205 206 207 208 208 209 210 211 212 212 213 214 215 215 216 217 217 218 216 195 138 128 128 128 128 128
128 128 128 128 128 122 39 36 36 37 37 38 39 39 40 41 41 42 43 44 44 45 46 47 48 49 50 51 52 53 54 56 57 58 59 61 62 64 65 67 69 70 72 74 76 78 80 82 85 87 89 92 94 97 100 102 105 108 111 114 117 120 123 126 128 128 128 128 128 128 128 128 128 128 128 131 189 203 202 202 201 200 199 198 197 196 195 194 193 192 191 190 189 188 187 185 184 183 182 180 179 178 176 174 173 171 170 168 166 165 163 161 159 158 156 154 152 150 148 146 143 141 139 137 135 133 131 129 128 128 128 128 128 122 39 36 36 37 37 38 39 39 40 41 41 42 43 44 44 45 46 47 48 49 50 51 52 53 54 56 57 58 59 61 62 64 65 67 69 70 72 74 76 78 80 82 85 87 89 92 94 97 100 102 105 108 111 114 117 120 123 126 127 127 127 127 127 127 127 127 127 127 127 127 127 127 127 127 127 127 127 127 127 127 127 127 127 127 127 127 127 127 127 127 127 0 0 0 0 0 0 0 0 0 0 0 0 0 0 0 0 0 0 0 0 0 0 0 0 0 0 0 0 0 0 0 0 0 0 0 0 0 0 0 0 0 0 0 0 0 0 0 0 0 0 0 0 0 0 0 0 0 0 0 0 0 127 127 127 127 127 127 127 127 127 127 127 127 127 127 127 127 127 127 127 127 127 127 127 127 127 127 127 127 127 127 127 127 127 127 127 127 135 138 141 144 147 150 153 155 158 161 163 166 168 170 173 175 177 179 181 183 185 186 188 190 191 193 194 196 197 198 200 201 202 203 204 205 206 207 208 209 210 211 211 212 213 214 214 215 216 216 217 218 218 219 219 213 160 131 128 128 128 128 126 124 122 120 118 116 114 111 109 107 105 103 101 99 98 96 94 92 91 89 87 85 84 82 81 79 78 76 75 73 72 71 69 68 67 66 65 64 63 62 61 60 59 58 57 56 55 54 54 53 57 89 124 128 128 128 128 128 128 128 128 128 128 128 129 132 135 138 141 144 147 150 153 155 158 161 163 166 168 170 173 175 177 179 181 183 185 186 188 190 191 193 194 196 197 198 200 201 202 203 204 205 206 207 208 209 210 211 211 212 213 214 214 215 216 216 217 218 218 219 219 213 160 131 128 128 128 128
128 128 128 128 128 91 34 35 35 36 36 37 37 38 38 39 40 41 41 42 43 44 45 46 46 47 48 50 51 52 53 54 55 57 58 59 61 62 64 65 67 69 71 73 74 77 79 81 83 86 88 91 93 96 98 101 104 107 110 113 116 120 123 126 128 128 128 128 128 128 128 128 128 128 128 128 141 198 201 201 200 199 198 197 196 195 194 194 192 191 190 189 188 187 186 184 183 182 181 179 178 176 175 173 172 171 169 167 166 164 162 160 159 157 155 153 151 149 147 145 143 141 139 137 135 133 131 129 128 128 128 128 128 91 34 35 35 36 36 37 37 38 38 39 40 41 41 42 43 44 45 46 46 47 48 50 51 52 53 54 55 57 58 59 61 62 64 65 67 69 71 73 74 77 79 81 83 86 88 91 93 96 98 101 104 107 110 113 116 120 123 126 127 127 127 127 127 127 127 127 127 127 127 127 127 127 127 127 127 127 127 127 127 127 127 127 127 127 127 127 127 127 127 127 127 0 0 0 0 0 0 0 0 0 0 0 0 0 0 0 0 0 0 0 0 0 0 0 0 0 0 0 0 0 0 0 0 0 0 0 0 0 0 0 0 0 0 0 0 0 0 0 0 0 0 0 0 0 0 0 0 0 0 0 0 0 127 127 127 127 127 127 127 127 127 127 127 127 127 127 127 127 127 127 127 127 127 127 127 127 127 127 127 127 127 127 127 127 127 127 127 127 136 139 142 145 148 151 154 157 159 162 164 167 169 172 174 176 178 181 183 184 186 188 190 191 193 194 196 197 199 200 201 202 203 204 205 206 208 208 209 210 211 212 213 213 214 215 216 216 217 218 218 219 219 220 221 219 192 136 128 128 128 128 127 124 122 120 118 116 114 112 110 108 106 104 102 100 98 97 95 93 91 89 88 86 85 83 81 80 79 77 76 75 73 72 70 69 68 67 66 65 64 63 62 61 60 59 58 57 56 55 54 56 77 120 128 128 128 128 128 128 128 128 128 128 128 128 129 132 136 139 142 145 148 151 154 157 159 162 164 167 169 172 174 176 178 181 183 184 186 188 190 191 193 194 196 197 199 200 201 202 203 204 205 206 208 208 209 210 211 212 213 213 214 215 216 216 217 218 218 219 219 220 221 219 192 136 128 128 128 128
128 128 128 128 125 48 33 33 34 34 35 35 36 37 37 38 39 39 40 41 42 42 43 44 45 46 47 48 49 50 51 52 54 55 56 58 59 60 62 64 65 67 69 71 73 75 77 79 82 84 86 89 92 95 97 100 104 106 109 113 116 119 122 126 128 128 128 128 128 128 128 128 128 128 128 128 128 154 199 199 199 198 197 196 195 194 193 192 191 190 189 188 187 186 185 183 182 181 180 178 177 175 174 172 171 169 168 166 165 163 161 160 158 156 154 152 151 149 147 145 143 141 139 137 135 133 131 129 128 128 128 128 125 48 33 33 34 34 35 35 36 37 37 38 39 39 40 41 42 42 43 44 45 46 47 48 49 50 51 52 54 55 56 58 59 60 62 64 65 67 69 71 73 75 77 79 82 84 86 89 92 95 97 100 104 106 109 113 116 119 122 126 127 127 127 127 127 127 127 127 127 127 127 127 127 127 127 127 127 127 127 127 127 127 127 127 127 127 127 127 127 127 127 127 127 0 0 0 0 0 0 0 0 0 0 0 0 0 0 0 0 0 0 0 0 0 0 0 0 0 0 0 0 0 0 0 0 0 0 0 0 0 0 0 0 0 0 0 0 0 0 0 0 0 0 0 0 0 0 0 0 0 0 0 0 0 127 127 127 127 127 127 127 127 127 127 127 127 127 127 127 127 127 127 127 127 127 127 127 127 127 127 127 127 127 127 127 127 127 127 127 127 136 139 142 145 149 152 155 157 160 163 166 169 171 173 176 178 180 182 184 186 188 190 191 193 194 196 197 199 200 201 203 204 205 206 207 208 209 210 211 212 213 213 214 215 216 216 217 218 218 219 220 220 221 221 222 222 214 152 130 128 128 128 127 124 122 120 118 116 114 112 110 108 106 105 103 101 99 97 95 94 92 90 89 87 85 84 82 81 80 78 77 75 74 73 72 70 69 68 67 66 65 64 63 62 61 60 59 58 57 56 57 70 114 127 128 128 128 128 128 128 128 128 128 128 128 128 129 133 136 139 142 145 149 152 155 157 160 163 166 169 171 173 176 178 180 182 184 186 188 190 191 193 194 196 197 199 200 201 203 204 205 206 207 208 209 210 211 212 213 213 214 215 216 216 217 218 218 219 220 220 221 221 222 222 214 152 130 128 128 128
128 128 128 128 106 31 31 32 32 33 34 34 35 35 36 37 37 38 39 39 40 41 42 43 44 45 46 46 48 48 50 51 52 53 55 56 57 59 61 62 64 66 67 69 71 73 76 78 80 83 85 88 91 93 96 99 102 106 109 112 116 119 122 126 128 128 128 128 128 128 128 128 128 128 128 128 128 128 167 198 198 197 196 195 194 193 192 191 190 189 188 187 186 185 184 182 181 180 179 177 176 175 173 171 170 169 167 166 164 162 161 159 157 156 154 152 150 148 146 144 142 140 139 137 134 133 130 129 128 128 128 128 106 31 31 32 32 33 34 34 35 35 36 37 37 38 39 39 40 41 42 43 44 45 46 46 48 48 50 51 52 53 55 56 57 59 61 62 64 66 67 69 71 73 76 78 80 83 85 88 91 93 96 99 102 106 109 112 116 119 122 126 127 127 127 127 127 127 127 127 127 127 127 127 127 127 127 127 127 127 127 127 127 127 127 127 127 127 127 127 127 127 127 127 127 0 0 0 0 0 0 0 0 0 0 0 0 0 0 0 0 0 0 0 0 0 0 0 0 0 0 0 0 0 0 0 0 0 0 0 0 0 0 0 0 0 0 0 0 0 0 0 0 0 0 0 0 0 0 0 0 0 0 0 0 0 127 127 127 127 127 127 127 127 127 127 127 127 127 127 127 127 127 127 127 127 127 127 127 127 127 127 127 127 127 127 127 127 127 127 127 127 136 139 143 146 149 153 156 159 161 164 167 170 172 175 177 179 182 184 186 188 189 191 193 194 196 197 199 200 202 203 204 205 207 207 209 209 211 212 212 213 214 215 215 216 217 218 218 219 220 220 221 221 222 222 223 224 221 183 134 128 128 128 127 124 123 121 119 117 115 113 111 109 107 105 103 101 100 98 96 94 93 91 89 88 86 85 83 82 80 79 78 76 75 74 73 71 70 69 68 67 66 65 64 63 62 61 60 59 58 58 67 106 126 128 128 128 128 128 128 128 128 128 128 128 128 128 129 133 136 139 143 146 149 153 156 159 161 164 167 170 172 175 177 179 182 184 186 188 189 191 193 194 196 197 199 200 202 203 204 205 207 207 209 209 211 212 212 213 214 215 215 216 217 218 218 219 220 220 221 221 222 222 223 224 221 183 134 128 128 128
128 128 128 128 67 30 30 31 31 32 32 33 33 34 35 35 36 37 37 38 39 40 40 41 42 43 44 45 46 47 48 49 50 52 53 54 56 57 59 60 62 64 66 68 70 72 74 76 79 81 84 86 89 92 95 98 101 105 108 111 115 119 122 126 128 128 128 128 128 128 128 128 128 128 128 128 128 128 129 176 197 196 195 194 193 192 191 190 189 188 187 186 185 184 183 181 180 179 178 176 175 174 172 171 169 168 166 165 163 162 160 158 156 155 153 151 149 148 146 144 142 140 138 136 134 133 130 129 128 128 128 128 67 30 30 31 31 32 32 33 33 34 35 35 36 37 37 38 39 40 40 41 42 43 44 45 46 47 48 49 50 52 53 54 56 57 59 60 62 64 66 68 70 72 74 76 79 81 84 86 89 92 95 98 101 105 108 111 115 119 122 126 127 127 127 127 127 127 127 127 127 127 127 127 127 127 127 127 127 127 127 127 127 127 127 127 127 127 127 127 127 127 127 127 127 0 0 0 0 0 0 0 0 0 0 0 0 0 0 0 0 0 0 0 0 0 0 0 0 0 0 0 0 0 0 0 0 0 0 0 0 0 0 0 0 0 0 0 0 0 0 0 0 0 0 0 0 0 0 0 0 0 0 0 0 0 127 127 127 127 127 127 127 127 127 127 127 127 127 127 127 127 127 127 127 127 127 127 127 127 127 127 127 127 127 127 127 127 127 127 127 127 136 140 144 147 150 154 157 160 163 166 169 171 174 176 179 181 183 185 187 189 191 193 195 196 198 199 201 202 203 205 206 207 208 209 210 211 212 213 214 215 216 216 217 218 218 219 220 220 221 222 222 223 223 224 224 225 224 209 141 128 128 128 127 125 123 121 119 117 115 113 111 109 107 105 104 102 100 98 97 95 93 92 90 89 87 86 84 83 81 80 79 77 76 75 74 73 71 70 69 68 67 66 65 64 63 62 61 60 59 65 98 125 128 128 128 128 128 128 128 128 128 128 128 128 128 128 129 133 136 140 144 147 150 154 157 160 163 166 169 171 174 176 179 181 183 185 187 189 191 193 195 196 198 199 201 202 203 205 206 207 208 209 210 211 212 213 214 215 216 216 217 218 218 219 220 220 221 222 222 223 223 224 224 225 224 209 141 128 128 128
128 128 128 121 31 29 29 30 30 30 31 31 32 33 33 34 35 35 36 37 37 38 39 40 40 41 42 43 44 45 46 48 49 50 51 52 54 55 57 59 60 62 64 66 68 70 72 74 77 79 82 85 88 91 94 97 100 104 107 111 114 118 122 126 128 128 128 128 128 128 128 128 128 128 128 128 128 128 128 131 180 195 194 193 192 191 190 189 188 187 186 185 184 183 182 180 179 178 177 175 174 173 171 170 169 167 165 164 162 161 159 158 156 154 153 151 149 147 145 143 142 140 138 136 134 132 130 128 128 128 128 121 31 29 29 30 30 30 31 31 32 33 33 34 35 35 36 37 37 38 39 40 40 41 42 43 44 45 46 48 49 50 51 52 54 55 57 59 60 62 64 66 68 70 72 74 77 79 82 85 88 91 94 97 100 104 107 111 114 118 122 126 127 127 127 127 127 127 127 127 127 127 127 127 127 127 127 127 127 127 127 127 127 127 127 127 127 127 127 127 127 127 127 127 127 0 0 0 0 0 0 0 0 0 0 0 0 0 0 0 0 0 0 0 0 0 0 0 0 0 0 0 0 0 0 0 0 0 0 0 0 0 0 0 0 0 0 0 0 0 0 0 0 0 0 0 0 0 0 0 0 0 0 0 0 0 127 127 127 127 127 127 127 127 127 127 127 127 127 127 127 127 127 127 127 127 127 127 127 127 127 127 127 127 127 127 127 127 127 127 127 127 137 141 144 148 151 155 158 161 164 167 170 173 176 178 181 183 185 187 189 191 193 195 196 198 200 201 203 204 205 206 208 209 210 211 212 213 214 215 215 216 217 218 219 219 220 220 221 222 222 223 223 224 224 225 226 226 227 221 164 131 128 128 127 125 123 121 119 117 115 113 112 110 108 106 104 102 101 99 98 96 94 93 91 89 88 87 85 84 82 81 80 78 77 76 74 73 72 71 70 69 68 67 66 65 64 63 62 61 66 95 124 128 128 128 128 128 128 128 128 128 128 128 128 128 128 128 129 133 137 141 144 148 151 155 158 161 164 167 170 173 176 178 181 183 185 187 189 191 193 195 196 198 200 201 203 204 205 206 208 209 210 211 212 213 214 215 215 216 217 218 219 219 220 220 221 222 222 223 223 224 224 225 226 226 227 221 164 131 128 128
128 128 128 96 27 27 28 28 28 29 30 30 31 31 32 32 33 34 34 35 36 36 37 38 39 40 41 42 43 44 45 46 47 48 49 51 52 53 55 57 58 60 62 64 66 68 70 73 75 78 80 83 86 89 92 96 99 103 106 110 114 118 122 126 128 128 128 128 128 128 128 128 128 128 128 128 128 128 128 128 134 183 193 192 191 190 189 188 187 186 185 184 183 182 181 180 178 177 176 175 173 172 170 169 168 166 165 163 162 160 159 157 155 154 152 150 148 147 145 143 141 140 138 136 134 132 130 129 128 128 128 96 27 27 28 28 28 29 30 30 31 31 32 32 33 34 34 35 36 36 37 38 39 40 41 42 43 44 45 46 47 48 49 51 52 53 55 57 58 60 62 64 66 68 70 73 75 78 80 83 86 89 92 96 99 103 106 110 114 118 122 126 127 127 127 127 127 127 127 127 127 127 127 127 127 127 127 127 127 127 127 127 127 127 127 127 127 127 127 127 127 127 127 127 127 0 0 0 0 0 0 0 0 0 0 0 0 0 0 0 0 0 0 0 0 0 0 0 0 0 0 0 0 0 0 0 0 0 0 0 0 0 0 0 0 0 0 0 0 0 0 0 0 0 0 0 0 0 0 0 0 0 0 0 0 0 127 127 127 127 127 127 127 127 127 127 127 127 127 127 127 127 127 127 127 127 127 127 127 127 127 127 127 127 127 127 127 127 127 127 127 127 137 141 145 149 152 156 159 163 166 169 172 175 177 180 182 185 187 189 191 193 195 197 199 200 202 203 204 206 207 208 209 210 211 213 213 214 215 216 217 218 219 219 220 221 221 222 222 223 224 224 225 225 226 226 227 227 228 225 193 135 128 128 127 125 123 121 119 117 115 114 112 110 108 107 105 103 101 100 98 96 95 93 92 90 89 87 86 84 83 82 80 79 78 77 76 74 73 72 71 70 69 68 67 66 64 64 63 66 91 122 128 128 128 128 128 128 128 128 128 128 128 128 128 128 128 128 129 134 137 141 145 149 152 156 159 163 166 169 172 175 177 180 182 185 187 189 191 193 195 197 199 200 202 203 204 206 207 208 209 210 211 213 213 214 215 216 217 218 219 219 220 221 221 222 222 223 224 224 225 225 226 226 227 227 228 225 193 135 128 128
128 128 128 62 26 26 27 27 27 28 28 29 29 30 31 31 32 32 33 33 34 35 36 36 37 38 39 40 41 42 43 44 45 46 47 49 50 52 53 55 56 58 60 62 64 66 68 70 73 76 78 81 84 88 91 94 98 102 105 109 113 117 121 125 128 128 128 128 128 128 128 128 128 128 128 128 128 128 128 128 128 136 183 191 190 189 188 187 186 185 184 183 182 181 180 179 177 176 175 174 172 171 170 168 167 165 164 163 161 160 158 156 155 153 151 150 148 146 145 143 141 139 138 136 134 132 130 128 128 128 128 62 26 26 27 27 27 28 28 29 29 30 31 31 32 32 33 33 34 35 36 36 37 38 39 40 41 42 43 44 45 46 47 49 50 52 53 55 56 58 60 62 64 66 68 70 73 76 78 81 84 88 91 94 98 102 105 109 113 117 121 125 127 127 127 127 127 127 127 127 127 127 127 127 127 127 127 127 127 127 127 127 127 127 127 127 127 127 127 127 127 127 127 127 127 0 0 0 0 0 0 0 0 0 0 0 0 0 0 0 0 0 0 0 0 0 0 0 0 0 0 0 0 0 0 0 0 0 0 0 0 0 0 0 0 0 0 0 0 0 0 0 0 0 0 0 0 0 0 0 0 0 0 0 0 0 127 127 127 127 127 127 127 127 127 127 127 127 127 127 127 127 127 127 127 127 127 127 127 127 127 127 127 127 127 127 127 127 127 127 127 127 138 142 146 150 154 157 161 164 168 171 174 177 180 182 184 187 189 191 193 195 197 199 200 202 204 205 206 208 209 210 211 212 213 214 215 216 217 218 219 219 220 221 221 222 223 223 224 224 225 226 226 227 227 228 228 229 229 228 215 143 128 128 126 125 123 121 119 117 116 114 112 110 109 107 105 104 102 100 99 97 95 94 93 91 89 88 87 85 84 83 81 80 79 78 76 75 74 73 72 71 70 68 68 67 66 65 68 88 121 127 128 128 128 128 128 128 128 128 128 128 128 128 128 128 128 128 130 134 138 142 146 150 154 157 161 164 168 171 174 177 180 182 184 187 189 191 193 195 197 199 200 202 204 205 206 208 209 210 211 212 213 214 215 216 217 218 219 219 220 221 221 222 223 223 224 224 225 226 226 227 227 228 228 229 229 228 215 143 128 128
128 128 121 28 24 25 25 26 26 27 27 28 28 28 29 29 30 31 31 32 33 33 34 35 36 36 37 38 39 40 41 42 43 44 46 47 48 49 51 52 54 56 58 60 62 64 66 68 71 74 76 79 82 86 89 92 96 100 104 108 112 117 121 125 128 128 128 128 128 128 128 128 128 128 128 128 128 128 128 128 128 128 136 182 190 188 187 187 185 184 183 182 181 180 179 178 177 175 174 173 172 170 169 168 166 165 163 162 160 159 157 156 154 152 151 149 147 146 144 142 141 139 137 135 134 132 130 129 128 128 121 28 24 25 25 26 26 27 27 28 28 28 29 29 30 31 31 32 33 33 34 35 36 36 37 38 39 40 41 42 43 44 46 47 48 49 51 52 54 56 58 60 62 64 66 68 71 74 76 79 82 86 89 92 96 100 104 108 112 117 121 125 127 127 127 127 127 127 127 127 127 127 127 127 127 127 127 127 127 127 127 127 127 127 127 127 127 127 127 127 127 127 127 127 127 0 0 0 0 0 0 0 0 0 0 0 0 0 0 0 0 0 0 0 0 0 0 0 0 0 0 0 0 0 0 0 0 0 0 0 0 0 0 0 0 0 0 0 0 0 0 0 0 0 0 0 0 0 0 0 0 0 0 0 0 0 127 127 127 127 127 127 127 127 127 127 127 127 127 127 127 127 127 127 127 127 127 127 127 127 127 127 127 127 127 127 127 127 127 127 127 127 139 143 147 151 155 159 163 166 169 173 176 179 182 184 187 189 191 193 196 197 199 201 202 204 205 207 208 209 211 212 213 214 215 216 217 218 219 220 220 221 222 222 223 224 224 225 225 226 227 227 227 228 229 229 229 230 230 231 225 164 131 128 127 125 123 121 120 118 116 114 113 111 109 107 106 104 102 101 99 98 96 95 93 92 90 89 87 86 85 83 82 81 80 78 77 76 75 74 73 72 71 70 68 68 66 70 89 120 127 128 128 128 128 128 128 128 128 128 128 128 128 128 128 128 128 128 130 134 139 143 147 151 155 159 163 166 169 173 176 179 182 184 187 189 191 193 196 197 199 201 202 204 205 207 208 209 211 212 213 214 215 216 217 218 219 220 220 221 222 222 223 224 224 225 225 226 227 227 227 228 229 229 229 230 230 231 225 164 131 128
128 128 102 23 23 24 24 24 25 25 26 26 27 27 28 28 29 29 30 30 31 32 32 33 34 35 35 36 37 38 39 40 41 42 44 45 46 47 49 50 52 54 55 57 59 62 64 66 69 71 74 77 80 84 87 91 95 99 103 107 112 116 120 125 128 128 128 128 128 128 128 128 128 128 128 128 128 128 128 128 128 128 128 135 178 188 187 186 185 184 183 182 180 179 178 177 176 175 173 172 171 169 168 167 166 164 163 161 160 158 157 155 154 152 150 149 147 146 144 142 140 139 137 135 133 132 130 128 128 128 102 23 23 24 24 24 25 25 26 26 27 27 28 28 29 29 30 30 31 32 32 33 34 35 35 36 37 38 39 40 41 42 44 45 46 47 49 50 52 54 55 57 59 62 64 66 69 71 74 77 80 84 87 91 95 99 103 107 112 116 120 125 127 127 127 127 127 127 127 127 127 127 127 127 127 127 127 127 127 127 127 127 127 127 127 127 127 127 127 127 127 127 127 127 127 0 0 0 0 0 0 0 0 0 0 0 0 0 0 0 0 0 0 0 0 0 0 0 0 0 0 0 0 0 0 0 0 0 0 0 0 0 0 0 0 0 0 0 0 0 0 0 0 0 0 0 0 0 0 0 0 0 0 0 0 0 127 127 127 127 127 127 127 127 127 127 127 127 127 127 127 127 127 127 127 127 127 127 127 127 127 127 127 127 127 127 127 127 127 127 127 127 139 144 148 152 156 160 164 168 172 175 178 181 184 186 189 191 193 196 198 200 201 203 205 206 208 209 210 212 213 214 215 216 217 218 219 220 220 221 222 223 223 224 225 225 226 226 227 228 228 229 229 229 230 230 231 231 231 232 229 191 135 128 127 125 123 121 120 118 116 114 113 111 110 108 106 105 103 101 100 98 97 95 94 92 91 90 88 87 86 84 83 82 80 79 78 77 75 74 73 72 71 70 69 68 72 93 121 127 128 128 128 128 128 128 128 128 128 128 128 128 128 128 128 128 128 128 130 134 139 144 148 152 156 160 164 168 172 175 178 181 184 186 189 191 193 196 198 200 201 203 205 206 208 209 210 212 213 214 215 216 217 218 219 220 220 221 222 223 223 224 225 225 226 226 227 228 228 229 229 229 230 230 231 231 231 232 229 191 135 128
128 128 77 22 22 22 23 23 23 24 24 25 25 25 26 27 27 28 28 29 29 30 31 32 32 33 34 35 35 36 37 38 39 40 41 43 44 45 47 48 50 51 53 55 57 59 61 64 66 69 72 75 78 82 85 89 93 97 101 106 110 115 120 125 128 128 128 128 128 128 128 128 128 128 128 128 128 128 128 128 128 128 128 128 133 173 186 185 184 183 182 181 180 179 177 176 175 174 173 171 170 169 167 166 165 163 162 161 159 158 156 155 153 152 150 148 147 145 144 142 140 138 137 135 133 132 130 128 128 128 77 22 22 22 23 23 23 24 24 25 25 25 26 27 27 28 28 29 29 30 31 32 32 33 34 35 35 36 37 38 39 40 41 43 44 45 47 48 50 51 53 55 57 59 61 64 66 69 72 75 78 82 85 89 93 97 101 106 110 115 120 125 127 127 127 127 127 127 127 127 127 127 127 127 127 127 127 127 127 127 127 127 127 127 127 127 127 127 127 127 127 127 127 127 127 0 0 0 0 0 0 0 0 0 0 0 0 0 0 0 0 0 0 0 0 0 0 0 0 0 0 0 0 0 0 0 0 0 0 0 0 0 0 0 0 0 0 0 0 0 0 0 0 0 0 0 0 0 0 0 0 0 0 0 0 0 127 127 127 127 127 127 127 127 127 127 127 127 127 127 127 127 127 127 127 127 127 127 127 127 127 127 127 127 127 127 127 127 127 127 127 127 140 144 149 154 158 162 166 170 173 177 180 183 186 189 191 194 196 198 200 202 204 205 207 209 210 211 212 214 215 216 217 218 219 220 221 221 222 223 224 224 225 226 226 227 227 228 228 229 229 230 230 231 231 231 232 232 232 233 232 212 140 128 127 125 123 122 120 118 117 115 113 112 110 108 107 105 103 102 100 99 97 96 94 93 92 90 89 88 86 85 84 82 81 80 79 77 76 75 74 73 72 71 70 75 98 123 128 128 128 128 128 128 128 128 128 128 128 128 128 128 128 128 128 128 128 128 130 135 140 144 149 154 158 162 166 170 173 177 180 183 186 189 191 194 196 198 200 202 204 205 207 209 210 211 212 214 215 216 217 218 219 220 221 221 222 223 224 224 225 226 226 227 227 228 228 229 229 230 230 231 231 231 232 232 232 233 232 212 140 128
128 129 34 20 21 21 21 22 22 22 23 23 24 24 25 25 25 26 27 27 28 28 29 29 30 31 32 33 34 34 35 36 37 38 39 40 42 43 44 46 47 49 51 53 55 56 59 61 64 66 69 72 76 79 83 87 91 95 100 104 109 115 120 125 128 128 128 128 128 128 128 128 128 128 128 128 128 128 128 128 128 128 128 128 128 131 167 184 183 182 181 180 179 178 177 175 174 173 172 171 169 168 167 165 164 163 161 160 159 157 156 154 153 151 150 148 146 145 143 142 140 138 137 135 133 131 130 128 128 129 34 20 21 21 21 22 22 22 23 23 24 24 25 25 25 26 27 27 28 28 29 29 30 31 32 33 34 34 35 36 37 38 39 40 42 43 44 46 47 49 51 53 55 56 59 61 64 66 69 72 76 79 83 87 91 95 100 104 109 115 120 125 127 127 127 127 127 127 127 127 127 127 127 127 127 127 127 127 127 127 127 127 127 127 127 127 127 127 127 127 127 127 127 127 127 0 0 0 0 0 0 0 0 0 0 0 0 0 0 0 0 0 0 0 0 0 0 0 0 0 0 0 0 0 0 0 0 0 0 0 0 0 0 0 0 0 0 0 0 0 0 0 0 0 0 0 0 0 0 0 0 0 0 0 0 0 127 127 127 127 127 127 127 127 127 127 127 127 127 127 127 127 127 127 127 127 127 127 127 127 127 127 127 127 127 127 127 127 127 127 127 127 140 146 151 155 160 164 168 172 176 179 183 186 189 191 194 196 198 200 202 204 206 208 209 211 212 213 214 216 217 218 219 220 221 222 222 223 224 225 225 226 227 227 228 228 229 229 230 230 231 231 232 232 232 233 233 234 234 234 235 226 151 129 127 125 123 122 120 118 117 115 114 112 110 109 107 105 104 102 101 99 98 96 95 94 92 91 89 88 87 86 84 83 82 81 80 79 77 76 75 74 73 73 78 102 124 128 128 128 128 128 128 128 128 128 128 128 128 128 128 128 128 128 128 128 128 128 130 135 140 146 151 155 160 164 168 172 176 179 183 186 189 191 194 196 198 200 202 204 206 208 209 211 212 213 214 216 217 218 219 220 221 222 222 223 224 225 225 226 227 227 228 228 229 229 230 230 231 231 232 232 232 233 233 234 234 234 235 226 151 129
128 116 20 19 20 20 20 20 21 21 21 22 22 23 23 24 24 25 25 26 26 27 27 28 29 29 30 31 32 32 33 34 35 36 37 38 39 41 42 44 45 46 48 50 52 54 56 59 61 64 67 70 73 77 80 85 89 93 98 103 108 114 119 125 128 128 128 128 128 128 128 128 128 128 128 128 128 128 128 128 128 128 128 128 128 128 129 157 181 181 180 179 178 177 176 175 174 172 171 170 169 167 166 165 164 162 161 159 158 156 155 154 152 151 149 148 146 144 143 141 140 138 137 135 133 132 130 128 128 116 20 19 20 20 20 20 21 21 21 22 22 23 23 24 24 25 25 26 26 27 27 28 29 29 30 31 32 32 33 34 35 36 37 38 39 41 42 44 45 46 48 50 52 54 56 59 61 64 67 70 73 77 80 85 89 93 98 103 108 114 119 125 127 127 127 127 127 127 127 127 127 127 127 127 127 127 127 127 127 127 127 127 127 127 127 127 127 127 127 127 127 127 127 127 127 0 0 0 0 0 0 0 0 0 0 0 0 0 0 0 0 0 0 0 0 0 0 0 0 0 0 0 0 0 0 0 0 0 0 0 0 0 0 0 0 0 0 0 0 0 0 0 0 0 0 0 0 0 0 0 0 0 0 0 0 0 127 127 127 127 127 127 127 127 127 127 127 127 127 127 127 127 127 127 127 127 127 127 127 127 127 127 127 127 127 127 127 127 127 127 127 127 141 147 152 157 162 166 170 174 178 182 185 188 191 194 197 199 201 203 205 207 209 210 212 213 214 216 217 218 219 220 221 222 223 224 224 225 226 226 227 228 228 229 229 230 231 231 231 232 232 233 233 234 234 234 235 235 235 236 236 231 173 132 127 125 123 122 120 119 117 115 114 112 110 109 107 106 104 103 101 100 99 97 96 94 93 91 90 89 88 86 85 84 83 81 80 79 78 77 76 75 75 82 109 125 128 128 128 128 128 128 128 128 128 128 128 128 128 128 128 128 128 128 128 128 128 128 130 136 141 147 152 157 162 166 170 174 178 182 185 188 191 194 197 199 201 203 205 207 209 210 212 213 214 216 217 218 219 220 221 222 223 224 224 225 226 226 227 228 228 229 229 230 231 231 231 232 232 233 233 234 234 234 235 235 235 236 236 231 173 132
128 100 18 18 18 18 19 19 19 20 20 21 21 21 22 22 22 23 23 24 24 25 26 26 27 28 28 29 30 30 31 32 33 34 35 36 37 38 40 41 42 44 45 47 49 51 53 56 58 61 63 67 70 74 78 82 86 91 96 101 107 113 119 125 128 128 128 128 128 128 128 128 128 128 128 128 128 128 128 128 128 128 128 128 128 128 128 128 146 177 179 178 177 176 175 174 173 172 171 169 168 167 166 164 163 161 160 159 157 156 155 153 152 150 149 147 145 144 143 141 140 138 136 135 133 132 130 128 128 100 18 18 18 18 19 19 19 20 20 21 21 21 22 22 22 23 23 24 24 25 26 26 27 28 28 29 30 30 31 32 33 34 35 36 37 38 40 41 42 44 45 47 49 51 53 56 58 61 63 67 70 74 78 82 86 91 96 101 107 113 119 125 127 127 127 127 127 127 127 127 127 127 127 127 127 127 127 127 127 127 127 127 127 127 127 127 127 127 127 127 127 127 127 127 127 0 0 0 0 0 0 0 0 0 0 0 0 0 0 0 0 0 0 0 0 0 0 0 0 0 0 0 0 0 0 0 0 0 0 0 0 0 0 0 0 0 0 0 0 0 0 0 0 0 0 0 0 0 0 0 0 0 0 0 0 0 127 127 127 127 127 127 127 127 127 127 127 127 127 127 127 127 127 127 127 127 127 127 127 127 127 127 127 127 127 127 127 127 127 127 127 127 142 148 154 159 164 169 173 177 181 185 188 191 194 197 199 202 204 206 208 210 211 213 214 216 217 218 219 220 221 222 223 224 225 226 226 227 228 228 229 229 230 231 231 231 232 232 233 233 234 234 234 235 235 236 236 236 237 237 237 234 194 135 127 125 123 122 120 119 117 115 114 112 111 110 108 106 105 103 102 100 99 98 96 95 93 92 91 90 88 87 86 85 84 82 81 80 79 78 77 78 89 116 126 128 128 128 128 128 128 128 128 128 128 128 128 128 128 128 128 128 128 128 128 128 128 128 131 137 142 148 154 159 164 169 173 177 181 185 188 191 194 197 199 202 204 206 208 210 211 213 214 216 217 218 219 220 221 222 223 224 225 226 226 227 228 228 229 229 230 231 231 231 232 232 233 233 234 234 234 235 235 236 236 236 237 237 237 234 194 136
128 81 16 16 17 17 17 18 18 18 19 19 19 20 20 20 21 21 22 22 23 23 24 24 25 25 26 27 28 28 29 30 31 31 33 34 35 36 37 38 40 41 43 44 46 48 51 53 55 58 61 64 67 71 75 79 84 89 94 99 105 111 118 124 128 128 128 128 128 128 128 128 128 128 128 128 128 128 128 128 128 128 128 128 128 128 128 128 128 136 168 178 176 175 174 173 172 171 170 169 167 166 165 164 162 161 160 158 157 156 154 153 151 150 148 147 145 144 142 141 139 138 136 135 133 131 130 128 128 81 16 16 17 17 17 18 18 18 19 19 19 20 20 20 21 21 22 22 23 23 24 24 25 25 26 27 28 28 29 30 31 31 33 34 35 36 37 38 40 41 43 44 46 48 51 53 55 58 61 64 67 71 75 79 84 89 94 99 105 111 118 124 127 127 127 127 127 127 127 127 127 127 127 127 127 127 127 127 127 127 127 127 127 127 127 127 127 127 127 127 127 127 127 127 127 0 0 0 0 0 0 0 0 0 0 0 0 0 0 0 0 0 0 0 0 0 0 0 0 0 0 0 0 0 0 0 0 0 0 0 0 0 0 0 0 0 0 0 0 0 0 0 0 0 0 0 0 0 0 0 0 0 0 0 0 0 127 127 127 127 127 127 127 127 127 127 127 127 127 127 127 127 127 127 127 127 127 127 127 127 127 127 127 127 127 127 127 127 127 127 127 127 144 150 156 161 166 171 176 180 184 188 191 195 197 200 202 205 207 209 211 212 214 215 217 218 219 220 221 222 223 224 225 226 227 228 228 229 229 230 231 231 232 232 233 233 234 234 235 235 235 236 236 236 237 237 237 238 238 238 238 237 212 138 127 125 123 122 120 119 117 116 114 113 111 110 108 107 105 104 102 101 100 98 97 95 94 93 91 90 89 88 87 85 84 83 82 81 80 79 82 98 121 127 128 128 128 128 128 128 128 128 128 128 128 128 128 128 128 128 128 128 128 128 128 128 128 128 131 137 144 150 156 161 166 171 176 180 184 188 191 195 197 200 202 205 207 209 211 212 214 215 217 218 219 220 221 222 223 224 225 226 227 228 228 229 229 230 231 231 232 232 233 233 234 234 235 235 235 236 236 236 237 237 237 238 238 238 238 237 212 139
128 63 15 15 15 16 16 16 17 17 17 18 18 18 18 19 19 20 20 20 21 22 22 23 23 24 24 25 25 26 27 28 29 29 30 31 32 33 34 36 37 38 40 42 43 45 47 49 52 54 57 60 64 67 72 76 81 86 91 97 104 110 117 124 128 128 128 128 128 128 128 128 128 128 128 128 128 128 128 128 128 128 128 128 128 128 128 128 128 128 130 155 175 175 173 173 171 170 169 168 167 165 164 163 162 160 159 158 156 155 154 152 151 149 148 146 145 144 142 140 139 138 136 135 133 131 130 128 128 63 15 15 15 16 16 16 17 17 17 18 18 18 18 19 19 20 20 20 21 22 22 23 23 24 24 25 25 26 27 28 29 29 30 31 32 33 34 36 37 38 40 42 43 45 47 49 52 54 57 60 64 67 72 76 81 86 91 97 104 110 117 124 127 127 127 127 127 127 127 127 127 127 127 127 127 127 127 127 127 127 127 127 127 127 127 127 127 127 127 127 127 127 127 127 127 0 0 0 0 0 0 0 0 0 0 0 0 0 0 0 0 0 0 0 0 0 0 0 0 0 0 0 0 0 0 0 0 0 0 0 0 0 0 0 0 0 0 0 0 0 0 0 0 0 0 0 0 0 0 0 0 0 0 0 0 0 127 127 127 127 127 127 127 127 127 127 127 127 127 127 127 127 127 127 127 127 127 127 127 127 127 127 127 127 127 127 127 127 127 127 127 127 145 152 158 164 169 174 179 183 187 191 195 198 201 203 205 208 210 212 213 215 217 218 219 220 222 223 224 225 226 227 227 228 229 229 230 231 231 232 233 233 234 234 234 235 235 236 236 237 237 237 238 238 238 238 239 239 239 239 240 239 226 143 127 125 124 122 120 119 117 116 115 113 111 110 109 107 106 104 103 101 100 99 97 96 95 93 92 91 89 88 87 86 85 84 83 81 82 88 109 125 128 128 128 128 128 128 128 128 128 128 128 128 128 128 128 128 128 128 128 128 128 128 128 128 128 128 131 138 145 152 158 164 169 174 179 183 187 191 195 198 201 203 205 208 210 212 213 215 217 218 219 220 222 223 224 225 226 227 227 228 229 229 230 231 231 232 233 233 234 234 234 235 235 236 236 237 237 237 238 238 238 238 239 239 239 239 240 239 226 145
130 25 14 14 14 14 15 15 15 16 16 16 16 17 17 17 18 18 19 19 19 20 20 20 21 22 22 23 23 24 25 25 26 27 28 29 30 31 32 33 34 36 37 39 40 42 44 46 48 51 54 57 60 64 68 72 77 83 88 95 101 109 116 124 128 128 128 128 128 128 128 128 128 128 128 128 128 128 128 128 128 128 128 128 128 128 128 128 128 128 128 128 140 166 173 172 171 170 168 167 166 165 164 162 161 160 159 157 156 155 153 152 150 149 148 146 145 143 142 140 139 137 136 134 133 131 130 128 130 25 14 14 14 14 15 15 15 16 16 16 16 17 17 17 18 18 19 19 19 20 20 20 21 22 22 23 23 24 25 25 26 27 28 29 30 31 32 33 34 36 37 39 40 42 44 46 48 51 54 57 60 64 68 72 77 83 88 95 101 109 116 124 127 127 127 127 127 127 127 127 127 127 127 127 127 127 127 127 127 127 127 127 127 127 127 127 127 127 127 127 127 127 127 127 127 0 0 0 0 0 0 0 0 0 0 0 0 0 0 0 0 0 0 0 0 0 0 0 0 0 0 0 0 0 0 0 0 0 0 0 0 0 0 0 0 0 0 0 0 0 0 0 0 0 0 0 0 0 0 0 0 0 0 0 0 0 127 127 127 127 127 127 127 127 127 127 127 127 127 127 127 127 127 127 127 127 127 127 127 127 127 127 127 127 127 127 127 127 127 127 127 127 147 154 160 167 173 178 183 187 191 195 198 201 204 207 209 211 213 215 217 218 220 221 222 223 224 225 226 227 228 229 230 230 231 232 232 233 233 234 234 235 235 236 236 237 237 237 238 238 238 239 239 239 240 240 240 240 241 241 241 241 234 154 128 125 124 122 121 119 118 116 115 113 112 110 109 108 106 105 103 102 100 99 98 96 95 94 92 91 90 89 88 87 86 84 84 86 98 119 126 128 128 128 128 128 128 128 128 128 128 128 128 128 128 128 128 128 128 128 128 128 128 128 128 128 128 128 132 139 147 154 160 167 173 178 183 187 191 195 198 201 204 207 209 211 213 215 217 218 220 221 222 223 224 225 226 227 228 229 230 230 231 232 232 233 233 234 234 235 235 236 236 237 237 237 238 238 238 239 239 239 240 240 240 240 241 241 241 241 234 157
116 14 12 13 13 13 13 14 14 14 14 15 15 15 16 16 16 16 17 17 17 18 18 19 19 19 20 21 21 22 22 23 24 24 25 26 27 28 29 30 31 32 34 35 37 39 40 42 45 47 50 53 56 60 64 68 73 79 85 92 99 106 115 123 128 128 128 128 128 128 128 128 128 128 128 128 128 128 128 128 128 128 128 128 128 128 128 128 128 128 128 128 128 130 151 169 170 169 168 167 165 164 163 162 161 159 158 157 155 154 153 151 150 149 147 146 145 143 142 140 139 137 136 134 133 131 130 128 116 14 12 13 13 13 13 14 14 14 14 15 15 15 16 16 16 16 17 17 17 18 18 19 19 19 20 21 21 22 22 23 24 24 25 26 27 28 29 30 31 32 34 35 37 39 40 42 45 47 50 53 56 60 64 68 73 79 85 92 99 106 115 123 127 127 127 127 127 127 127 127 127 127 127 127 127 127 127 127 127 127 127 127 127 127 127 127 127 127 127 127 127 127 127 127 127 0 0 0 0 0 0 0 0 0 0 0 0 0 0 0 0 0 0 0 0 0 0 0 0 0 0 0 0 0 0 0 0 0 0 0 0 0 0 0 0 0 0 0 0 0 0 0 0 0 0 0 0 0 0 0 0 0 0 0 0 0 127 127 127 127 127 127 127 127 127 127 127 127 127 127 127 127 127 127 127 127 127 127 127 127 127 127 127 127 127 127 127 127 127 127 127 127 148 156 163 170 176 182 187 191 195 199 202 205 208 210 213 215 216 218 220 221 222 224 225 226 227 228 229 230 231 231 232 233 233 234 234 235 236 236 236 237 237 238 238 238 239 239 239 240 240 240 241 241 241 241 241 242 242 242 242 243 238 172 131 125 124 122 121 119 118 116 115 113 112 111 109 108 106 105 104 102 101 100 98 97 96 94 93 92 91 90 89 87 86 87 93 111 125 127 128 128 128 128 128 128 128 128 128 128 128 128 128 128 128 128 128 128 128 128 128 128 128 128 128 128 128 128 132 140 148 156 163 170 176 182 187 191 195 199 202 205 208 210 213 215 216 218 220 221 222 224 225 226 227 228 229 230 231 231 232 233 233 234 234 235 236 236 236 237 237 238 238 238 239 239 239 240 240 240 241 241 241 241 241 242 242 242 242 243 238 176
114 11 11 12 12 12 12 12 12 13 13 13 13 14 14 14 14 15 15 15 16 16 17 17 17 18 18 19 19 20 20 21 22 22 23 24 24 25 26 27 28 29 31 32 33 35 37 39 41 43 46 48 52 55 59 64 69 75 81 88 96 104 113 123 128 128 128 128 128 128 128 128 128 128 128 128 128 128 128 128 128 128 128 128 128 128 128 128 128 128 128 128 128 128 128 134 156 168 167 166 165 164 163 161 160 159 157 156 155 154 152 151 150 148 147 145 144 143 141 140 138 137 136 134 132 131 130 128 114 11 11 12 12 12 12 12 12 13 13 13 13 14 14 14 14 15 15 15 16 16 17 17 17 18 18 19 19 20 20 21 22 22 23 24 24 25 26 27 28 29 31 32 33 35 37 39 41 43 46 48 52 55 59 64 69 75 81 88 96 104 113 123 127 127 127 127 127 127 127 127 127 127 127 127 127 127 127 127 127 127 127 127 127 127 127 127 127 127 127 127 127 127 127 127 127 0 0 0 0 0 0 0 0 0 0 0 0 0 0 0 0 0 0 0 0 0 0 0 0 0 0 0 0 0 0 0 0 0 0 0 0 0 0 0 0 0 0 0 0 0 0 0 0 0 0 0 0 0 0 0 0 0 0 0 0 0 127 127 127 127 127 127 127 127 127 127 127 127 127 127 127 127 127 127 127 127 127 127 127 127 127 127 127 127 127 127 127 127 127 127 127 127 151 159 167 174 180 186 191 196 200 203 206 209 212 214 216 218 220 222 223 224 226 227 228 229 230 231 231 232 233 234 234 235 235 236 236 237 237 238 238 239 239 239 240 240 240 241 241 241 241 242 242 242 242 243 243 243 243 243 244 244 240 186 133 125 124 122 121 120 118 117 115 114 112 111 109 108 107 105 104 103 101 100 99 97 96 95 94 93 91 90 89 90 93 107 122 127 128 128 128 128 128 128 128 128 128 128 128 128 128 128 128 128 128 128 128 128 128 128 128 128 128 128 128 128 128 128 133 142 151 159 167 174 180 186 191 196 200 203 206 209 212 214 216 218 220 222 223 224 226 227 228 229 230 231 231 232 233 234 234 235 235 236 236 237 237 238 238 239 239 239 240 240 240 241 241 241 241 242 242 242 242 243 243 243 243 243 244 244 240 192
95 10 10 10 10 10 11 11 11 11 11 11 12 12 12 13 13 13 13 13 14 14 15 15 15 16 16 16 17 17 18 18 19 20 20 21 22 22 23 24 25 26 27 28 30 31 33 35 36 39 41 44 47 50 54 59 64 70 76 84 92 102 111 122 128 128 128 128 128 128 128 128 128 128 128 128 128 128 128 128 128 128 128 128 128 128 128 128 128 128 128 128 128 128 128 128 128 138 157 165 164 163 162 161 159 158 157 156 154 153 152 151 149 148 146 145 144 142 141 140 138 137 135 134 132 131 130 128 96 10 10 10 10 10 11 11 11 11 11 11 12 12 12 13 13 13 13 13 14 14 15 15 15 16 16 16 17 17 18 18 19 20 20 21 22 22 23 24 25 26 27 28 30 31 33 35 36 39 41 44 47 50 54 59 64 70 76 84 92 102 111 122 127 127 127 127 127 127 127 127 127 127 127 127 127 127 127 127 127 127 127 127 127 127 127 127 127 127 127 127 127 127 127 127 127 0 0 0 0 0 0 0 0 0 0 0 0 0 0 0 0 0 0 0 0 0 0 0 0 0 0 0 0 0 0 0 0 0 0 0 0 0 0 0 0 0 0 0 0 0 0 0 0 0 0 0 0 0 0 0 0 0 0 0 0 0 127 127 127 127 127 127 127 127 127 127 127 127 127 127 127 127 127 127 127 127 127 127 127 127 127 127 127 127 127 127 127 127 127 127 127 127 154 163 171 179 185 191 196 201 205 208 211 214 216 218 220 222 224 225 227 228 229 230 231 232 232 233 234 235 235 236 237 237 238 238 239 239 239 240 240 240 241 241 241 242 242 242 243 243 243 243 244 244 244 244 244 244 245 245 245 245 242 199 135 125 124 123 121 120 118 117 115 114 113 111 110 108 107 106 104 103 102 100 99 98 97 96 94 93 92 92 94 106 120 126 128 128 128 128 128 128 128 128 128 128 128 128 128 128 128 128 128 128 128 128 128 128 128 128 128 128 128 128 128 128 128 128 134 144 154 163 171 179 185 191 196 201 205 208 211 214 216 218 220 222 224 225 227 228 229 230 231 232 232 233 234 235 235 236 237 237 238 238 239 239 239 240 240 240 241 241 241 242 242 242 243 243 243 243 244 244 244 244 244 244 245 245 245 245 242 205
98 8 9 9 9 9 9 9 9 10 10 10 10 10 11 11 11 11 11 12 12 12 13 13 13 14 14 14 15 15 16 16 17 17 18 18 19 19 20 21 22 23 24 25 26 27 29 31 32 34 36 39 42 45 49 53 58 64 71 78 87 98 109 121 128 128 128 128 128 128 128 128 128 128 128 128 128 128 128 128 128 128 128 128 128 128 128 128 128 128 128 128 128 128 128 128 128 128 128 138 155 162 161 160 159 158 157 155 154 153 152 150 149 148 146 145 143 142 141 139 138 137 135 134 132 131 130 128 99 8 9 9 9 9 9 9 9 10 10 10 10 10 11 11 11 11 11 12 12 12 13 13 13 14 14 14 15 15 16 16 17 17 18 18 19 19 20 21 22 23 24 25 26 27 29 31 32 34 36 39 42 45 49 53 58 64 71 78 87 98 109 121 127 127 127 127 127 127 127 127 127 127 127 127 127 127 127 127 127 127 127 127 127 127 127 127 127 127 127 127 127 127 127 127 127 0 0 0 0 0 0 0 0 0 0 0 0 0 0 0 0 0 0 0 0 0 0 0 0 0 0 0 0 0 0 0 0 0 0 0 0 0 0 0 0 0 0 0 0 0 0 0 0 0 0 0 0 0 0 0 0 0 0 0 0 0 127 127 127 127 127 127 127 127 127 127 127 127 127 127 127 127 127 127 127 127 127 127 127 127 127 127 127 127 127 127 127 127 127 127 127 127 157 168 177 184 191 197 202 206 210 213 216 219 221 223 224 226 228 229 230 231 232 233 234 235 235 236 237 237 238 238 239 239 240 240 241 241 241 242 242 242 243 243 243 244 244 244 244 244 245 245 245 245 245 246 246 246 246 246 246 247 244 209 137 125 124 123 121 120 118 117 116 114 113 112 110 109 107 106 105 103 102 101 100 98 97 96 95 95 97 107 120 126 128 128 128 128 128 128 128 128 128 128 128 128 128 128 128 128 128 128 128 128 128 128 128 128 128 128 128 128 128 128 128 128 128 129 135 146 157 168 177 184 191 197 202 206 210 213 216 219 221 223 224 226 228 229 230 231 232 233 234 235 235 236 237 237 238 238 239 239 240 240 241 241 241 242 242 242 243 243 243 244 244 244 244 244 245 245 245 245 245 246 246 246 246 246 246 247 244 216
71 7 7 7 8 8 8 8 8 8 8 8 9 9 9 9 9 10 10 10 10 11 11 11 11 12 12 12 12 13 13 14 14 14 15 16 16 17 17 18 19 19 20 21 22 23 25 26 28 30 32 34 36 39 43 47 51 57 64 72 82 93 106 120 128 128 128 128 128 128 128 128 128 128 128 128 128 128 128 128 128 128 128 128 128 128 128 128 128 128 128 128 128 128 128 128 128 128 128 128 128 136 150 159 159 157 156 155 154 152 151 150 148 147 146 145 143 142 140 139 138 136 135 134 132 131 130 128 73 7 7 7 8 8 8 8 8 8 8 8 9 9 9 9 9 10 10 10 10 11 11 11 11 12 12 12 12 13 13 14 14 14 15 16 16 17 17 18 19 19 20 21 22 23 25 26 28 30 32 34 36 39 43 47 51 57 64 72 82 93 106 120 127 127 127 127 127 127 127 127 127 127 127 127 127 127 127 127 127 127 127 127 127 127 127 127 127 127 127 127 127 127 127 127 127 0 0 0 0 0 0 0 0 0 0 0 0 0 0 0 0 0 0 0 0 0 0 0 0 0 0 0 0 0 0 0 0 0 0 0 0 0 0 0 0 0 0 0 0 0 0 0 0 0 0 0 0 0 0 0 0 0 0 0 0 0 127 127 127 127 127 127 127 127 127 127 127 127 127 127 127 127 127 127 127 127 127 127 127 127 127 127 127 127 127 127 127 127 127 127 127 127 162 174 183 191 198 204 209 213 216 219 222 224 226 227 229 230 231 233 234 235 236 236 237 238 238 239 240 240 240 241 241 242 242 243 243 243 244 244 244 244 245 245 245 245 245 246 246 246 246 246 246 247 247 247 247 247 247 248 248 248 246 220 139 125 124 123 121 120 118 117 116 114 113 112 111 109 108 106 105 104 102 101 100 99 99 99 100 110 122 126 127 128 128 128 128 128 128 128 128 128 128 128 128 128 128 128 128 128 128 128 128 128 128 128 128 128 128 128 128 128 128 128 128 128 128 129 136 149 162 174 183 191 198 204 209 213 216 219 222 224 226 227 229 230 231 233 234 235 236 236 237 238 238 239 240 240 240 241 241 242 242 243 243 243 244 244 244 244 245 245 245 245 245 246 246 246 246 246 246 247 247 247 247 247 247 248 248 248 246 228
71 6 6 6 6 6 6 6 7 7 7 7 7 7 8 8 8 8 8 8 9 8 9 9 9 10 10 10 10 11 11 11 12 12 12 13 13 13 14 15 15 16 17 18 19 19 21 22 23 25 26 28 30 33 36 40 44 49 56 64 74 86 101 119 128 128 128 128 128 128 128 128 128 128 128 128 128 128 128 128 128 128 128 128 128 128 128 128 128 128 128 128 128 128 128 128 128 128 128 128 128 128 128 132 143 153 156 154 153 152 151 150 148 147 146 144 143 142 140 139 138 136 135 134 132 131 129 128 73 6 6 6 6 6 6 6 7 7 7 7 7 7 8 8 8 8 8 8 9 8 9 9 9 10 10 10 10 11 11 11 12 12 12 13 13 13 14 15 15 16 17 18 19 19 21 22 23 25 26 28 30 33 36 40 44 49 56 64 74 86 101 119 127 127 127 127 127 127 127 127 127 127 127 127 127 127 127 127 127 127 127 127 127 127 127 127 127 127 127 127 127 127 127 127 127 0 0 0 0 0 0 0 0 0 0 0 0 0 0 0 0 0 0 0 0 0 0 0 0 0 0 0 0 0 0 0 0 0 0 0 0 0 0 0 0 0 0 0 0 0 0 0 0 0 0 0 0 0 0 0 0 0 0 0 0 0 127 127 127 127 127 127 127 127 127 127 127 127 127 127 127 127 127 127 127 127 127 127 127 127 127 127 127 127 127 127 127 127 127 127 127 127 169 181 191 199 206 211 215 219 222 225 227 229 231 232 233 235 236 237 237 238 239 240 240 241 241 242 242 243 243 244 244 244 245 245 245 245 246 246 246 246 247 247 247 247 247 247 248 248 248 248 248 248 248 248 249 249 249 249 249 249 247 225 139 125 124 123 121 120 119 117 116 115 113 112 111 109 108 107 106 104 103 102 102 102 106 116 124 126 128 128 128 128 128 128 128 128 128 128 128 128 128 128 128 128 128 128 128 128 128 128 128 128 128 128 128 128 128 128 128 128 128 128 128 128 128 129 137 154 169 181 191 199 206 211 215 219 222 225 227 229 231 232 233 235 236 237 237 238 239 240 240 241 241 242 242 243 243 244 244 244 245 245 245 245 246 246 246 246 247 247 247 247 247 247 248 248 248 248 248 248 248 248 249 249 249 249 249 249 248 233
76 4 5 5 5 5 5 5 5 5 5 5 5 6 6 6 6 6 6 6 6 7 7 7 7 7 8 8 8 8 8 9 9 9 10 10 10 11 11 12 12 13 13 14 14 15 16 17 18 19 21 22 24 26 29 32 36 40 46 54 64 77 95 116 128 128 128 128 128 128 128 128 128 128 128 128 128 128 128 128 128 128 128 128 128 128 128 128 128 128 128 128 128 128 128 128 128 128 128 128 128 128 128 128 128 128 135 144 150 152 150 149 148 146 145 144 143 141 140 139 138 136 135 133 132 131 130 128 77 4 5 5 5 5 5 5 5 5 5 5 5 6 6 6 6 6 6 6 6 7 7 7 7 7 8 8 8 8 8 9 9 9 10 10 10 11 11 12 12 13 13 14 14 15 16 17 18 19 21 22 24 26 29 32 36 40 46 54 64 77 95 116 127 127 127 127 127 127 127 127 127 127 127 127 127 127 127 127 127 127 127 127 127 127 127 127 127 127 127 127 127 127 127 127 127 0 0 0 0 0 0 0 0 0 0 0 0 0 0 0 0 0 0 0 0 0 0 0 0 0 0 0 0 0 0 0 0 0 0 0 0 0 0 0 0 0 0 0 0 0 0 0 0 0 0 0 0 0 0 0 0 0 0 0 0 0 127 127 127 127 127 127 127 127 127 127 127 127 127 127 127 127 127 127 127 127 127 127 127 127 127 127 127 127 127 127 127 127 127 127 127 127 178 191 201 209 215 220 223 226 229 231 233 234 236 237 238 239 240 241 241 242 242 243 244 244 244 245 245 246 246 246 247 246 247 247 247 247 247 248 248 248 248 249 249 249 249 249 249 249 249 249 250 250 250 250 250 250 250 250 250 251 249 230 140 126 124 123 121 120 119 117 116 115 113 112 111 110 108 107 107 106 106 109 115 122 126 127 128 128 128 128 128 128 128 128 128 128 128 128 128 128 128 128 128 128 128 128 128 128 128 128 128 128 128 128 128 128 128 128 128 128 128 128 128 128 128 129 140 161 178 191 201 209 215 220 223 226 229 231 233 234 236 237 238 239 240 241 241 242 242 243 244 244 244 245 245 246 246 246 247 246 247 247 247 247 247 248 248 248 248 249 249 249 249 249 249 249 249 249 250 250 250 250 250 250 250 250 250 251 249 238
70 3 3 3 3 3 4 4 4 4 4 4 4 4 4 4 4 4 4 5 5 5 5 5 5 5 5 6 6 6 6 6 6 7 7 7 7 8 8 8 9 9 9 10 10 11 12 12 13 14 15 16 17 19 21 23 26 30 35 41 51 64 84 112 128 128 128 128 128 128 128 128 128 128 128 128 128 128 128 128 128 128 128 128 128 128 128 128 128 128 128 128 128 128 128 128 128 128 128 128 128 128 128 128 128 128 128 128 128 134 140 145 147 146 145 144 142 141 140 139 137 136 135 133 132 131 129 128 72 3 3 3 3 3 4 4 4 4 4 4 4 4 4 4 4 4 4 5 5 5 5 5 5 5 5 6 6 6 6 6 6 7 7 7 7 8 8 8 9 9 9 10 10 11 12 12 13 14 15 16 17 19 21 23 26 30 35 41 51 64 84 112 127 127 127 127 127 127 127 127 127 127 127 127 127 127 127 127 127 127 127 127 127 127 127 127 127 127 127 127 127 127 127 127 127 0 0 0 0 0 0 0 0 0 0 0 0 0 0 0 0 0 0 0 0 0 0 0 0 0 0 0 0 0 0 0 0 0 0 0 0 0 0 0 0 0 0 0 0 0 0 0 0 0 0 0 0 0 0 0 0 0 0 0 0 0 127 127 127 127 127 127 127 127 127 127 127 127 127 127 127 127 127 127 127 127 127 127 127 127 127 127 127 127 127 127 127 127 127 127 127 127 192 205 214 220 225 229 232 234 236 238 239 240 241 242 243 244 244 245 245 246 246 246 247 247 247 248 248 248 248 249 249 249 249 249 249 250 250 250 250 250 250 250 251 250 251 251 251 251 251 251 251 251 251 251 251 252 252 252 252 252 251 236 141 126 124 123 122 120 119 117 116 115 114 112 112 111 110 110 114 118 123 126 127 128 128 128 128 128 128 128 128 128 128 128 128 128 128 128 128 128 128 128 128 128 128 128 128 128 128 128 128 128 128 128 128 128 128 128 128 128 128 128 128 128 128 129 146 172 192 205 214 220 225 229 232 234 236 238 239 240 241 242 243 244 244 245 245 246 246 246 247 247 247 248 248 248 248 249 249 249 249 249 249 250 250 250 250 250 250 250 251 250 251 251 251 251 251 251 251 251 251 251 251 252 252 252 252 252 251 245
50 2 2 2 2 2 2 2 2 2 2 2 2 3 2 2 3 3 3 3 3 3 3 3 3 3 3 3 4 4 4 4 4 4 4 4 5 5 5 5 5 5 6 6 6 7 7 7 8 8 9 10 10 12 13 14 16 19 22 27 34 45 65 103 128 128 128 128 128 128 128 128 128 128 128 128 128 128 128 128 128 128 128 128 128 128 128 128 128 128 128 128 128 128 128 128 128 128 128 128 128 128 128 128 128 128 128 128 128 128 128 128 129 133 137 139 141 141 140 138 137 136 135 133 132 131 129 128 53 2 2 2 2 2 2 2 2 2 2 2 2 3 2 2 3 3 3 3 3 3 3 3 3 3 3 3 4 4 4 4 4 4 4 4 5 5 5 5 5 5 6 6 6 7 7 7 8 8 9 10 10 12 13 14 16 19 22 27 34 45 65 103 127 127 127 127 127 127 127 127 127 127 127 127 127 127 127 127 127 127 127 127 127 127 127 127 127 127 127 127 127 127 127 127 127 0 0 0 0 0 0 0 0 0 0 0 0 0 0 0 0 0 0 0 0 0 0 0 0 0 0 0 0 0 0 0 0 0 0 0 0 0 0 0 0 0 0 0 0 0 0 0 0 0 0 0 0 0 0 0 0 0 0 0 0 0 127 127 127 127 127 127 127 127 127 127 127 127 127 127 127 127 127 127 127 127 127 127 127 127 127 127 127 127 127 127 127 127 127 127 127 127 211 222 229 234 236 239 241 242 244 244 245 246 247 247 248 248 248 249 249 249 250 250 250 250 250 251 251 251 251 251 251 251 252 252 252 252 252 252 252 252 252 252 252 252 252 252 252 253 253 253 253 253 253 253 253 253 253 253 253 253 252 241 142 125 124 123 122 120 119 118 117 116 115 116 118 120 123 126 127 127 128 128 128 128 128 128 128 128 128 128 128 128 128 128 128 128 128 128 128 128 128 128 128 128 128 128 128 128 128 128 128 128 128 128 128 128 128 128 128 128 128 128 128 128 128 131 159 193 211 222 229 234 236 239 241 242 244 244 245 246 247 247 248 248 248 249 249 249 250 250 250 250 250 251 251 251 251 251 251 251 252 252 252 252 252 252 252 252 252 252 252 252 252 252 252 253 253 253 253 253 253 253 253 253 253 253 253 253 253 250
45 40 40 40 40 40 40 40 40 40 40 40 40 40 40 40 40 40 40 40 40 40 40 40 40 40 40 40 40 40 40 40 40 40 40 40 40 40 40 40 40 40 40 40 40 40 40 40 40 40 41 41 41 41 41 41 41 41 42 42 43 45 51 81 128 128 128 128 128 128 128 128 128 128 128 128 128 128 128 128 128 128 128 128 128 128 128 128 128 128 128 128 128 128 128 128 128 128 128 128 128 128 128 128 128 128 128 128 128 128 128 128 128 128 128 128 128 129 131 132 133 133 133 132 131 130 129 128 48 40 40 40 40 40 40 40 40 40 40 40 40 40 40 40 40 40 40 40 40 40 40 40 40 40 40 40 40 40 40 40 40 40 40 40 40 40 40 40 40 40 40 40 40 40 40 40 40 40 41 41 41 41 41 41 41 41 42 42 43 45 51 81 127 127 127 127 127 127 127 127 127 127 127 127 127 127 127 127 127 127 127 127 127 127 127 127 127 127 127 127 127 127 127 127 127 0 0 0 0 0 0 0 0 0 0 0 0 0 0 0 0 0 0 0 0 0 0 0 0 0 0 0 0 0 0 0 0 0 0 0 0 0 0 0 0 0 0 0 0 0 0 0 0 0 0 0 0 0 0 0 0 0 0 0 0 0 127 127 127 127 127 127 127 127 127 127 127 127 127 127 127 127 127 127 127 127 127 127 127 127 127 127 127 127 127 127 127 127 127 127 127 127 226 231 234 235 236 237 238 238 239 239 240 240 241 241 241 241 241 241 242 242 242 242 242 242 242 242 242 242 242 242 242 243 242 242 243 243 243 243 243 243 243 243 243 243 243 243 243 243 243 243 243 243 243 243 243 243 243 243 243 243 243 234 141 126 125 125 124 124 124 124 124 125 126 127 127 127 128 128 128 128 128 128 128 128 128 128 128 128 128 128 128 128 128 128 128 128 128 128 128 128 128 128 128 128 128 128 128 128 128 128 128 128 128 128 128 128 128 128 128 128 128 128 128 128 128 134 182 214 226 231 234 235 236 237 238 238 239 239 240 240 241 241 241 241 241 241 242 242 242 242 242 242 242 242 242 242 242 242 242 243 242 242 243 243 243 243 243 243 243 243 243 243 243 243 243 243 243 243 243 243 243 243 243 243 243 243 243 243 243 243
252 252 252 252 252 252 252 252 252 252 252 252 252 252 252 252 252 252 252 252 252 252 252 252 252 252 252 252 251 251 252 251 251 251 251 251 251 251 251 251 251 251 251 251 250 250 250 250 250 250 250 249 249 249 248 248 247 246 245 244 241 237 227 192 128 128 128 128 128 128 128 128 128 128 128 128 128 128 128 128 128 128 128 128 128 128 128 128 128 128 128 128 128 128 128 128 128 128 128 128 128 128 128 128 128 128 128 128 128 128 128 128 128 128 128 128 128 127 125 124 123 123 123 123 124 125 126 127 250 252 252 252 252 252 252 252 252 252 252 252 252 252 252 252 252 252 252 252 252 252 252 252 252 252 252 252 251 251 252 251 251 251 251 251 251 251 251 251 251 251 251 251 250 250 250 250 250 250 250 249 249 249 248 248 247 246 245 244 241 237 227 192 127 127 127 127 127 127 127 127 127 127 127 127 127 127 127 127 127 127 127 127 127 127 127 127 127 127 127 127 127 127 127 127 127 0 0 0 0 0 0 0 0 0 0 0 0 0 0 0 0 0 0 0 0 0 0 0 0 0 0 0 0 0 0 0 0 0 0 0 0 0 0 0 0 0 0 0 0 0 0 0 0 0 0 0 0 0 0 0 0 0 0 0 0 0 127 127 127 127 127 127 127 127 127 127 127 127 127 127 127 127 127 127 127 127 127 127 127 127 127 127 127 127 127 127 127 127 127 127 127 127 87 87 87 87 87 87 88 88 88 88 88 88 88 88 88 88 88 88 88 88 88 88 88 88 88 88 88 88 88 88 88 89 88 88 89 89 89 89 89 89 89 89 89 89 89 89 89 89 89 89 89 89 89 89 89 89 89 89 89 89 89 95 125 129 130 131 131 132 132 132 132 131 130 129 129 129 128 128 128 128 128 128 128 128 128 128 128 128 128 128 128 128 128 128 128 128 128 128 128 128 128 128 128 128 128 128 128 128 128 128 128 128 128 128 128 128 128 128 128 128 128 128 128 128 128 126 101 88 87 87 87 87 87 87 88 88 88 88 88 88 88 88 88 88 88 88 88 88 88 88 88 88 88 88 88 88 88 88 88 89 88 88 89 89 89 89 89 89 89 89 89 89 89 89 89 89 89 89 89 89 89 89 89 89 89 89 89 89 89 91
250 253 253 253 253 253 253 253 253 253 253 253 253 253 253 252 252 252 252 252 252 252 252 252 252 252 252 252 252 252 251 251 251 251 251 251 251 250 250 250 250 250 249 249 249 248 248 248 247 247 246 245 244 244 242 241 239 236 234 229 222 211 192 155 128 128 128 128 128 128 128 128 128 128 128 128 128 128 128 128 128 128 128 128 128 128 128 128 128 128 128 128 128 128 128 128 128 128 128 128 128 128 128 128 128 128 128 128 128 128 128 128 127 124 120 117 115 114 115 117 118 119 120 122 123 124 125 127 248 253 253 253 253 253 253 253 253 253 253 253 253 253 253 252 252 252 252 252 252 252 252 252 252 252 252 252 252 252 251 251 251 251 251 251 251 250 250 250 250 250 249 249 249 248 248 248 247 247 246 245 244 244 242 241 239 236 234 229 222 211 192 155 127 127 127 127 127 127 127 127 127 127 127 127 127 127 127 127 127 127 127 127 127 127 127 127 127 127 127 127 127 127 127 127 127 0 0 0 0 0 0 0 0 0 0 0 0 0 0 0 0 0 0 0 0 0 0 0 0 0 0 0 0 0 0 0 0 0 0 0 0 0 0 0 0 0 0 0 0 0 0 0 0 0 0 0 0 0 0 0 0 0 0 0 0 0 127 127 127 127 127 127 127 127 127 127 127 127 127 127 127 127 127 127 127 127 127 127 127 127 127 127 127 127 127 127 127 127 127 127 127 127 48 37 30 26 23 20 18 18 17 15 15 14 13 13 13 12 12 12 12 11 11 11 11 11 11 11 10 10 10 10 10 10 10 10 9 9 9 9 9 9 9 9 9 9 9 9 8 8 9 8 8 8 8 8 8 8 8 8 8 8 16 63 124 129 131 132 133 135 136 137 138 139 140 140 139 137 134 131 130 129 129 128 128 128 128 128 128 128 128 128 128 128 128 128 128 128 128 128 128 128 128 128 128 128 128 128 128 128 128 128 128 128 128 128 128 128 128 128 128 128 128 128 128 128 128 126 102 68 48 37 30 26 23 20 18 18 17 15 15 14 13 13 13 12 12 12 12 11 11 11 11 11 11 11 10 10 10 10 10 10 10 10 9 9 9 9 9 9 9 9 9 9 9 9 8 8 9 8 8 8 8 8 8 8 8 8 8 8 15 49
244 252 252 252 252 252 252 251 251 251 251 251 251 251 251 251 251 251 250 251 250 250 250 250 250 250 250 249 249 249 249 249 249 248 248 248 248 247 247 247 246 246 246 245 245 244 244 243 242 241 240 239 238 236 234 232 229 225 220 214 205 192 172 144 128 128 128 128 128 128 128 128 128 128 128 128 128 128 128 128 128 128 128 128 128 128 128 128 128 128 128 128 128 128 128 128 128 128 128 128 128 128 128 128 128 128 128 128 128 124 118 113 108 109 110 111 112 114 115 116 117 119 120 122 123 124 126 127 242 252 252 252 252 252 252 251 251 251 251 251 251 251 251 251 251 251 250 251 250 250 250 250 250 250 250 249 249 249 249 249 249 248 248 248 248 247 247 247 246 246 246 245 245 244 244 243 242 241 240 239 238 236 234 232 229 225 220 214 205 192 172 144 127 127 127 127 127 127 127 127 127 127 127 127 127 127 127 127 127 127 127 127 127 127 127 127 127 127 127 127 127 127 127 127 127 0 0 0 0 0 0 0 0 0 0 0 0 0 0 0 0 0 0 0 0 0 0 0 0 0 0 0 0 0 0 0 0 0 0 0 0 0 0 0 0 0 0 0 0 0 0 0 0 0 0 0 0 0 0 0 0 0 0 0 0 0 127 127 127 127 127 127 127 127 127 127 127 127 127 127 127 127 127 127 127 127 127 127 127 127 127 127 127 127 127 127 127 127 127 127 127 127 65 52 42 35 30 26 23 21 19 17 16 15 14 13 12 12 11 10 10 9 9 9 8 8 8 7 7 7 7 6 6 6 6 6 6 5 5 5 5 5 5 5 5 4 4 4 4 4 4 4 4 4 4 4 4 4 3 3 3 3 18 75 125 129 131 132 133 135 136 137 139 140 141 142 144 144 145 145 144 140 135 130 129 129 128 128 128 128 128 128 128 128 128 128 128 128 128 128 128 128 128 128 128 128 128 128 128 128 128 128 128 128 128 128 128 128 128 128 128 128 128 128 128 128 128 127 111 85 65 52 42 35 30 26 23 21 19 17 16 15 14 13 12 12 11 10 10 9 9 9 8 8 8 7 7 7 7 6 6 6 6 6 6 5 5 5 5 5 5 5 5 4 4 4 4 4 4 4 4 4 4 4 4 4 3 3 3 3 17 66
237 250 251 250 250 250 250 250 250 250 250 250 249 249 249 249 249 249 249 249 249 248 248 248 248 247 247 247 247 247 246 247 246 246 246 245 245 244 244 244 243 242 242 241 241 240 239 238 237 236 234 233 231 229 226 223 220 215 209 201 191 178 160 139 128 128 128 128 128 128 128 128 128 128 128 128 128 128 128 128 128 128 128 128 128 128 128 128 128 128 128 128 128 128 128 128 128 128 128 128 128 128 128 128 128 128 124 114 107 104 105 106 107 108 110 111 112 113 115 116 117 119 120 121 123 124 126 127 235 250 251 250 250 250 250 250 250 250 250 250 249 249 249 249 249 249 249 249 249 248 248 248 248 247 247 247 247 247 246 247 246 246 246 245 245 244 244 244 243 242 242 241 241 240 239 238 237 236 234 233 231 229 226 223 220 215 209 201 191 178 160 139 127 127 127 127 127 127 127 127 127 127 127 127 127 127 127 127 127 127 127 127 127 127 127 127 127 127 127 127 127 127 127 127 127 0 0 0 0 0 0 0 0 0 0 0 0 0 0 0 0 0 0 0 0 0 0 0 0 0 0 0 0 0 0 0 0 0 0 0 0 0 0 0 0 0 0 0 0 0 0 0 0 0 0 0 0 0 0 0 0 0 0 0 0 0 127 127 127 127 127 127 127 127 127 127 127 127 127 127 127 127 127 127 127 127 127 127 127 127 127 127 127 127 127 127 127 127 127 127 127 127 78 64 54 46 40 36 32 29 26 24 22 21 19 18 17 16 15 14 14 13 13 12 12 11 11 10 10 10 9 9 9 8 8 8 8 8 7 7 7 7 7 6 6 6 6 6 6 6 6 5 5 5 5 5 5 5 5 5 5 5 20 79 125 130 131 132 133 135 136 138 139 140 141 143 144 145 146 148 149 149 150 148 143 136 131 129 128 128 128 128 128 128 128 128 128 128 128 128 128 128 128 128 128 128 128 128 128 128 128 128 128 128 128 128 128 128 128 128 128 128 128 128 128 128 128 127 115 95 78 64 54 46 40 36 32 29 26 24 22 21 19 18 17 16 15 14 14 13 13 12 12 11 11 10 10 10 9 9 9 8 8 8 8 8 7 7 7 7 7 6 6 6 6 6 6 6 6 5 5 5 5 5 5 5 5 5 5 5 20 72
231 249 249 249 249 249 249 249 248 248 248 248 248 248 248 248 247 247 247 247 247 247 246 246 246 246 245 245 245 245 244 244 244 243 243 242 242 241 241 240 240 239 238 237 237 236 235 233 232 231 229 227 225 222 219 215 211 206 199 191 181 169 154 136 128 128 128 128 128 128 128 128 128 128 128 128 128 128 128 128 128 128 128 128 128 128 128 128 128 128 128 128 128 128 128 128 128 128 128 128 128 128 128 126 116 104 100 101 102 103 104 106 107 108 109 111 112 113 115 116 117 119 120 121 123 124 125 127 230 249 249 249 249 249 249 249 248 248 248 248 248 248 248 248 247 247 247 247 247 247 246 246 246 246 245 245 245 245 244 244 244 243 243 242 242 241 241 240 240 239 238 237 237 236 235 233 232 231 229 227 225 222 219 215 211 206 199 191 181 169 154 136 127 127 127 127 127 127 127 127 127 127 127 127 127 127 127 127 127 127 127 127 127 127 127 127 127 127 127 127 127 127 127 127 127 0 0 0 0 0 0 0 0 0 0 0 0 0 0 0 0 0 0 0 0 0 0 0 0 0 0 0 0 0 0 0 0 0 0 0 0 0 0 0 0 0 0 0 0 0 0 0 0 0 0 0 0 0 0 0 0 0 0 0 0 0 127 127 127 127 127 127 127 127 127 127 127 127 127 127 127 127 127 127 127 127 127 127 127 127 127 127 127 127 127 127 127 127 127 127 127 127 86 74 64 56 49 44 40 36 33 30 28 26 25 23 22 21 19 19 18 17 16 15 15 14 13 13 13 12 12 12 11 11 11 10 10 10 10 9 9 9 8 9 8 8 8 8 8 8 7 7 7 7 7 7 6 6 6 6 6 6 21 77 125 129 131 132 134 135 136 138 139 140 142 143 144 146 147 148 150 151 152 153 153 154 151 143 135 130 129 128 128 128 128 128 128 128 128 128 128 128 128 128 128 128 128 128 128 128 128 128 128 128 128 128 128 128 128 128 128 128 128 128 128 128 128 127 118 101 86 74 64 56 49 44 40 36 33 30 28 26 25 23 22 21 19 19 18 17 16 15 15 14 13 13 13 12 12 12 11 11 11 10 10 10 10 9 9 9 8 9 8 8 8 8 8 8 7 7 7 7 7 7 6 6 6 6 6 6 20 68
226 248 248 248 248 247 247 247 247 247 247 246 246 246 246 246 246 245 245 245 245 245 244 244 244 244 243 243 243 242 242 241 241 240 240 240 239 238 238 237 236 236 235 234 233 231 230 229 227 226 224 222 219 216 213 209 204 198 191 183 174 162 149 135 128 128 128 128 128 128 128 128 128 128 128 128 128 128 128 128 128 128 128 128 128 128 128 128 128 128 128 128 128 128 128 128 128 128 128 128 128 124 109 97 97 98 99 100 101 102 104 105 106 108 109 111 112 113 114 116 117 118 120 121 123 124 125 127 225 248 248 248 248 247 247 247 247 247 247 246 246 246 246 246 246 245 245 245 245 245 244 244 244 244 243 243 243 242 242 241 241 240 240 240 239 238 238 237 236 236 235 234 233 231 230 229 227 226 224 222 219 216 213 209 204 198 191 183 174 162 149 135 127 127 127 127 127 127 127 127 127 127 127 127 127 127 127 127 127 127 127 127 127 127 127 127 127 127 127 127 127 127 127 127 127 0 0 0 0 0 0 0 0 0 0 0 0 0 0 0 0 0 0 0 0 0 0 0 0 0 0 0 0 0 0 0 0 0 0 0 0 0 0 0 0 0 0 0 0 0 0 0 0 0 0 0 0 0 0 0 0 0 0 0 0 0 127 127 127 127 127 127 127 127 127 127 127 127 127 127 127 127 127 127 127 127 127 127 127 127 127 127 127 127 127 127 127 127 127 127 127 127 93 82 72 64 57 51 47 43 39 36 34 32 30 28 26 25 23 22 21 20 19 19 18 17 17 16 16 15 14 14 14 13 13 12 12 12 12 11 11 11 11 10 10 10 10 9 9 9 9 9 8 8 8 8 8 8 8 8 7 7 22 79 125 130 131 132 134 135 136 138 139 140 142 143 145 146 147 148 150 151 152 154 155 156 157 158 156 149 138 131 129 128 128 128 128 128 128 128 128 128 128 128 128 128 128 128 128 128 128 128 128 128 128 128 128 128 128 128 128 128 128 128 128 128 128 127 120 106 93 82 72 64 57 51 47 43 39 36 34 32 30 28 26 25 23 22 21 20 19 19 18 17 17 16 16 15 14 14 14 13 13 12 12 12 12 11 11 11 11 10 10 10 10 9 9 9 9 9 8 8 8 8 8 8 8 8 7 7 21 70
212 247 247 246 246 246 246 246 246 245 245 245 245 245 244 244 244 244 244 243 243 243 242 242 242 241 241 241 240 240 239 239 238 238 237 237 236 235 235 234 233 232 231 230 229 228 226 224 223 221 219 216 213 210 206 202 197 191 184 177 168 157 146 134 128 128 128 128 128 128 128 128 128 128 128 128 128 128 128 128 128 128 128 128 128 128 128 128 128 128 128 128 128 128 128 128 128 128 128 122 105 93 94 95 96 97 98 100 101 102 103 105 106 107 109 110 112 113 114 116 117 118 120 121 123 124 125 127 211 247 247 246 246 246 246 246 246 245 245 245 245 245 244 244 244 244 244 243 243 243 242 242 242 241 241 241 240 240 239 239 238 238 237 237 236 235 235 234 233 232 231 230 229 228 226 224 223 221 219 216 213 210 206 202 197 191 184 177 168 157 146 134 127 127 127 127 127 127 127 127 127 127 127 127 127 127 127 127 127 127 127 127 127 127 127 127 127 127 127 127 127 127 127 127 127 0 0 0 0 0 0 0 0 0 0 0 0 0 0 0 0 0 0 0 0 0 0 0 0 0 0 0 0 0 0 0 0 0 0 0 0 0 0 0 0 0 0 0 0 0 0 0 0 0 0 0 0 0 0 0 0 0 0 0 0 0 127 127 127 127 127 127 127 127 127 127 127 127 127 127 127 127 127 127 127 127 127 127 127 127 127 127 127 127 127 127 127 127 127 127 127 127 98 87 78 71 64 58 53 49 45 42 39 36 34 32 31 29 27 26 25 24 23 22 21 20 19 19 18 18 17 17 16 16 15 15 14 14 14 13 13 13 12 12 12 11 11 11 11 11 10 10 10 10 10 9 9 9 9 9 9 9 29 96 126 130 131 132 134 135 137 138 139 141 142 143 145 146 148 149 150 152 153 154 155 157 158 159 160 160 160 153 140 131 129 128 128 128 128 128 128 128 128 128 128 128 128 128 128 128 128 128 128 128 128 128 128 128 128 128 128 128 128 128 128 128 128 127 121 109 98 87 78 71 64 58 53 49 45 42 39 36 34 32 31 29 27 26 25 24 23 22 21 20 19 19 18 18 17 17 16 16 15 15 14 14 14 13 13 13 12 12 12 11 11 11 11 11 10 10 10 10 10 9 9 9 9 9 9 9 28 92
201 245 245 245 245 245 244 244 244 244 244 244 243 243 243 243 242 242 242 241 241 241 240 240 240 239 239 239 238 238 237 237 236 235 235 234 233 232 232 231 230 229 228 227 225 224 222 220 218 216 214 211 208 205 201 196 191 185 179 171 163 154 144 133 128 128 128 128 128 128 128 128 128 128 128 128 128 128 128 128 128 128 128 128 128 128 128 128 128 128 128 128 128 128 128 128 128 123 104 90 91 92 93 94 96 97 98 99 100 102 103 104 106 107 108 110 111 113 114 115 117 118 120 121 123 124 125 127 200 245 245 245 245 245 244 244 244 244 244 244 243 243 243 243 242 242 242 241 241 241 240 240 240 239 239 239 238 238 237 237 236 235 235 234 233 232 232 231 230 229 228 227 225 224 222 220 218 216 214 211 208 205 201 196 191 185 179 171 163 154 144 133 127 127 127 127 127 127 127 127 127 127 127 127 127 127 127 127 127 127 127 127 127 127 127 127 127 127 127 127 127 127 127 127 127 0 0 0 0 0 0 0 0 0 0 0 0 0 0 0 0 0 0 0 0 0 0 0 0 0 0 0 0 0 0 0 0 0 0 0 0 0 0 0 0 0 0 0 0 0 0 0 0 0 0 0 0 0 0 0 0 0 0 0 0 0 127 127 127 127 127 127 127 127 127 127 127 127 127 127 127 127 127 127 127 127 127 127 127 127 127 127 127 127 127 127 127 127 127 127 127 127 102 92 84 76 70 64 59 54 50 47 44 41 39 36 35 33 31 30 28 27 26 25 24 23 22 22 21 20 20 19 18 18 17 17 16 16 16 15 15 15 14 14 13 13 13 13 13 12 12 12 11 11 11 11 11 11 10 10 10 10 30 97 126 130 131 132 134 135 137 138 140 141 142 144 145 146 148 149 151 152 153 154 156 157 158 159 161 162 163 163 162 155 141 131 129 128 128 128 128 128 128 128 128 128 128 128 128 128 128 128 128 128 128 128 128 128 128 128 128 128 128 128 128 128 128 128 122 111 102 92 84 76 70 64 59 54 50 47 44 41 39 36 35 33 31 30 28 27 26 25 24 23 22 22 21 20 20 19 18 18 17 17 16 16 16 15 15 15 14 14 13 13 13 13 13 12 12 12 11 11 11 11 11 11 10 10 10 10 29 93
185 244 244 244 243 243 243 243 243 242 242 242 242 241 241 241 241 240 240 240 239 239 239 238 238 237 237 236 236 235 235 234 234 233 232 231 231 230 229 228 227 226 224 223 222 220 218 216 214 212 209 206 203 200 196 191 186 180 174 167 159 151 142 132 128 128 128 128 128 128 128 128 128 128 128 128 128 128 128 128 128 128 128 128 128 128 128 128 128 128 128 128 128 128 128 125 106 88 88 89 90 91 93 94 95 96 97 99 100 101 103 104 105 107 108 109 111 112 114 115 117 118 120 121 122 124 125 127 184 244 244 244 243 243 243 243 243 242 242 242 242 241 241 241 241 240 240 240 239 239 239 238 238 237 237 236 236 235 235 234 234 233 232 231 231 230 229 228 227 226 224 223 222 220 218 216 214 212 209 206 203 200 196 191 186 180 174 167 159 151 142 132 127 127 127 127 127 127 127 127 127 127 127 127 127 127 127 127 127 127 127 127 127 127 127 127 127 127 127 127 127 127 127 127 127 0 0 0 0 0 0 0 0 0 0 0 0 0 0 0 0 0 0 0 0 0 0 0 0 0 0 0 0 0 0 0 0 0 0 0 0 0 0 0 0 0 0 0 0 0 0 0 0 0 0 0 0 0 0 0 0 0 0 0 0 0 127 127 127 127 127 127 127 127 127 127 127 127 127 127 127 127 127 127 127 127 127 127 127 127 127 127 127 127 127 127 127 127 127 127 127 127 104 96 88 81 75 69 64 59 55 52 48 46 43 41 39 37 35 33 32 31 29 28 27 26 25 24 24 23 22 22 21 20 20 19 19 18 18 17 17 17 16 16 15 15 15 14 14 14 14 13 13 13 13 12 12 12 12 12 12 11 35 110 127 130 131 132 134 136 137 138 140 141 143 144 145 147 148 150 151 152 154 155 156 157 159 160 161 163 164 165 166 166 165 155 138 131 128 128 128 128 128 128 128 128 128 128 128 128 128 128 128 128 128 128 128 128 128 128 128 128 128 128 128 128 128 128 123 113 104 96 88 81 75 69 64 59 55 52 48 46 43 41 39 37 35 33 32 31 29 28 27 26 25 24 24 23 22 22 21 20 20 19 19 18 18 17 17 17 16 16 15 15 15 14 14 14 14 13 13 13 13 12 12 12 12 12 12 11 35 108
168 243 243 242 242 242 242 241 241 241 241 241 240 240 240 239 239 239 238 238 238 237 237 236 236 236 235 234 234 233 233 232 231 231 230 229 228 227 226 225 224 222 221 220 218 216 215 213 210 208 205 202 199 195 191 187 182 176 170 163 156 148 140 132 128 128 128 128 128 128 128 128 128 128 128 128 128 128 128 128 128 128 128 128 128 128 128 128 128 128 128 128 128 128 112 88 85 86 87 89 90 91 92 93 94 96 97 98 100 101 102 104 105 106 108 109 111 112 113 115 116 118 119 121 122 124 125 127 167 243 243 242 242 242 242 241 241 241 241 241 240 240 240 239 239 239 238 238 238 237 237 236 236 236 235 234 234 233 233 232 231 231 230 229 228 227 226 225 224 222 221 220 218 216 215 213 210 208 205 202 199 195 191 187 182 176 170 163 156 148 140 132 127 127 127 127 127 127 127 127 127 127 127 127 127 127 127 127 127 127 127 127 127 127 127 127 127 127 127 127 127 127 127 127 127 0 0 0 0 0 0 0 0 0 0 0 0 0 0 0 0 0 0 0 0 0 0 0 0 0 0 0 0 0 0 0 0 0 0 0 0 0 0 0 0 0 0 0 0 0 0 0 0 0 0 0 0 0 0 0 0 0 0 0 0 0 127 127 127 127 127 127 127 127 127 127 127 127 127 127 127 127 127 127 127 127 127 127 127 127 127 127 127 127 127 127 127 127 127 127 127 127 106 99 92 85 79 73 68 64 60 56 53 50 47 45 42 40 39 37 35 34 32 31 30 29 28 27 26 25 24 24 23 22 22 21 21 20 19 19 19 18 18 17 17 17 16 16 16 16 15 15 15 14 14 14 14 13 13 13 13 12 38 114 127 130 131 133 134 136 137 139 140 142 143 145 146 147 149 150 151 153 154 155 157 158 159 161 162 163 164 165 167 168 169 169 166 151 135 129 128 128 128 128 128 128 128 128 128 128 128 128 128 128 128 128 128 128 128 128 128 128 128 128 128 128 128 128 123 115 106 99 92 85 79 73 68 64 60 56 53 50 47 45 42 40 39 37 35 34 32 31 30 29 28 27 26 25 24 24 23 22 22 21 21 20 19 19 19 18 18 17 17 17 16 16 16 16 15 15 15 14 14 14 14 13 13 13 13 12 37 112
143 240 241 241 241 241 240 240 240 240 239 239 239 238 238 238 237 237 237 236 236 235 235 234 234 233 233 232 232 231 230 230 229 228 227 226 225 224 223 222 221 220 218 217 215 213 211 209 207 204 201 198 195 191 187 183 178 173 167 160 154 147 139 131 128 128 128 128 128 128 128 128 128 128 128 128 128 128 128 128 128 128 128 128 128 128 128 128 128 128 128 128 122 95 82 83 84 86 87 88 89 90 91 92 94 95 96 98 99 100 102 103 105 106 108 109 110 112 113 115 116 118 119 121 122 124 125 127 143 240 241 241 241 241 240 240 240 240 239 239 239 238 238 238 237 237 237 236 236 235 235 234 234 233 233 232 232 231 230 230 229 228 227 226 225 224 223 222 221 220 218 217 215 213 211 209 207 204 201 198 195 191 187 183 178 173 167 160 154 147 139 131 127 127 127 127 127 127 127 127 127 127 127 127 127 127 127 127 127 127 127 127 127 127 127 127 127 127 127 127 127 127 127 127 127 0 0 0 0 0 0 0 0 0 0 0 0 0 0 0 0 0 0 0 0 0 0 0 0 0 0 0 0 0 0 0 0 0 0 0 0 0 0 0 0 0 0 0 0 0 0 0 0 0 0 0 0 0 0 0 0 0 0 0 0 0 127 127 127 127 127 127 127 127 127 127 127 127 127 127 127 127 127 127 127 127 127 127 127 127 127 127 127 127 127 127 127 127 127 127 127 127 109 101 95 88 83 77 72 68 64 60 57 54 51 48 46 44 42 40 39 37 36 34 33 32 31 30 29 28 27 26 25 25 24 23 23 22 22 21 20 20 20 19 19 19 18 18 17 17 17 16 16 16 16 15 15 15 14 14 14 16 48 124 128 130 131 133 134 136 137 139 140 142 143 145 146 148 149 150 152 153 155 156 157 159 160 161 162 164 165 166 167 168 170 171 172 171 163 143 131 128 128 128 128 128 128 128 128 128 128 128 128 128 128 128 128 128 128 128 128 128 128 128 128 128 128 128 124 116 109 101 95 88 83 77 72 68 64 60 57 54 51 48 46 44 42 40 39 37 36 34 33 32 31 30 29 28 27 26 25 25 24 23 23 22 22 21 20 20 20 19 19 19 18 18 17 17 17 16 16 16 16 15 15 15 14 14 14 16 47 123
131 232 240 240 239 239 239 239 238 238 238 238 237 237 237 236 236 235 235 234 234 234 233 233 232 231 231 230 229 229 228 227 227 226 225 224 223 222 220 219 218 217 215 213 212 210 208 205 203 201 198 195 191 187 183 179 174 169 164 158 152 145 138 131 128 128 128 128 128 128 128 128 128 128 128 128 128 128 128 128 128 128 128 128 128 128 128 128 128 128 128 110 82 80 81 83 84 85 86 87 88 89 91 92 93 95 96 97 99 100 101 103 104 106 107 109 110 111 113 115 116 117 119 120 122 124 125 127 131 232 240 240 239 239 239 239 238 238 238 238 237 237 237 236 236 235 235 234 234 234 233 233 232 231 231 230 229 229 228 227 227 226 225 224 223 222 220 219 218 217 215 213 212 210 208 205 203 201 198 195 191 187 183 179 174 169 164 158 152 145 138 131 127 127 127 127 127 127 127 127 127 127 127 127 127 127 127 127 127 127 127 127 127 127 127 127 127 127 127 127 127 127 127 127 127 0 0 0 0 0 0 0 0 0 0 0 0 0 0 0 0 0 0 0 0 0 0 0 0 0 0 0 0 0 0 0 0 0 0 0 0 0 0 0 0 0 0 0 0 0 0 0 0 0 0 0 0 0 0 0 0 0 0 0 0 0 127 127 127 127 127 127 127 127 127 127 127 127 127 127 127 127 127 127 127 127 127 127 127 127 127 127 127 127 127 127 127 127 127 127 127 127 110 104 97 91 86 81 76 72 67 64 60 57 54 52 49 47 45 43 42 40 38 37 36 34 33 32 31 30 29 29 28 27 26 25 25 24 24 23 23 22 22 21 20 20 20 19 19 18 18 18 18 17 17 17 16 16 16 15 15 23 69 124 128 130 131 133 135 136 138 139 140 142 144 145 146 148 149 151 152 154 155 156 158 159 160 162 163 164 165 167 168 169 170 171 173 173 174 171 155 135 129 128 128 128 128 128 128 128 128 128 128 128 128 128 128 128 128 128 128 128 128 128 128 128 128 128 124 117 110 104 97 91 86 81 76 72 67 64 60 57 54 52 49 47 45 43 42 40 38 37 36 34 33 32 31 30 29 29 28 27 26 25 25 24 24 23 23 22 22 21 20 20 20 19 19 18 18 18 18 17 17 17 16 16 16 15 15 23 69 124
128 216 239 238 238 238 238 237 237 237 236 236 236 235 235 235 234 234 233 233 232 232 231 231 230 229 229 228 228 227 226 225 224 223 222 221 220 219 218 217 215 214 212 211 209 207 205 202 200 197 195 191 188 184 180 176 171 166 161 156 150 144 137 131 128 128 128 128 128 128 128 128 128 128 128 128 128 128 128 128 128 128 128 128 128 128 128 128 128 125 95 77 79 80 81 82 83 84 85 87 88 89 90 91 93 94 95 97 98 100 101 102 104 105 107 108 110 111 113 114 116 117 119 120 122 123 125 127 128 216 239 238 238 238 238 237 237 237 236 236 236 235 235 235 234 234 233 233 232 232 231 231 230 229 229 228 228 227 226 225 224 223 222 221 220 219 218 217 215 214 212 211 209 207 205 202 200 197 195 191 188 184 180 176 171 166 161 156 150 144 137 131 127 127 127 127 127 127 127 127 127 127 127 127 127 127 127 127 127 127 127 127 127 127 127 127 127 127 127 127 127 127 127 127 127 0 0 0 0 0 0 0 0 0 0 0 0 0 0 0 0 0 0 0 0 0 0 0 0 0 0 0 0 0 0 0 0 0 0 0 0 0 0 0 0 0 0 0 0 0 0 0 0 0 0 0 0 0 0 0 0 0 0 0 0 0 127 127 127 127 127 127 127 127 127 127 127 127 127 127 127 127 127 127 127 127 127 127 127 127 127 127 127 127 127 127 127 127 127 127 127 127 111 105 99 94 89 84 79 75 71 67 64 61 58 55 53 51 48 46 44 43 41 40 38 37 36 35 34 33 31 31 30 29 28 28 27 26 25 25 24 24 23 23 22 22 21 21 20 20 20 19 19 19 18 18 18 17 17 17 16 28 84 125 128 130 131 133 135 136 138 139 141 142 144 145 147 148 150 151 153 154 156 157 158 160 161 162 164 165 166 167 169 170 171 172 173 174 175 176 175 165 141 130 128 128 128 128 128 128 128 128 128 128 128 128 128 128 128 128 128 128 128 128 128 128 128 128 124 118 111 105 99 94 89 84 79 75 71 67 64 61 58 55 53 51 48 46 44 43 41 40 38 37 36 35 34 33 31 31 30 29 28 28 27 26 25 25 24 24 23 23 22 22 21 21 20 20 20 19 19 19 18 18 18 17 17 17 16 28 84 125
128 194 237 237 237 237 236 236 236 235 235 234 234 234 233 233 232 232 231 231 231 230 229 229 228 228 227 226 226 225 224 223 222 221 220 219 218 217 216 214 213 211 210 208 206 204 202 199 197 194 191 188 185 181 177 173 169 164 159 154 148 142 137 131 128 128 128 128 128 128 128 128 128 128 128 128 128 128 128 128 128 128 128 128 128 128 128 128 119 83 76 77 78 79 80 81 82 84 85 86 87 88 90 91 92 93 95 96 98 99 100 102 103 105 106 108 110 111 112 114 115 117 119 120 122 123 125 127 128 194 237 237 237 237 236 236 236 235 235 234 234 234 233 233 232 232 231 231 231 230 229 229 228 228 227 226 226 225 224 223 222 221 220 219 218 217 216 214 213 211 210 208 206 204 202 199 197 194 191 188 185 181 177 173 169 164 159 154 148 142 137 131 127 127 127 127 127 127 127 127 127 127 127 127 127 127 127 127 127 127 127 127 127 127 127 127 127 127 127 127 127 127 127 127 127 0 0 0 0 0 0 0 0 0 0 0 0 0 0 0 0 0 0 0 0 0 0 0 0 0 0 0 0 0 0 0 0 0 0 0 0 0 0 0 0 0 0 0 0 0 0 0 0 0 0 0 0 0 0 0 0 0 0 0 0 0 127 127 127 127 127 127 127 127 127 127 127 127 127 127 127 127 127 127 127 127 127 127 127 127 127 127 127 127 127 127 127 127 127 127 127 127 113 107 101 96 91 86 82 78 74 70 67 63 61 58 56 53 51 49 47 45 44 42 41 40 38 37 36 35 34 33 32 31 30 30 29 28 28 27 26 26 25 24 24 23 23 22 22 22 21 21 21 20 20 19 19 19 18 18 18 34 99 126 128 130 132 133 135 136 138 140 141 143 144 145 147 149 150 152 153 155 156 157 159 160 161 163 164 166 167 168 169 171 172 173 174 175 176 177 178 178 173 149 132 128 128 128 128 128 128 128 128 128 128 128 128 128 128 128 128 128 128 128 128 128 128 128 125 119 113 107 101 96 91 86 82 78 74 70 67 63 61 58 56 53 51 49 47 45 44 42 41 40 38 37 36 35 34 33 32 31 30 30 29 28 28 27 26 26 25 24 24 23 23 22 22 22 21 21 21 20 20 19 19 19 18 18 18 34 99 126
128 169 236 236 236 235 235 235 234 234 234 233 233 232 232 231 231 231 230 229 229 228 228 227 226 226 225 224 224 223 222 221 220 219 218 217 216 214 213 212 210 209 207 205 203 201 199 197 194 191 188 185 182 178 174 170 166 162 157 152 147 141 136 130 128 128 128 128 128 128 128 128 128 128 128 128 128 128 128 128 128 128 128 128 128 128 128 111 75 74 75 76 77 78 79 80 81 83 84 85 86 88 89 90 91 93 94 96 97 99 100 101 103 104 106 107 109 110 112 114 115 117 119 120 122 123 125 127 128 169 236 236 236 235 235 235 234 234 234 233 233 232 232 231 231 231 230 229 229 228 228 227 226 226 225 224 224 223 222 221 220 219 218 217 216 214 213 212 210 209 207 205 203 201 199 197 194 191 188 185 182 178 174 170 166 162 157 152 147 141 136 130 127 127 127 127 127 127 127 127 127 127 127 127 127 127 127 127 127 127 127 127 127 127 127 127 127 127 127 127 127 127 127 127 127 0 0 0 0 0 0 0 0 0 0 0 0 0 0 0 0 0 0 0 0 0 0 0 0 0 0 0 0 0 0 0 0 0 0 0 0 0 0 0 0 0 0 0 0 0 0 0 0 0 0 0 0 0 0 0 0 0 0 0 0 0 127 127 127 127 127 127 127 127 127 127 127 127 127 127 127 127 127 127 127 127 127 127 127 127 127 127 127 127 127 127 127 127 127 127 127 127 114 108 103 98 93 89 85 80 77 73 70 67 64 61 59 56 54 52 50 48 46 45 44 42 41 39 38 37 36 35 34 33 32 32 31 30 29 29 28 27 27 26 26 25 25 24 24 23 23 22 22 21 21 21 20 20 20 20 19 40 113 127 128 130 132 133 135 137 138 140 141 143 144 146 148 149 151 152 154 155 156 158 159 161 162 164 165 166 167 169 170 171 172 174 175 176 177 178 179 180 181 177 157 135 129 128 128 128 128 128 128 128 128 128 128 128 128 128 128 128 128 128 128 128 128 128 125 119 114 108 103 98 93 89 85 80 77 73 70 67 64 61 59 56 54 52 50 48 46 45 44 42 41 39 38 37 36 35 34 33 32 32 31 30 29 29 28 27 27 26 26 25 25 24 24 23 23 22 22 21 21 21 20 20 20 20 19 40 113 127
128 139 233 235 234 234 234 233 233 232 232 232 231 231 230 230 229 229 228 228 227 227 226 225 225 224 223 222 222 221 220 219 218 217 216 214 213 212 211 209 208 206 204 202 200 198 196 194 191 189 186 183 179 176 172 168 164 160 155 151 146 140 135 130 128 128 128 128 128 128 128 128 128 128 128 128 128 128 128 128 128 128 128 128 128 128 101 72 72 73 74 75 76 77 79 80 81 82 83 84 86 87 88 89 91 92 94 95 96 98 99 101 102 104 105 107 109 110 112 114 115 117 118 120 122 123 125 127 128 139 233 235 234 234 234 233 233 232 232 232 231 231 230 230 229 229 228 228 227 227 226 225 225 224 223 222 222 221 220 219 218 217 216 214 213 212 211 209 208 206 204 202 200 198 196 194 191 189 186 183 179 176 172 168 164 160 155 151 146 140 135 130 127 127 127 127 127 127 127 127 127 127 127 127 127 127 127 127 127 127 127 127 127 127 127 127 127 127 127 127 127 127 127 127 127 0 0 0 0 0 0 0 0 0 0 0 0 0 0 0 0 0 0 0 0 0 0 0 0 0 0 0 0 0 0 0 0 0 0 0 0 0 0 0 0 0 0 0 0 0 0 0 0 0 0 0 0 0 0 0 0 0 0 0 0 0 127 127 127 127 127 127 127 127 127 127 127 127 127 127 127 127 127 127 127 127 127 127 127 127 127 127 127 127 127 127 127 127 127 127 127 127 115 109 104 100 95 91 87 83 79 76 72 69 66 64 61 59 56 55 53 51 49 47 46 44 43 42 40 39 38 37 36 35 34 34 33 32 31 30 29 29 28 28 27 27 26 25 25 25 24 24 23 23 22 22 22 21 21 21 22 53 123 128 128 130 131 133 135 137 138 140 142 143 145 146 148 150 151 153 154 156 157 159 160 161 163 164 165 167 168 169 171 172 173 174 175 177 178 179 180 181 182 183 181 165 137 129 128 128 128 128 128 128 128 128 128 128 128 128 128 128 128 128 128 128 128 128 125 120 115 109 104 100 95 91 87 83 79 76 72 69 66 64 61 59 56 55 53 51 49 47 46 44 43 42 40 39 38 37 36 35 34 34 33 32 31 30 29 29 28 28 27 27 26 25 25 25 24 24 23 23 22 22 22 21 21 21 22 53 123 128
128 129 216 233 233 232 232 232 231 231 231 230 230 229 229 228 228 227 227 226 226 225 224 224 223 222 221 221 220 219 218 217 216 215 214 212 211 210 209 207 205 204 202 200 198 196 194 191 189 186 183 180 177 173 170 166 162 158 154 149 144 140 135 130 128 128 128 128 128 128 128 128 128 128 128 128 128 128 128 128 128 128 128 128 127 96 69 70 71 72 73 74 75 76 77 79 80 81 82 84 85 86 88 89 90 92 93 94 96 97 99 100 102 103 105 107 108 110 112 113 115 117 118 120 122 123 125 127 128 129 216 233 233 232 232 232 231 231 231 230 230 229 229 228 228 227 227 226 226 225 224 224 223 222 221 221 220 219 218 217 216 215 214 212 211 210 209 207 205 204 202 200 198 196 194 191 189 186 183 180 177 173 170 166 162 158 154 149 144 140 135 130 127 127 127 127 127 127 127 127 127 127 127 127 127 127 127 127 127 127 127 127 127 127 127 127 127 127 127 127 127 127 127 127 127 0 0 0 0 0 0 0 0 0 0 0 0 0 0 0 0 0 0 0 0 0 0 0 0 0 0 0 0 0 0 0 0 0 0 0 0 0 0 0 0 0 0 0 0 0 0 0 0 0 0 0 0 0 0 0 0 0 0 0 0 0 127 127 127 127 127 127 127 127 127 127 127 127 127 127 127 127 127 127 127 127 127 127 127 127 127 127 127 127 127 127 127 127 127 127 127 127 115 110 106 101 97 93 89 85 82 78 75 72 69 66 64 61 59 57 55 53 51 50 48 47 45 44 43 41 40 39 38 37 36 35 35 34 33 32 32 31 30 29 29 28 28 27 27 26 25 25 25 24 24 23 23 23 22 22 31 80 125 128 128 130 132 133 135 137 138 140 142 144 145 147 148 150 152 153 155 156 158 159 161 162 163 165 166 167 169 170 171 173 174 175 176 177 179 180 181 182 183 184 185 184 170 140 129 128 128 128 128 128 128 128 128 128 128 128 128 128 128 128 128 128 128 128 125 120 115 110 106 101 97 93 89 85 82 78 75 72 69 66 64 61 59 57 55 53 51 50 48 47 45 44 43 41 40 39 38 37 36 35 35 34 33 32 32 31 30 29 29 28 28 27 27 26 25 25 25 24 24 23 23 23 22 22 31 80 125 128
128 128 191 232 232 231 231 231 230 230 229 229 229 228 228 227 226 226 225 225 224 223 223 222 221 220 220 219 218 217 216 215 214 213 212 210 209 208 206 205 203 201 200 198 196 193 191 189 186 184 181 178 175 172 168 164 160 156 152 148 144 139 134 130 128 128 128 128 128 128 128 128 128 128 128 128 128 128 128 128 128 128 128 125 89 67 68 69 70 71 72 73 74 75 77 78 79 80 82 83 84 86 87 88 90 91 92 94 95 97 98 100 101 103 105 106 108 110 111 113 114 116 118 120 121 123 125 127 128 128 191 232 232 231 231 231 230 230 229 229 229 228 228 227 226 226 225 225 224 223 223 222 221 220 220 219 218 217 216 215 214 213 212 210 209 208 206 205 203 201 200 198 196 193 191 189 186 184 181 178 175 172 168 164 160 156 152 148 144 139 134 130 127 127 127 127 127 127 127 127 127 127 127 127 127 127 127 127 127 127 127 127 127 127 127 127 127 127 127 127 127 127 127 127 127 0 0 0 0 0 0 0 0 0 0 0 0 0 0 0 0 0 0 0 0 0 0 0 0 0 0 0 0 0 0 0 0 0 0 0 0 0 0 0 0 0 0 0 0 0 0 0 0 0 0 0 0 0 0 0 0 0 0 0 0 0 127 127 127 127 127 127 127 127 127 127 127 127 127 127 127 127 127 127 127 127 127 127 127 127 127 127 127 127 127 127 127 127 127 127 127 127 116 112 107 103 99 95 91 87 84 80 77 74 71 69 66 64 62 59 57 55 54 52 50 49 47 46 45 44 42 41 40 39 38 37 36 35 35 34 33 32 32 31 30 30 29 29 28 28 27 27 26 26 25 25 24 24 24 23 38 101 126 128 128 130 132 133 135 137 139 140 142 144 146 147 149 150 152 154 155 157 158 160 161 163 164 166 167 168 169 171 172 173 175 176 177 178 179 180 182 183 184 185 186 187 186 174 142 130 128 128 128 128 128 128 128 128 128 128 128 128 128 128 128 128 128 128 125 120 116 112 107 103 99 95 91 87 84 80 77 74 71 69 66 64 62 59 57 55 54 52 50 49 47 46 45 44 42 41 40 39 38 37 36 35 35 34 33 32 32 31 30 30 29 29 28 28 27 27 26 26 25 25 24 24 24 23 38 101 126 128
128 128 158 231 231 230 230 229 229 229 228 227 227 227 226 225 225 224 224 223 222 222 221 220 220 219 218 217 216 215 214 213 212 211 209 208 207 205 204 202 201 199 197 196 193 191 189 187 184 182 179 176 173 169 166 163 159 155 151 147 143 139 134 130 128 128 128 128 128 128 128 128 128 128 128 128 128 128 128 128 128 128 125 83 66 66 68 68 70 71 72 73 74 75 76 77 78 80 81 82 83 85 86 87 89 90 92 93 95 96 98 99 101 102 104 106 107 109 111 113 114 116 118 120 121 123 125 127 128 128 158 231 231 230 230 229 229 229 228 227 227 227 226 225 225 224 224 223 222 222 221 220 220 219 218 217 216 215 214 213 212 211 209 208 207 205 204 202 201 199 197 196 193 191 189 187 184 182 179 176 173 169 166 163 159 155 151 147 143 139 134 130 127 127 127 127 127 127 127 127 127 127 127 127 127 127 127 127 127 127 127 127 127 127 127 127 127 127 127 127 127 127 127 127 127 0 0 0 0 0 0 0 0 0 0 0 0 0 0 0 0 0 0 0 0 0 0 0 0 0 0 0 0 0 0 0 0 0 0 0 0 0 0 0 0 0 0 0 0 0 0 0 0 0 0 0 0 0 0 0 0 0 0 0 0 0 127 127 127 127 127 127 127 127 127 127 127 127 127 127 127 127 127 127 127 127 127 127 127 127 127 127 127 127 127 127 127 127 127 127 127 127 117 112 108 104 100 96 92 89 86 82 79 76 74 71 68 66 64 62 60 58 56 54 52 51 49 48 47 46 44 43 42 41 40 39 38 37 36 36 35 34 33 33 32 31 31 30 29 29 28 28 28 27 27 26 26 25 25 25 47 116 127 128 129 130 132 134 135 137 139 141 142 144 146 147 149 151 152 154 156 157 159 160 162 163 165 166 168 169 170 172 173 174 175 177 178 179 180 181 182 183 184 185 187 187 188 188 177 143 130 128 128 128 128 128 128 128 128 128 128 128 128 128 128 128 128 128 125 121 117 112 108 104 100 96 92 89 86 82 79 76 74 71 68 66 64 62 60 58 56 54 52 51 49 48 47 46 44 43 42 41 40 39 38 37 36 36 35 34 33 33 32 31 31 30 29 29 28 28 28 27 27 26 26 25 25 25 47 116 127 128
128 128 131 221 229 229 229 228 228 227 227 226 226 225 224 224 223 223 222 221 221 220 219 219 218 217 216 215 214 213 212 211 210 209 208 206 205 204 202 200 199 197 195 193 191 189 187 184 182 180 177 174 171 168 164 161 157 154 150 146 142 138 134 130 128 128 128 128 128 128 128 128 128 128 128 128 128 128 128 128 128 125 82 64 65 66 67 68 68 70 71 72 73 74 75 76 78 79 80 81 83 84 85 87 88 89 91 93 94 95 97 99 100 102 104 105 107 109 110 112 114 116 117 119 121 123 125 126 128 128 131 221 229 229 229 228 228 227 227 226 226 225 224 224 223 223 222 221 221 220 219 219 218 217 216 215 214 213 212 211 210 209 208 206 205 204 202 200 199 197 195 193 191 189 187 184 182 180 177 174 171 168 164 161 157 154 150 146 142 138 134 130 127 127 127 127 127 127 127 127 127 127 127 127 127 127 127 127 127 127 127 127 127 127 127 127 127 127 127 127 127 127 127 127 127 0 0 0 0 0 0 0 0 0 0 0 0 0 0 0 0 0 0 0 0 0 0 0 0 0 0 0 0 0 0 0 0 0 0 0 0 0 0 0 0 0 0 0 0 0 0 0 0 0 0 0 0 0 0 0 0 0 0 0 0 0 127 127 127 127 127 127 127 127 127 127 127 127 127 127 127 127 127 127 127 127 127 127 127 127 127 127 127 127 127 127 127 127 127 127 127 127 117 113 109 105 102 98 94 91 88 84 81 78 76 73 70 68 66 64 62 60 58 56 55 53 52 50 49 47 46 45 44 43 42 41 40 39 38 37 36 36 35 34 33 33 32 32 31 31 30 29 29 28 28 27 27 27 26 31 70 124 128 128 128 130 132 134 136 138 139 141 143 145 146 148 150 151 153 155 156 158 160 161 163 164 165 167 168 170 171 172 174 175 176 177 179 180 181 182 183 184 185 186 187 188 189 190 190 178 143 129 128 128 128 128 128 128 128 128 128 128 128 128 128 128 128 128 125 121 117 113 109 105 102 98 94 91 88 84 81 78 76 73 70 68 66 64 62 60 58 56 55 53 52 50 49 47 46 45 44 43 42 41 40 39 38 37 36 36 35 34 33 33 32 32 31 31 30 29 29 28 28 27 27 27 26 31 70 124 128 128
128 128 128 195 228 228 227 227 226 226 225 225 224 224 223 222 222 221 221 220 219 219 218 217 216 215 214 213 213 211 210 209 208 207 206 204 203 202 200 199 197 195 193 191 189 187 185 182 180 177 175 172 169 166 163 159 156 152 149 145 141 137 134 129 128 128 128 128 128 128 128 128 128 128 128 128 128 128 128 128 127 87 62 63 64 64 66 67 68 69 70 71 72 73 74 76 77 78 79 80 82 83 84 86 87 89 90 92 93 95 96 98 100 101 103 105 107 108 110 112 114 115 117 119 121 123 125 127 128 128 128 195 228 228 227 227 226 226 225 225 224 224 223 222 222 221 221 220 219 219 218 217 216 215 214 213 213 211 210 209 208 207 206 204 203 202 200 199 197 195 193 191 189 187 185 182 180 177 175 172 169 166 163 159 156 152 149 145 141 137 134 129 127 127 127 127 127 127 127 127 127 127 127 127 127 127 127 127 127 127 127 127 127 127 127 127 127 127 127 127 127 127 127 127 127 0 0 0 0 0 0 0 0 0 0 0 0 0 0 0 0 0 0 0 0 0 0 0 0 0 0 0 0 0 0 0 0 0 0 0 0 0 0 0 0 0 0 0 0 0 0 0 0 0 0 0 0 0 0 0 0 0 0 0 0 0 127 127 127 127 127 127 127 127 127 127 127 127 127 127 127 127 127 127 127 127 127 127 127 127 127 127 127 127 127 127 127 127 127 127 127 127 118 114 110 106 103 99 96 92 89 86 83 80 78 75 73 70 68 66 64 62 60 58 57 55 53 52 51 49 48 47 46 45 44 43 42 41 40 39 38 37 36 36 35 34 34 33 32 32 31 31 30 30 29 28 28 28 27 39 96 126 128 128 129 130 132 134 136 138 140 141 143 145 147 148 150 152 154 155 157 159 160 162 163 165 166 168 169 170 172 173 175 176 177 178 180 181 182 183 184 185 186 187 188 189 190 191 192 191 179 142 129 128 128 128 128 128 128 128 128 128 128 128 128 128 128 128 126 122 118 114 110 106 103 99 96 92 89 86 83 80 78 75 73 70 68 66 64 62 60 58 57 55 53 52 51 49 48 47 46 45 44 43 42 41 40 39 38 37 36 36 35 34 34 33 32 32 31 31 30 30 29 28 28 28 27 39 96 126 128 128
128 128 128 158 226 227 226 226 225 224 224 223 223 222 222 221 220 220 219 219 218 217 216 215 215 214 213 212 211 210 209 208 206 205 204 203 201 200 198 196 195 193 191 189 187 185 183 181 178 176 173 170 167 164 161 158 155 151 148 144 141 137 133 129 128 128 128 128 128 128 128 128 128 128 128 128 128 128 128 128 93 60 61 62 63 64 65 66 67 68 69 70 71 72 73 74 76 77 78 80 81 82 84 85 87 88 89 91 93 94 96 98 99 101 102 104 106 108 110 112 113 115 117 119 121 123 125 127 128 128 128 158 226 227 226 226 225 224 224 223 223 222 222 221 220 220 219 219 218 217 216 215 215 214 213 212 211 210 209 208 206 205 204 203 201 200 198 196 195 193 191 189 187 185 183 181 178 176 173 170 167 164 161 158 155 151 148 144 141 137 133 129 127 127 127 127 127 127 127 127 127 127 127 127 127 127 127 127 127 127 127 127 127 127 127 127 127 127 127 127 127 127 127 127 127 0 0 0 0 0 0 0 0 0 0 0 0 0 0 0 0 0 0 0 0 0 0 0 0 0 0 0 0 0 0 0 0 0 0 0 0 0 0 0 0 0 0 0 0 0 0 0 0 0 0 0 0 0 0 0 0 0 0 0 0 0 127 127 127 127 127 127 127 127 127 127 127 127 127 127 127 127 127 127 127 127 127 127 127 127 127 127 127 127 127 127 127 127 127 127 127 127 118 114 111 107 104 100 97 94 91 88 85 82 79 77 74 72 70 68 66 64 62 60 59 57 55 54 52 51 50 49 48 46 45 44 43 42 41 40 40 39 38 37 37 36 35 35 34 33 33 32 31 31 30 30 30 29 30 49 116 127 128 128 128 130 132 134 136 138 140 142 143 145 147 149 151 153 154 156 158 159 161 162 164 165 167 169 170 171 173 174 175 177 178 179 180 182 183 184 185 186 187 188 189 190 191 192 193 194 193 177 139 129 128 128 128 128 128 128 128 128 128 128 128 128 128 128 126 122 118 114 111 107 104 100 97 94 91 88 85 82 79 77 74 72 70 68 66 64 62 60 59 57 55 54 52 51 50 49 48 46 45 44 43 42 41 40 40 39 38 37 37 36 35 35 34 33 33 32 31 31 30 30 30 29 30 49 116 127 128 128
128 128 128 130 215 225 225 224 224 223 223 222 222 221 220 220 219 218 218 217 216 216 215 214 213 212 211 210 209 208 207 206 205 203 202 201 199 198 196 195 193 191 189 187 185 183 181 179 176 174 171 169 166 163 160 157 154 150 147 144 140 136 133 129 128 128 128 128 128 128 128 128 128 128 128 128 128 128 128 97 58 59 60 61 62 63 64 65 66 67 68 69 70 71 73 74 75 76 77 79 80 81 83 84 86 87 89 90 92 93 95 97 98 100 102 104 105 107 109 111 113 115 117 119 121 123 125 127 128 128 128 130 215 225 225 224 224 223 223 222 222 221 220 220 219 218 218 217 216 216 215 214 213 212 211 210 209 208 207 206 205 203 202 201 199 198 196 195 193 191 189 187 185 183 181 179 176 174 171 169 166 163 160 157 154 150 147 144 140 136 133 129 127 127 127 127 127 127 127 127 127 127 127 127 127 127 127 127 127 127 127 127 127 127 127 127 127 127 127 127 127 127 127 127 127 0 0 0 0 0 0 0 0 0 0 0 0 0 0 0 0 0 0 0 0 0 0 0 0 0 0 0 0 0 0 0 0 0 0 0 0 0 0 0 0 0 0 0 0 0 0 0 0 0 0 0 0 0 0 0 0 0 0 0 0 0 127 127 127 127 127 127 127 127 127 127 127 127 127 127 127 127 127 127 127 127 127 127 127 127 127 127 127 127 127 127 127 127 127 127 127 127 119 115 111 108 105 101 98 95 92 89 86 84 81 79 76 74 72 70 68 66 64 62 60 59 57 56 54 53 52 50 49 48 47 46 45 44 43 42 41 40 40 39 38 37 37 36 35 35 34 33 33 32 32 31 31 30 35 74 124 128 128 128 129 130 133 134 136 138 140 142 144 146 148 149 151 153 155 156 158 160 162 163 165 166 168 169 171 172 174 175 176 178 179 180 181 183 184 185 186 187 188 189 190 191 192 193 194 195 196 194 174 136 128 128 128 128 128 128 128 128 128 128 128 128 128 128 126 122 119 115 111 108 105 101 98 95 92 89 86 84 81 79 76 74 72 70 68 66 64 62 60 59 57 56 54 53 52 50 49 48 47 46 45 44 43 42 41 40 40 39 38 37 37 36 35 35 34 33 33 32 32 31 31 30 35 74 124 128 128 128
128 128 128 128 182 224 224 223 222 222 221 221 220 220 219 218 218 217 216 215 215 214 213 212 212 211 209 209 207 207 205 204 203 202 200 199 197 196 194 193 191 189 188 186 184 182 179 177 175 172 170 167 164 161 159 156 153 149 146 143 139 136 133 129 128 128 128 128 128 128 128 128 128 128 128 128 128 128 108 58 57 58 59 60 61 62 63 64 65 66 67 68 69 70 71 73 74 75 76 78 79 80 82 83 85 86 88 89 91 93 94 96 98 100 101 103 105 107 109 111 113 115 117 119 121 123 124 127 128 128 128 128 182 224 224 223 222 222 221 221 220 220 219 218 218 217 216 215 215 214 213 212 212 211 209 209 207 207 205 204 203 202 200 199 197 196 194 193 191 189 188 186 184 182 179 177 175 172 170 167 164 161 159 156 153 149 146 143 139 136 133 129 127 127 127 127 127 127 127 127 127 127 127 127 127 127 127 127 127 127 127 127 127 127 127 127 127 127 127 127 127 127 127 127 127 0 0 0 0 0 0 0 0 0 0 0 0 0 0 0 0 0 0 0 0 0 0 0 0 0 0 0 0 0 0 0 0 0 0 0 0 0 0 0 0 0 0 0 0 0 0 0 0 0 0 0 0 0 0 0 0 0 0 0 0 0 127 127 127 127 127 127 127 127 127 127 127 127 127 127 127 127 127 127 127 127 127 127 127 127 127 127 127 127 127 127 127 127 127 127 127 127 119 116 112 109 106 102 99 96 93 91 88 85 83 80 78 76 73 71 69 67 66 64 62 61 59 57 56 55 53 52 51 50 48 48 46 46 45 44 43 42 41 40 39 39 38 37 37 36 35 35 34 34 33 32 32 31 44 104 126 128 128 128 129 130 133 134 137 139 140 142 144 146 148 150 152 154 156 157 159 161 162 164 166 167 169 170 171 173 175 176 177 179 180 181 182 184 185 186 187 188 189 190 191 192 193 194 195 196 197 198 194 167 134 128 128 128 128 128 128 128 128 128 128 128 128 128 126 122 119 116 112 109 106 102 99 96 93 91 88 85 83 80 78 76 73 71 69 67 66 64 62 61 59 57 56 55 53 52 51 50 48 48 46 46 45 44 43 42 41 40 39 39 38 37 37 36 35 35 34 34 33 32 32 31 44 104 126 128 128 128
128 128 128 128 142 220 222 222 221 221 220 220 219 218 218 217 216 216 215 214 213 213 212 211 210 209 208 207 206 205 204 203 201 200 199 197 196 194 193 191 190 188 186 184 182 180 178 176 173 171 169 166 163 160 157 155 152 149 145 142 139 136 133 129 128 128 128 128 128 128 128 128 128 128 128 128 128 118 59 56 56 57 58 59 60 61 62 63 64 65 66 67 68 69 70 72 73 74 75 77 78 80 81 82 84 85 87 89 90 92 94 95 97 99 101 103 105 106 108 110 112 114 116 118 120 122 124 127 128 128 128 128 142 220 222 222 221 221 220 220 219 218 218 217 216 216 215 214 213 213 212 211 210 209 208 207 206 205 204 203 201 200 199 197 196 194 193 191 190 188 186 184 182 180 178 176 173 171 169 166 163 160 157 155 152 149 145 142 139 136 133 129 127 127 127 127 127 127 127 127 127 127 127 127 127 127 127 127 127 127 127 127 127 127 127 127 127 127 127 127 127 127 127 127 127 0 0 0 0 0 0 0 0 0 0 0 0 0 0 0 0 0 0 0 0 0 0 0 0 0 0 0 0 0 0 0 0 0 0 0 0 0 0 0 0 0 0 0 0 0 0 0 0 0 0 0 0 0 0 0 0 0 0 0 0 0 127 127 127 127 127 127 127 127 127 127 127 127 127 127 127 127 127 127 127 127 127 127 127 127 127 127 127 127 127 127 127 127 127 127 127 127 119 116 113 109 106 104 100 97 95 92 89 86 84 82 79 77 75 73 71 69 67 65 64 62 60 59 58 56 55 54 52 51 50 49 48 47 46 45 44 43 42 42 41 40 39 39 38 37 37 36 35 35 34 34 33 35 61 120 128 128 128 128 129 131 133 135 137 139 141 143 145 147 149 151 152 154 156 158 160 161 163 165 166 168 169 171 172 174 175 177 178 180 181 182 183 185 186 187 188 189 190 191 192 193 194 195 196 197 198 199 199 194 158 132 128 128 128 128 128 128 128 128 128 128 128 128 126 122 119 116 113 109 106 104 100 97 95 92 89 86 84 82 79 77 75 73 71 69 67 65 64 62 60 59 58 56 55 54 52 51 50 49 48 47 46 45 44 43 42 42 41 40 39 39 38 37 37 36 35 35 34 34 33 35 61 120 128 128 128 128
128 128 128 128 128 195 221 221 220 219 219 218 218 217 216 216 215 214 213 213 212 211 210 209 208 208 206 205 204 203 202 201 200 199 197 196 194 193 191 190 188 186 184 183 181 178 176 174 172 169 167 164 162 159 157 154 151 148 145 142 139 136 132 129 128 128 128 128 128 128 128 128 128 128 128 128 125 67 54 54 55 56 57 58 59 60 61 62 63 64 65 66 67 68 69 70 72 73 75 76 77 79 80 81 83 85 86 88 89 91 93 95 97 98 100 102 104 106 108 110 112 114 116 118 120 122 124 127 128 128 128 128 128 195 221 221 220 219 219 218 218 217 216 216 215 214 213 213 212 211 210 209 208 208 206 205 204 203 202 201 200 199 197 196 194 193 191 190 188 186 184 183 181 178 176 174 172 169 167 164 162 159 157 154 151 148 145 142 139 136 132 129 127 127 127 127 127 127 127 127 127 127 127 127 127 127 127 127 127 127 127 127 127 127 127 127 127 127 127 127 127 127 127 127 127 0 0 0 0 0 0 0 0 0 0 0 0 0 0 0 0 0 0 0 0 0 0 0 0 0 0 0 0 0 0 0 0 0 0 0 0 0 0 0 0 0 0 0 0 0 0 0 0 0 0 0 0 0 0 0 0 0 0 0 0 0 127 127 127 127 127 127 127 127 127 127 127 127 127 127 127 127 127 127 127 127 127 127 127 127 127 127 127 127 127 127 127 127 127 127 127 127 120 116 113 110 107 104 101 98 96 93 91 88 86 83 81 79 77 74 73 71 69 67 65 64 62 61 59 58 57 55 54 53 52 51 50 48 47 46 46 45 44 43 42 41 41 40 39 38 38 37 37 36 36 35 35 43 92 125 128 128 128 128 129 131 133 135 137 139 141 143 145 147 149 151 153 155 157 159 160 162 164 166 167 169 171 172 173 175 176 178 179 181 182 183 184 186 187 188 189 190 191 192 194 194 195 196 197 198 199 200 201 200 192 149 130 128 128 128 128 128 128 128 128 128 128 128 126 123 120 116 113 110 107 104 101 98 96 93 91 88 86 83 81 79 77 74 73 71 69 67 65 64 62 61 59 58 57 55 54 53 52 51 50 48 47 46 46 45 44 43 42 41 41 40 39 38 38 37 37 36 36 35 35 43 92 125 128 128 128 128
128 128 128 128 128 153 219 219 219 218 218 217 216 216 215 214 214 213 212 211 211 210 209 208 207 206 205 204 203 202 201 200 198 197 196 194 193 191 190 188 186 185 183 181 179 177 175 173 170 168 166 163 161 158 155 153 150 147 144 141 138 135 132 129 128 128 128 128 128 128 128 128 128 128 128 128 85 52 53 54 54 55 56 57 58 59 60 61 62 63 64 65 66 67 68 69 71 72 73 75 76 78 79 81 82 84 85 87 89 91 92 94 96 98 99 101 103 105 107 109 111 114 116 118 120 122 124 126 128 128 128 128 128 153 219 219 219 218 218 217 216 216 215 214 214 213 212 211 211 210 209 208 207 206 205 204 203 202 201 200 198 197 196 194 193 191 190 188 186 185 183 181 179 177 175 173 170 168 166 163 161 158 155 153 150 147 144 141 138 135 132 129 127 127 127 127 127 127 127 127 127 127 127 127 127 127 127 127 127 127 127 127 127 127 127 127 127 127 127 127 127 127 127 127 127 0 0 0 0 0 0 0 0 0 0 0 0 0 0 0 0 0 0 0 0 0 0 0 0 0 0 0 0 0 0 0 0 0 0 0 0 0 0 0 0 0 0 0 0 0 0 0 0 0 0 0 0 0 0 0 0 0 0 0 0 0 127 127 127 127 127 127 127 127 127 127 127 127 127 127 127 127 127 127 127 127 127 127 127 127 127 127 127 127 127 127 127 127 127 127 127 127 120 117 114 111 108 105 102 100 97 94 92 89 87 85 82 80 78 76 74 72 70 69 67 65 64 62 61 59 58 57 56 54 53 52 51 50 49 48 47 46 45 44 44 43 42 41 41 40 39 39 38 37 37 36 37 56 117 127 128 128 128 128 129 131 133 135 137 139 141 143 146 148 150 152 154 156 158 159 161 163 165 166 168 170 171 173 174 176 178 179 180 182 183 184 185 187 188 189 190 191 192 193 194 195 196 197 198 199 200 201 202 202 201 185 140 129 128 128 128 128 128 128 128 128 128 128 126 123 120 117 114 111 108 105 102 100 97 94 92 89 87 85 82 80 78 76 74 72 70 69 67 65 64 62 61 59 58 57 56 54 53 52 51 50 49 48 47 46 45 44 44 43 42 41 41 40 39 39 38 37 37 36 37 56 117 127 128 128 128 128
128 128 128 128 128 129 199 218 218 217 217 216 215 215 214 213 212 212 211 210 209 208 208 207 206 205 203 203 202 200 199 198 197 195 194 193 191 190 188 187 185 183 181 180 177 175 174 171 169 167 164 162 160 157 154 152 149 146 144 141 138 135 132 129 128 128 128 128 128 128 128 128 128 128 128 104 50 51 52 53 53 54 55 56 57 58 59 59 61 62 63 64 65 66 67 68 70 71 72 74 75 77 78 80 81 83 84 86 88 89 91 93 95 97 99 101 103 105 107 109 111 113 115 117 120 122 124 126 128 128 128 128 128 129 199 218 218 217 217 216 215 215 214 213 212 212 211 210 209 208 208 207 206 205 203 203 202 200 199 198 197 195 194 193 191 190 188 187 185 183 181 180 177 175 174 171 169 167 164 162 160 157 154 152 149 146 144 141 138 135 132 129 127 127 127 127 127 127 127 127 127 127 127 127 127 127 127 127 127 127 127 127 127 127 127 127 127 127 127 127 127 127 127 127 127 0 0 0 0 0 0 0 0 0 0 0 0 0 0 0 0 0 0 0 0 0 0 0 0 0 0 0 0 0 0 0 0 0 0 0 0 0 0 0 0 0 0 0 0 0 0 0 0 0 0 0 0 0 0 0 0 0 0 0 0 0 127 127 127 127 127 127 127 127 127 127 127 127 127 127 127 127 127 127 127 127 127 127 127 127 127 127 127 127 127 127 127 127 127 127 127 127 120 117 114 112 109 106 103 100 98 95 93 90 88 86 84 81 80 77 75 74 72 70 68 67 65 64 62 61 60 58 57 56 55 54 52 51 50 49 48 48 47 46 45 44 43 43 42 41 40 40 39 39 38 37 44 88 125 128 128 128 128 128 129 131 133 135 138 140 142 144 146 148 150 152 154 156 158 160 162 164 166 167 169 171 172 174 176 177 179 180 181 183 184 185 186 188 189 190 191 192 193 194 196 196 197 198 199 200 201 202 203 203 204 201 173 134 128 128 128 128 128 128 128 128 128 128 126 123 120 117 114 112 109 106 103 100 98 95 93 90 88 86 84 81 80 77 75 74 72 70 68 67 65 64 62 61 60 58 57 56 55 54 52 51 50 49 48 48 47 46 45 44 43 43 42 41 40 40 39 39 38 37 44 88 125 128 128 128 128 128
128 128 128 128 128 128 157 217 216 216 215 215 214 213 213 212 211 210 210 209 208 207 206 205 204 203 202 201 200 199 198 197 195 194 193 191 190 188 187 185 183 182 180 178 176 174 172 170 168 166 163 161 159 156 154 151 148 146 143 140 137 135 132 129 128 128 128 128 128 128 128 128 128 128 121 57 49 50 51 51 52 53 54 55 56 57 57 58 59 60 61 63 64 65 66 67 69 70 71 73 74 76 77 79 80 82 83 85 87 88 90 92 94 96 98 100 102 104 106 108 111 113 115 117 120 122 124 126 128 128 128 128 128 128 157 217 216 216 215 215 214 213 213 212 211 210 210 209 208 207 206 205 204 203 202 201 200 199 198 197 195 194 193 191 190 188 187 185 183 182 180 178 176 174 172 170 168 166 163 161 159 156 154 151 148 146 143 140 137 135 132 129 127 127 127 127 127 127 127 127 127 127 127 127 127 127 127 127 127 127 127 127 127 127 127 127 127 127 127 127 127 127 127 127 127 0 0 0 0 0 0 0 0 0 0 0 0 0 0 0 0 0 0 0 0 0 0 0 0 0 0 0 0 0 0 0 0 0 0 0 0 0 0 0 0 0 0 0 0 0 0 0 0 0 0 0 0 0 0 0 0 0 0 0 0 0 127 127 127 127 127 127 127 127 127 127 127 127 127 127 127 127 127 127 127 127 127 127 127 127 127 127 127 127 127 127 127 127 127 127 127 127 120 118 115 112 109 107 104 101 99 96 94 92 89 87 85 83 81 79 77 75 73 72 70 68 67 65 64 62 61 60 58 57 56 55 54 53 52 51 50 49 48 47 46 45 45 44 43 42 42 41 40 40 39 39 56 115 127 128 128 128 128 128 129 131 133 135 138 140 142 144 147 149 151 153 155 157 159 161 163 165 166 168 170 172 173 175 176 178 179 181 182 184 185 187 188 189 190 191 192 193 194 195 197 198 199 199 200 201 202 203 204 205 205 206 200 155 130 128 128 128 128 128 128 128 128 128 126 123 120 118 115 112 109 107 104 101 99 96 94 92 89 87 85 83 81 79 77 75 73 72 70 68 67 65 64 62 61 60 58 57 56 55 54 53 52 51 50 49 48 47 46 45 45 44 43 42 42 41 40 40 39 39 56 115 127 128 128 128 128 128
128 128 128 128 128 128 129 197 215 215 214 214 213 212 211 211 210 209 208 208 207 206 205 204 203 202 201 200 199 198 196 195 194 192 191 190 188 187 185 184 182 180 179 177 175 173 171 169 167 165 162 160 157 155 153 150 148 145 142 140 137 134 132 129 128 128 128 128 128 128 128 128 128 128 79 47 48 49 50 50 51 52 53 54 54 55 56 57 58 59 61 61 63 64 65 66 67 69 70 71 73 74 76 77 79 81 82 84 86 87 89 91 93 95 97 99 101 104 106 108 110 112 115 117 119 122 124 126 128 128 128 128 128 128 129 197 215 215 214 214 213 212 211 211 210 209 208 208 207 206 205 204 203 202 201 200 199 198 196 195 194 192 191 190 188 187 185 184 182 180 179 177 175 173 171 169 167 165 162 160 157 155 153 150 148 145 142 140 137 134 132 129 127 127 127 127 127 127 127 127 127 127 127 127 127 127 127 127 127 127 127 127 127 127 127 127 127 127 127 127 127 127 127 127 127 0 0 0 0 0 0 0 0 0 0 0 0 0 0 0 0 0 0 0 0 0 0 0 0 0 0 0 0 0 0 0 0 0 0 0 0 0 0 0 0 0 0 0 0 0 0 0 0 0 0 0 0 0 0 0 0 0 0 0 0 0 127 127 127 127 127 127 127 127 127 127 127 127 127 127 127 127 127 127 127 127 127 127 127 127 127 127 127 127 127 127 127 127 127 127 127 127 121 118 115 113 110 107 105 102 100 97 95 93 90 88 86 84 82 80 78 76 75 73 71 70 68 67 65 64 62 61 60 59 57 56 55 54 53 52 51 50 49 49 47 47 46 45 44 44 43 42 42 41 40 46 89 125 128 128 128 128 128 128 129 131 133 136 138 140 143 145 147 149 151 154 156 158 160 162 164 166 167 169 171 173 174 176 178 179 181 182 184 185 186 188 188 190 191 192 194 195 196 197 198 199 200 201 201 203 203 204 205 206 206 207 207 191 141 129 128 128 128 128 128 128 128 128 126 124 121 118 115 113 110 107 105 102 100 97 95 93 90 88 86 84 82 80 78 76 75 73 71 70 68 67 65 64 62 61 60 59 57 56 55 54 53 52 51 50 49 49 47 47 46 45 44 44 43 42 42 41 40 46 89 125 128 128 128 128 128 128
128 128 128 128 128 128 128 152 214 214 213 212 212 211 210 210 209 208 207 206 205 204 203 203 202 201 199 199 197 196 195 194 192 191 190 188 187 185 184 182 181 179 177 175 174 172 170 168 166 164 161 159 157 154 152 150 147 145 142 139 137 134 131 129 128 128 128 128 128 128 128 128 128 106 45 46 47 47 48 49 50 51 51 52 53 54 55 56 57 58 59 60 61 63 64 65 66 68 69 70 72 73 75 76 78 79 81 83 85 87 88 90 92 94 96 99 101 103 105 107 110 112 114 117 119 121 124 126 128 128 128 128 128 128 128 152 214 214 213 212 212 211 210 210 209 208 207 206 205 204 203 203 202 201 199 199 197 196 195 194 192 191 190 188 187 185 184 182 181 179 177 175 174 172 170 168 166 164 161 159 157 154 152 150 147 145 142 139 137 134 131 129 127 127 127 127 127 127 127 127 127 127 127 127 127 127 127 127 127 127 127 127 127 127 127 127 127 127 127 127 127 127 127 127 127 0 0 0 0 0 0 0 0 0 0 0 0 0 0 0 0 0 0 0 0 0 0 0 0 0 0 0 0 0 0 0 0 0 0 0 0 0 0 0 0 0 0 0 0 0 0 0 0 0 0 0 0 0 0 0 0 0 0 0 0 0 127 127 127 127 127 127 127 127 127 127 127 127 127 127 127 127 127 127 127 127 127 127 127 127 127 127 127 127 127 127 127 127 127 127 127 127 121 118 116 113 111 108 105 103 101 98 96 94 91 89 87 85 83 81 79 78 76 74 73 71 69 68 67 65 64 63 61 60 59 58 56 56 54 53 52 52 50 50 49 48 47 46 46 45 44 43 43 42 42 59 116 127 128 128 128 128 128 128 129 131 134 136 138 141 143 145 148 150 152 154 157 159 161 163 165 167 168 170 172 174 175 177 179 180 182 183 185 186 187 189 190 191 192 193 195 196 197 198 199 200 201 202 202 203 204 205 206 207 207 208 209 206 174 134 128 128 128 128 128 128 128 128 126 123 121 118 116 113 111 108 105 103 101 98 96 94 91 89 87 85 83 81 79 78 76 74 73 71 69 68 67 65 64 63 61 60 59 58 56 56 54 53 52 52 50 50 49 48 47 46 46 45 44 43 43 42 42 59 116 127 128 128 128 128 128 128
128 128 128 128 128 128 128 128 189 213 212 211 211 210 209 208 207 207 206 205 204 203 202 201 200 199 198 197 196 195 194 192 191 190 189 187 186 184 183 181 179 178 176 174 172 170 169 167 165 163 160 158 156 154 151 149 146 144 141 139 136 134 131 129 128 128 128 128 128 128 128 128 125 57 44 45 46 47 47 48 49 50 50 51 52 53 54 55 56 57 58 59 60 61 63 64 65 66 68 69 71 72 73 75 77 78 80 82 84 86 87 89 91 93 95 98 100 102 105 107 109 111 114 116 119 121 124 126 128 128 128 128 128 128 128 128 189 213 212 211 211 210 209 208 207 207 206 205 204 203 202 201 200 199 198 197 196 195 194 192 191 190 189 187 186 184 183 181 179 178 176 174 172 170 169 167 165 163 160 158 156 154 151 149 146 144 141 139 136 134 131 129 127 127 127 127 127 127 127 127 127 127 127 127 127 127 127 127 127 127 127 127 127 127 127 127 127 127 127 127 127 127 127 127 127 0 0 0 0 0 0 0 0 0 0 0 0 0 0 0 0 0 0 0 0 0 0 0 0 0 0 0 0 0 0 0 0 0 0 0 0 0 0 0 0 0 0 0 0 0 0 0 0 0 0 0 0 0 0 0 0 0 0 0 0 0 127 127 127 127 127 127 127 127 127 127 127 127 127 127 127 127 127 127 127 127 127 127 127 127 127 127 127 127 127 127 127 127 127 127 127 127 121 118 116 113 111 109 106 104 102 99 97 95 92 90 88 86 84 83 81 79 77 76 74 72 71 69 68 66 65 64 63 61 60 59 58 57 56 55 54 53 52 51 50 49 48 47 47 46 45 45 44 43 50 95 125 128 128 128 128 128 128 128 129 131 134 136 139 141 144 146 148 151 153 155 157 160 161 164 166 168 169 171 173 175 176 178 180 182 183 184 186 187 189 190 191 192 194 195 196 197 198 199 200 201 202 203 204 205 206 206 207 208 209 209 210 210 202 151 130 128 128 128 128 128 128 128 126 124 121 118 116 113 111 109 106 104 102 99 97 95 92 90 88 86 84 83 81 79 77 76 74 72 71 69 68 66 65 64 63 61 60 59 58 57 56 55 54 53 52 51 50 49 48 47 47 46 45 45 44 43 50 95 125 128 128 128 128 128 128 128
128 128 128 128 128 128 128 128 142 208 210 210 209 209 208 207 206 206 205 204 203 202 201 200 199 198 197 196 195 194 192 191 190 189 187 186 184 183 182 180 178 176 175 173 171 169 168 166 164 161 160 157 155 153 151 148 146 144 141 139 136 134 131 129 128 128 128 128 128 128 128 128 94 42 43 44 45 45 46 47 47 48 49 50 51 52 53 54 55 56 57 58 59 60 61 63 64 65 66 68 69 71 72 74 76 77 79 81 83 84 86 88 90 92 95 97 99 102 104 106 109 111 113 116 118 121 124 126 128 128 128 128 128 128 128 128 142 208 210 210 209 209 208 207 206 206 205 204 203 202 201 200 199 198 197 196 195 194 192 191 190 189 187 186 184 183 182 180 178 176 175 173 171 169 168 166 164 161 160 157 155 153 151 148 146 144 141 139 136 134 131 129 127 127 127 127 127 127 127 127 127 127 127 127 127 127 127 127 127 127 127 127 127 127 127 127 127 127 127 127 127 127 127 127 127 0 0 0 0 0 0 0 0 0 0 0 0 0 0 0 0 0 0 0 0 0 0 0 0 0 0 0 0 0 0 0 0 0 0 0 0 0 0 0 0 0 0 0 0 0 0 0 0 0 0 0 0 0 0 0 0 0 0 0 0 0 127 127 127 127 127 127 127 127 127 127 127 127 127 127 127 127 127 127 127 127 127 127 127 127 127 127 127 127 127 127 127 127 127 127 127 127 121 119 116 114 111 109 107 105 102 100 98 95 93 91 89 87 86 84 82 80 78 77 75 73 72 71 69 68 66 65 64 63 61 60 59 58 57 56 55 54 53 52 51 50 50 49 48 47 47 46 45 46 68 120 128 128 128 128 128 128 128 128 129 131 134 136 139 141 144 146 149 151 154 156 158 160 163 165 167 169 170 172 174 176 178 179 181 183 184 186 187 189 190 191 192 194 195 196 197 198 199 200 201 202 203 204 205 206 207 207 208 209 210 211 211 212 211 186 136 128 128 128 128 128 128 128 126 124 121 119 116 114 111 109 107 105 102 100 98 95 93 91 89 87 86 84 82 80 78 77 75 73 72 71 69 68 66 65 64 63 61 60 59 58 57 56 55 54 53 52 51 50 50 49 48 47 47 46 45 46 68 120 128 128 128 128 128 128 128 128
128 128 128 128 128 128 128 128 128 173 210 209 208 207 207 206 205 204 203 202 202 201 200 199 198 197 196 195 193 192 191 190 189 187 186 185 183 182 180 179 177 175 174 172 170 168 167 165 163 161 159 157 154 152 150 148 145 143 141 138 136 134 131 129 128 128 128 128 128 128 128 121 44 41 42 43 43 44 45 46 46 47 48 49 50 50 52 52 53 54 56 56 58 59 60 61 63 64 65 67 68 69 71 73 74 76 78 79 81 83 85 87 89 91 94 96 98 101 103 105 108 111 113 116 118 121 123 126 128 128 128 128 128 128 128 128 128 173 210 209 208 207 207 206 205 204 203 202 202 201 200 199 198 197 196 195 193 192 191 190 189 187 186 185 183 182 180 179 177 175 174 172 170 168 167 165 163 161 159 157 154 152 150 148 145 143 141 138 136 134 131 129 127 127 127 127 127 127 127 127 127 127 127 127 127 127 127 127 127 127 127 127 127 127 127 127 127 127 127 127 127 127 127 127 127 0 0 0 0 0 0 0 0 0 0 0 0 0 0 0 0 0 0 0 0 0 0 0 0 0 0 0 0 0 0 0 0 0 0 0 0 0 0 0 0 0 0 0 0 0 0 0 0 0 0 0 0 0 0 0 0 0 0 0 0 0 127 127 127 127 127 127 127 127 127 127 127 127 127 127 127 127 127 127 127 127 127 127 127 127 127 127 127 127 127 127 127 127 127 127 127 127 121 119 117 114 112 110 107 105 103 101 99 96 94 92 90 88 87 85 83 81 79 78 76 75 73 72 70 69 68 66 65 64 63 61 60 59 58 57 56 55 54 53 52 51 51 50 49 48 47 47 46 56 104 126 128 128 128 128 128 128 128 128 129 131 134 137 139 142 145 147 150 152 154 157 159 161 164 166 168 170 172 174 175 177 179 181 182 184 185 187 188 190 191 192 194 195 196 197 199 199 201 202 203 203 204 205 206 207 208 209 210 210 211 212 212 213 214 208 159 131 128 128 128 128 128 128 126 124 121 119 117 114 112 110 107 105 103 101 99 96 94 92 90 88 87 85 83 81 79 78 76 75 73 72 70 69 68 66 65 64 63 61 60 59 58 57 56 55 54 53 52 51 51 50 49 48 47 47 46 56 104 126 128 128 128 128 128 128 128 128
128 128 128 128 128 128 128 128 128 131 196 208 207 206 206 205 204 203 203 201 201 200 199 198 197 196 195 194 192 191 190 188 188 186 185 184 182 181 179 178 176 174 173 171 169 167 166 164 162 160 158 156 154 151 149 147 145 143 140 138 136 133 131 129 128 128 128 128 128 128 128 86 40 40 41 42 42 43 44 44 45 46 47 47 49 49 50 51 52 53 54 55 56 57 59 60 61 62 64 65 67 68 70 71 73 75 76 78 80 82 84 86 88 90 93 95 97 100 102 105 107 110 113 115 118 121 124 126 128 128 128 128 128 128 128 128 128 131 196 208 207 206 206 205 204 203 203 201 201 200 199 198 197 196 195 194 192 191 190 188 188 186 185 184 182 181 179 178 176 174 173 171 169 167 166 164 162 160 158 156 154 151 149 147 145 143 140 138 136 133 131 129 127 127 127 127 127 127 127 127 127 127 127 127 127 127 127 127 127 127 127 127 127 127 127 127 127 127 127 127 127 127 127 127 127 0 0 0 0 0 0 0 0 0 0 0 0 0 0 0 0 0 0 0 0 0 0 0 0 0 0 0 0 0 0 0 0 0 0 0 0 0 0 0 0 0 0 0 0 0 0 0 0 0 0 0 0 0 0 0 0 0 0 0 0 0 127 127 127 127 127 127 127 127 127 127 127 127 127 127 127 127 127 127 127 127 127 127 127 127 127 127 127 127 127 127 127 127 127 127 127 127 122 119 117 115 112 110 108 106 104 101 99 97 95 93 91 89 87 86 84 82 81 79 77 76 74 73 71 70 69 67 66 65 64 63 61 61 59 58 57 56 55 54 54 53 52 51 50 50 49 48 52 84 124 128 128 128 128 128 128 128 128 128 129 132 134 137 140 142 145 148 150 153 155 157 160 162 165 167 169 171 173 175 177 179 180 182 184 185 187 188 190 191 192 194 195 196 198 199 200 201 202 203 204 205 206 207 208 208 209 210 211 211 212 213 214 214 215 213 193 138 128 128 128 128 128 128 126 124 122 119 117 115 112 110 108 106 104 101 99 97 95 93 91 89 87 86 84 82 81 79 77 76 74 73 71 70 69 67 66 65 64 63 61 61 59 58 57 56 55 54 54 53 52 51 50 50 49 48 52 84 124 128 128 128 128 128 128 128 128 128
128 128 128 128 128 128 128 128 128 128 149 205 206 205 205 204 203 202 201 200 199 199 198 197 195 194 193 192 191 190 189 188 187 185 184 182 181 179 178 176 175 173 172 170 168 166 165 163 161 159 157 155 153 151 149 147 144 142 140 138 135 133 131 129 128 128 128 128 128 128 120 41 38 39 40 40 41 42 42 43 44 45 45 46 47 48 49 50 51 52 53 54 55 56 57 58 60 61 62 64 65 67 68 70 72 73 75 77 79 81 83 85 87 89 92 94 96 99 101 104 107 109 112 115 118 120 123 126 128 128 128 128 128 128 128 128 128 128 149 205 206 205 205 204 203 202 201 200 199 199 198 197 195 194 193 192 191 190 189 188 187 185 184 182 181 179 178 176 175 173 172 170 168 166 165 163 161 159 157 155 153 151 149 147 144 142 140 138 135 133 131 129 127 127 127 127 127 127 127 127 127 127 127 127 127 127 127 127 127 127 127 127 127 127 127 127 127 127 127 127 127 127 127 127 127 0 0 0 0 0 0 0 0 0 0 0 0 0 0 0 0 0 0 0 0 0 0 0 0 0 0 0 0 0 0 0 0 0 0 0 0 0 0 0 0 0 0 0 0 0 0 0 0 0 0 0 0 0 0 0 0 0 0 0 0 0 127 127 127 127 127 127 127 127 127 127 127 127 127 127 127 127 127 127 127 127 127 127 127 127 127 127 127 127 127 127 127 127 127 127 127 127 122 120 117 115 113 111 108 106 104 102 100 98 96 94 92 90 88 87 85 83 82 80 79 77 76 74 73 71 70 69 67 66 65 64 63 61 60 59 58 57 57 56 55 54 53 52 51 51 50 50 68 116 127 128 128 128 128 128 128 128 128 128 129 132 135 137 140 143 146 148 151 154 156 159 161 163 166 168 170 172 174 176 178 180 182 183 185 187 188 190 191 193 194 195 197 198 199 200 201 202 203 204 205 206 207 208 209 210 210 211 212 213 213 214 215 215 216 216 212 163 131 128 128 128 128 128 126 124 122 120 117 115 113 111 108 106 104 102 100 98 96 94 92 90 88 87 85 83 82 80 79 77 76 74 73 71 70 69 67 66 65 64 63 61 60 59 58 57 57 56 55 54 53 52 51 51 50 50 68 116 127 128 128 128 128 128 128 128 128 128
128 128 128 128 128 128 128 128 128 128 128 173 205 204 203 203 202 201 200 199 198 197 196 196 194 193 192 191 190 189 188 186 185 184 183 181 180 179 177 176 174 172 171 169 167 166 164 162 160 158 156 154 152 150 148 146 144 142 140 138 135 133 131 129 128 128 128 128 128 128 86 37 37 38 39 39 40 40 41 42 43 43 44 45 46 47 48 48 49 50 51 52 54 55 56 57 58 60 61 62 64 65 67 68 70 72 74 75 77 80 81 84 86 88 90 93 95 98 100 103 106 109 112 114 117 120 123 126 128 128 128 128 128 128 128 128 128 128 128 173 205 204 203 203 202 201 200 199 198 197 196 196 194 193 192 191 190 189 188 186 185 184 183 181 180 179 177 176 174 172 171 169 167 166 164 162 160 158 156 154 152 150 148 146 144 142 140 138 135 133 131 129 127 127 127 127 127 127 127 127 127 127 127 127 127 127 127 127 127 127 127 127 127 127 127 127 127 127 127 127 127 127 127 127 127 0 0 0 0 0 0 0 0 0 0 0 0 0 0 0 0 0 0 0 0 0 0 0 0 0 0 0 0 0 0 0 0 0 0 0 0 0 0 0 0 0 0 0 0 0 0 0 0 0 0 0 0 0 0 0 0 0 0 0 0 0 127 127 127 127 127 127 127 127 127 127 127 127 127 127 127 127 127 127 127 127 127 127 127 127 127 127 127 127 127 127 127 127 127 127 127 127 122 120 117 115 113 111 109 107 105 103 101 99 97 95 93 91 89 88 86 84 83 81 80 78 77 75 74 72 71 70 68 67 66 65 64 63 62 61 59 59 58 57 56 55 54 53 53 52 51 60 103 126 128 128 128 128 128 128 128 128 128 128 129 132 135 138 141 144 146 149 152 154 157 160 162 164 167 169 171 174 175 177 180 181 183 185 187 188 190 191 193 194 195 197 198 199 200 202 203 203 205 206 207 208 208 209 210 211 212 212 213 214 215 215 216 217 217 218 216 195 138 128 128 128 128 128 126 124 122 120 117 115 113 111 109 107 105 103 101 99 97 95 93 91 89 88 86 84 83 81 80 78 77 75 74 72 71 70 68 67 66 65 64 63 62 61 59 59 58 57 56 55 54 53 53 52 51 60 103 126 128 128 128 128 128 128 128 128 128 128
128 128 128 128 128 128 128 128 128 128 128 131 189 203 202 202 201 200 199 198 197 196 195 194 193 192 191 190 189 188 187 185 184 183 182 180 179 178 176 174 173 171 170 168 166 165 163 161 159 158 156 154 152 150 148 146 143 141 139 137 135 133 131 129 128 128 128 128 128 122 39 36 36 37 37 38 39 39 40 41 41 42 43 44 44 45 46 47 48 49 50 51 52 53 54 56 57 58 59 61 62 64 65 67 69 70 72 74 76 78 80 82 85 87 89 92 94 97 100 102 105 108 111 114 117 120 123 126 128 128 128 128 128 128 128 128 128 128 128 131 189 203 202 202 201 200 199 198 197 196 195 194 193 192 191 190 189 188 187 185 184 183 182 180 179 178 176 174 173 171 170 168 166 165 163 161 159 158 156 154 152 150 148 146 143 141 139 137 135 133 131 129 127 127 127 127 127 127 127 127 127 127 127 127 127 127 127 127 127 127 127 127 127 127 127 127 127 127 127 127 127 127 127 127 127 0 0 0 0 0 0 0 0 0 0 0 0 0 0 0 0 0 0 0 0 0 0 0 0 0 0 0 0 0 0 0 0 0 0 0 0 0 0 0 0 0 0 0 0 0 0 0 0 0 0 0 0 0 0 0 0 0 0 0 0 0 127 127 127 127 127 127 127 127 127 127 127 127 127 127 127 127 127 127 127 127 127 127 127 127 127 127 127 127 127 127 127 127 127 127 127 127 122 120 118 116 114 111 109 107 105 103 101 99 98 96 94 92 91 89 87 85 84 82 81 79 78 76 75 73 72 71 69 68 67 66 65 64 63 62 61 60 59 58 57 56 55 54 54 53 57 89 124 128 128 128 128 128 128 128 128 128 128 128 129 132 135 138 141 144 147 150 153 155 158 161 163 166 168 170 173 175 177 179 181 183 185 186 188 190 191 193 194 196 197 198 200 201 202 203 204 205 206 207 208 209 210 211 211 212 213 214 214 215 216 216 217 218 218 219 219 213 160 131 128 128 128 128 126 124 122 120 118 116 114 111 109 107 105 103 101 99 98 96 94 92 91 89 87 85 84 82 81 79 78 76 75 73 72 71 69 68 67 66 65 64 63 62 61 60 59 58 57 56 55 54 54 53 57 89 124 128 128 128 128 128 128 128 128 128 128 128
128 128 128 128 128 128 128 128 128 128 128 128 141 198 201 201 200 199 198 197 196 195 194 194 192 191 190 189 188 187 186 184 183 182 181 179 178 176 175 173 172 171 169 167 166 164 162 160 159 157 155 153 151 149 147 145 143 141 139 137 135 133 131 129 128 128 128 128 128 91 34 35 35 36 36 37 37 38 38 39 40 41 41 42 43 44 45 46 46 47 48 50 51 52 53 54 55 57 58 59 61 62 64 65 67 69 71 73 74 77 79 81 83 86 88 91 93 96 98 101 104 107 110 113 116 120 123 126 128 128 128 128 128 128 128 128 128 128 128 128 141 198 201 201 200 199 198 197 196 195 194 194 192 191 190 189 188 187 186 184 183 182 181 179 178 176 175 173 172 171 169 167 166 164 162 160 159 157 155 153 151 149 147 145 143 141 139 137 135 133 131 129 127 127 127 127 127 127 127 127 127 127 127 127 127 127 127 127 127 127 127 127 127 127 127 127 127 127 127 127 127 127 127 127 127 0 0 0 0 0 0 0 0 0 0 0 0 0 0 0 0 0 0 0 0 0 0 0 0 0 0 0 0 0 0 0 0 0 0 0 0 0 0 0 0 0 0 0 0 0 0 0 0 0 0 0 0 0 0 0 0 0 0 0 0 0 127 127 127 127 127 127 127 127 127 127 127 127 127 127 127 127 127 127 127 127 127 127 127 127 127 127 127 127 127 127 127 127 127 127 127 127 122 120 118 116 114 112 110 108 106 104 102 100 98 97 95 93 91 89 88 86 85 83 81 80 79 77 76 75 73 72 70 69 68 67 66 65 64 63 62 61 60 59 58 57 56 55 54 56 77 120 128 128 128 128 128 128 128 128 128 128 128 128 129 132 136 139 142 145 148 151 154 157 159 162 164 167 169 172 174 176 178 181 183 184 186 188 190 191 193 194 196 197 199 200 201 202 203 204 205 206 208 208 209 210 211 212 213 213 214 215 216 216 217 218 218 219 219 220 221 219 192 136 128 128 128 128 127 124 122 120 118 116 114 112 110 108 106 104 102 100 98 97 95 93 91 89 88 86 85 83 81 80 79 77 76 75 73 72 70 69 68 67 66 65 64 63 62 61 60 59 58 57 56 55 54 56 77 120 128 128 128 128 128 128 128 128 128 128 128 128
128 128 128 128 128 128 128 128 128 128 128 128 128 154 199 199 199 198 197 196 195 194 193 192 191 190 189 188 187 186 185 183 182 181 180 178 177 175 174 172 171 169 168 166 165 163 161 160 158 156 154 152 151 149 147 145 143 141 139 137 135 133 131 129 128 128 128 128 125 48 33 33 34 34 35 35 36 37 37 38 39 39 40 41 42 42 43 44 45 46 47 48 49 50 51 52 54 55 56 58 59 60 62 64 65 67 69 71 73 75 77 79 82 84 86 89 92 95 97 100 104 106 109 113 116 119 122 126 128 128 128 128 128 128 128 128 128 128 128 128 128 154 199 199 199 198 197 196 195 194 193 192 191 190 189 188 187 186 185 183 182 181 180 178 177 175 174 172 171 169 168 166 165 163 161 160 158 156 154 152 151 149 147 145 143 141 139 137 135 133 131 129 127 127 127 127 127 127 127 127 127 127 127 127 127 127 127 127 127 127 127 127 127 127 127 127 127 127 127 127 127 127 127 127 127 0 0 0 0 0 0 0 0 0 0 0 0 0 0 0 0 0 0 0 0 0 0 0 0 0 0 0 0 0 0 0 0 0 0 0 0 0 0 0 0 0 0 0 0 0 0 0 0 0 0 0 0 0 0 0 0 0 0 0 0 0 127 127 127 127 127 127 127 127 127 127 127 127 127 127 127 127 127 127 127 127 127 127 127 127 127 127 127 127 127 127 127 127 127 127 127 127 122 120 118 116 114 112 110 108 106 105 103 101 99 97 95 94 92 90 89 87 85 84 82 81 80 78 77 75 74 73 72 70 69 68 67 66 65 64 63 62 61 60 59 58 57 56 57 70 114 127 128 128 128 128 128 128 128 128 128 128 128 128 129 133 136 139 142 145 149 152 155 157 160 163 166 169 171 173 176 178 180 182 184 186 188 190 191 193 194 196 197 199 200 201 203 204 205 206 207 208 209 210 211 212 213 213 214 215 216 216 217 218 218 219 220 220 221 221 222 222 214 152 130 128 128 128 127 124 122 120 118 116 114 112 110 108 106 105 103 101 99 97 95 94 92 90 89 87 85 84 82 81 80 78 77 75 74 73 72 70 69 68 67 66 65 64 63 62 61 60 59 58 57 56 57 70 114 127 128 128 128 128 128 128 128 128 128 128 128 128
128 128 128 128 128 128 128 128 128 128 128 128 128 128 167 198 198 197 196 195 194 193 192 191 190 189 188 187 186 185 184 182 181 180 179 177 176 175 173 171 170 169 167 166 164 162 161 159 157 156 154 152 150 148 146 144 142 140 139 137 134 133 130 129 128 128 128 128 106 31 31 32 32 33 34 34 35 35 36 37 37 38 39 39 40 41 42 43 44 45 46 46 48 48 50 51 52 53 55 56 57 59 61 62 64 66 67 69 71 73 76 78 80 83 85 88 91 93 96 99 102 106 109 112 116 119 122 126 128 128 128 128 128 128 128 128 128 128 128 128 128 128 167 198 198 197 196 195 194 193 192 191 190 189 188 187 186 185 184 182 181 180 179 177 176 175 173 171 170 169 167 166 164 162 161 159 157 156 154 152 150 148 146 144 142 140 139 137 134 133 130 129 127 127 127 127 127 127 127 127 127 127 127 127 127 127 127 127 127 127 127 127 127 127 127 127 127 127 127 127 127 127 127 127 127 0 0 0 0 0 0 0 0 0 0 0 0 0 0 0 0 0 0 0 0 0 0 0 0 0 0 0 0 0 0 0 0 0 0 0 0 0 0 0 0 0 0 0 0 0 0 0 0 0 0 0 0 0 0 0 0 0 0 0 0 0 127 127 127 127 127 127 127 127 127 127 127 127 127 127 127 127 127 127 127 127 127 127 127 127 127 127 127 127 127 127 127 127 127 127 127 127 123 121 119 117 115 113 111 109 107 105 103 101 100 98 96 94 93 91 89 88 86 85 83 82 80 79 78 76 75 74 73 71 70 69 68 67 66 65 64 63 62 61 60 59 58 58 67 106 126 128 128 128 128 128 128 128 128 128 128 128 128 128 129 133 136 139 143 146 149 153 156 159 161 164 167 170 172 175 177 179 182 184 186 188 189 191 193 194 196 197 199 200 202 203 204 205 207 207 209 209 211 212 212 213 214 215 215 216 217 218 218 219 220 220 221 221 222 222 223 224 221 183 134 128 128 128 127 124 123 121 119 117 115 113 111 109 107 105 103 101 100 98 96 94 93 91 89 88 86 85 83 82 80 79 78 76 75 74 73 71 70 69 68 67 66 65 64 63 62 61 60 59 58 58 67 106 126 128 128 128 128 128 128 128 128 128 128 128 128 128
128 128 128 128 128 128 128 128 128 128 128 128 128 128 129 176 197 196 195 194 193 192 191 190 189 188 187 186 185 184 183 181 180 179 178 176 175 174 172 171 169 168 166 165 163 162 160 158 156 155 153 151 149 148 146 144 142 140 138 136 134 133 130 129 128 128 128 128 67 30 30 31 31 32 32 33 33 34 35 35 36 37 37 38 39 40 40 41 42 43 44 45 46 47 48 49 50 52 53 54 56 57 59 60 62 64 66 68 70 72 74 76 79 81 84 86 89 92 95 98 101 105 108 111 115 119 122 126 128 128 128 128 128 128 128 128 128 128 128 128 128 128 129 176 197 196 195 194 193 192 191 190 189 188 187 186 185 184 183 181 180 179 178 176 175 174 172 171 169 168 166 165 163 162 160 158 156 155 153 151 149 148 146 144 142 140 138 136 134 133 130 129 127 127 127 127 127 127 127 127 127 127 127 127 127 127 127 127 127 127 127 127 127 127 127 127 127 127 127 127 127 127 127 127 127 0 0 0 0 0 0 0 0 0 0 0 0 0 0 0 0 0 0 0 0 0 0 0 0 0 0 0 0 0 0 0 0 0 0 0 0 0 0 0 0 0 0 0 0 0 0 0 0 0 0 0 0 0 0 0 0 0 0 0 0 0 127 127 127 127 127 127 127 127 127 127 127 127 127 127 127 127 127 127 127 127 127 127 127 127 127 127 127 127 127 127 127 127 127 127 127 127 123 121 119 117 115 113 111 109 107 105 104 102 100 98 97 95 93 92 90 89 87 86 84 83 81 80 79 77 76 75 74 73 71 70 69 68 67 66 65 64 63 62 61 60 59 65 98 125 128 128 128 128 128 128 128 128 128 128 128 128 128 128 129 133 136 140 144 147 150 154 157 160 163 166 169 171 174 176 179 181 183 185 187 189 191 193 195 196 198 199 201 202 203 205 206 207 208 209 210 211 212 213 214 215 216 216 217 218 218 219 220 220 221 222 222 223 223 224 224 225 224 209 141 128 128 128 127 125 123 121 119 117 115 113 111 109 107 105 104 102 100 98 97 95 93 92 90 89 87 86 84 83 81 80 79 77 76 75 74 73 71 70 69 68 67 66 65 64 63 62 61 60 59 65 98 125 128 128 128 128 128 128 128 128 128 128 128 128 128 128
128 128 128 128 128 128 128 128 128 128 128 128 128 128 128 131 180 195 194 193 192 191 190 189 188 187 186 185 184 183 182 180 179 178 177 175 174 173 171 170 169 167 165 164 162 161 159 158 156 154 153 151 149 147 145 143 142 140 138 136 134 132 130 128 128 128 128 121 31 29 29 30 30 30 31 31 32 33 33 34 35 35 36 37 37 38 39 40 40 41 42 43 44 45 46 48 49 50 51 52 54 55 57 59 60 62 64 66 68 70 72 74 77 79 82 85 88 91 94 97 100 104 107 111 114 118 122 126 128 128 128 128 128 128 128 128 128 128 128 128 128 128 128 131 180 195 194 193 192 191 190 189 188 187 186 185 184 183 182 180 179 178 177 175 174 173 171 170 169 167 165 164 162 161 159 158 156 154 153 151 149 147 145 143 142 140 138 136 134 132 130 128 127 127 127 127 127 127 127 127 127 127 127 127 127 127 127 127 127 127 127 127 127 127 127 127 127 127 127 127 127 127 127 127 127 0 0 0 0 0 0 0 0 0 0 0 0 0 0 0 0 0 0 0 0 0 0 0 0 0 0 0 0 0 0 0 0 0 0 0 0 0 0 0 0 0 0 0 0 0 0 0 0 0 0 0 0 0 0 0 0 0 0 0 0 0 127 127 127 127 127 127 127 127 127 127 127 127 127 127 127 127 127 127 127 127 127 127 127 127 127 127 127 127 127 127 127 127 127 127 127 127 123 121 119 117 115 113 112 110 108 106 104 102 101 99 98 96 94 93 91 89 88 87 85 84 82 81 80 78 77 76 74 73 72 71 70 69 68 67 66 65 64 63 62 61 66 95 124 128 128 128 128 128 128 128 128 128 128 128 128 128 128 128 129 133 137 141 144 148 151 155 158 161 164 167 170 173 176 178 181 183 185 187 189 191 193 195 196 198 200 201 203 204 205 206 208 209 210 211 212 213 214 215 215 216 217 218 219 219 220 220 221 222 222 223 223 224 224 225 226 226 227 221 164 131 128 128 127 125 123 121 119 117 115 113 112 110 108 106 104 102 101 99 98 96 94 93 91 89 88 87 85 84 82 81 80 78 77 76 74 73 72 71 70 69 68 67 66 65 64 63 62 61 66 95 124 128 128 128 128 128 128 128 128 128 128 128 128 128 128 128
128 128 128 128 128 128 128 128 128 128 128 128 128 128 128 128 134 183 193 192 191 190 189 188 187 186 185 184 183 182 181 180 178 177 176 175 173 172 170 169 168 166 165 163 162 160 159 157 155 154 152 150 148 147 145 143 141 140 138 136 134 132 130 129 128 128 128 96 27 27 28 28 28 29 30 30 31 31 32 32 33 34 34 35 36 36 37 38 39 40 41 42 43 44 45 46 47 48 49 51 52 53 55 57 58 60 62 64 66 68 70 73 75 78 80 83 86 89 92 96 99 103 106 110 114 118 122 126 128 128 128 128 128 128 128 128 128 128 128 128 128 128 128 128 134 183 193 192 191 190 189 188 187 186 185 184 183 182 181 180 178 177 176 175 173 172 170 169 168 166 165 163 162 160 159 157 155 154 152 150 148 147 145 143 141 140 138 136 134 132 130 129 127 127 127 127 127 127 127 127 127 127 127 127 127 127 127 127 127 127 127 127 127 127 127 127 127 127 127 127 127 127 127 127 127 0 0 0 0 0 0 0 0 0 0 0 0 0 0 0 0 0 0 0 0 0 0 0 0 0 0 0 0 0 0 0 0 0 0 0 0 0 0 0 0 0 0 0 0 0 0 0 0 0 0 0 0 0 0 0 0 0 0 0 0 0 127 127 127 127 127 127 127 127 127 127 127 127 127 127 127 127 127 127 127 127 127 127 127 127 127 127 127 127 127 127 127 127 127 127 127 127 123 121 119 117 115 114 112 110 108 107 105 103 101 100 98 96 95 93 92 90 89 87 86 84 83 82 80 79 78 77 76 74 73 72 71 70 69 68 67 66 64 64 63 66 91 122 128 128 128 128 128 128 128 128 128 128 128 128 128 128 128 128 129 134 137 141 145 149 152 156 159 163 166 169 172 175 177 180 182 185 187 189 191 193 195 197 199 200 202 203 204 206 207 208 209 210 211 213 213 214 215 216 217 218 219 219 220 221 221 222 222 223 224 224 225 225 226 226 227 227 228 225 193 135 128 128 127 125 123 121 119 117 115 114 112 110 108 107 105 103 101 100 98 96 95 93 92 90 89 87 86 84 83 82 80 79 78 77 76 74 73 72 71 70 69 68 67 66 64 64 63 66 91 122 128 128 128 128 128 128 128 128 128 128 128 128 128 128 128 128
128 128 128 128 128 128 128 128 128 128 128 128 128 128 128 128 128 136 183 191 190 189 188 187 186 185 184 183 182 181 180 179 177 176 175 174 172 171 170 168 167 165 164 163 161 160 158 156 155 153 151 150 148 146 145 143 141 139 138 136 134 132 130 128 128 128 128 62 26 26 27 27 27 28 28 29 29 30 31 31 32 32 33 33 34 35 36 36 37 38 39 40 41 42 43 44 45 46 47 49 50 52 53 55 56 58 60 62 64 66 68 70 73 76 78 81 84 88 91 94 98 102 105 109 113 117 121 125 128 128 128 128 128 128 128 128 128 128 128 128 128 128 128 128 128 136 183 191 190 189 188 187 186 185 184 183 182 181 180 179 177 176 175 174 172 171 170 168 167 165 164 163 161 160 158 156 155 153 151 150 148 146 145 143 141 139 138 136 134 132 130 128 127 127 127 127 127 127 127 127 127 127 127 127 127 127 127 127 127 127 127 127 127 127 127 127 127 127 127 127 127 127 127 127 127 0 0 0 0 0 0 0 0 0 0 0 0 0 0 0 0 0 0 0 0 0 0 0 0 0 0 0 0 0 0 0 0 0 0 0 0 0 0 0 0 0 0 0 0 0 0 0 0 0 0 0 0 0 0 0 0 0 0 0 0 0 127 127 127 127 127 127 127 127 127 127 127 127 127 127 127 127 127 127 127 127 127 127 127 127 127 127 127 127 127 127 127 127 127 127 127 127 123 121 119 117 116 114 112 110 109 107 105 104 102 100 99 97 95 94 93 91 89 88 87 85 84 83 81 80 79 78 76 75 74 73 72 71 70 68 68 67 66 65 68 88 121 127 128 128 128 128 128 128 128 128 128 128 128 128 128 128 128 128 130 134 138 142 146 150 154 157 161 164 168 171 174 177 180 182 184 187 189 191 193 195 197 199 200 202 204 205 206 208 209 210 211 212 213 214 215 216 217 218 219 219 220 221 221 222 223 223 224 224 225 226 226 227 227 228 228 229 229 228 215 143 128 128 126 125 123 121 119 117 116 114 112 110 109 107 105 104 102 100 99 97 95 94 93 91 89 88 87 85 84 83 81 80 79 78 76 75 74 73 72 71 70 68 68 67 66 65 68 88 121 127 128 128 128 128 128 128 128 128 128 128 128 128 128 128 128 128
128 128 128 128 128 128 128 128 128 128 128 128 128 128 128 128 128 128 136 182 190 188 187 187 185 184 183 182 181 180 179 178 177 175 174 173 172 170 169 168 166 165 163 162 160 159 157 156 154 152 151 149 147 146 144 142 141 139 137 135 134 132 130 129 128 128 121 28 24 25 25 26 26 27 27 28 28 28 29 29 30 31 31 32 33 33 34 35 36 36 37 38 39 40 41 42 43 44 46 47 48 49 51 52 54 56 58 60 62 64 66 68 71 74 76 79 82 86 89 92 96 100 104 108 112 117 121 125 128 128 128 128 128 128 128 128 128 128 128 128 128 128 128 128 128 128 136 182 190 188 187 187 185 184 183 182 181 180 179 178 177 175 174 173 172 170 169 168 166 165 163 162 160 159 157 156 154 152 151 149 147 146 144 142 141 139 137 135 134 132 130 129 127 127 127 127 127 127 127 127 127 127 127 127 127 127 127 127 127 127 127 127 127 127 127 127 127 127 127 127 127 127 127 127 127 0 0 0 0 0 0 0 0 0 0 0 0 0 0 0 0 0 0 0 0 0 0 0 0 0 0 0 0 0 0 0 0 0 0 0 0 0 0 0 0 0 0 0 0 0 0 0 0 0 0 0 0 0 0 0 0 0 0 0 0 0 127 127 127 127 127 127 127 127 127 127 127 127 127 127 127 127 127 127 127 127 127 127 127 127 127 127 127 127 127 127 127 127 127 127 127 127 123 121 120 118 116 114 113 111 109 107 106 104 102 101 99 98 96 95 93 92 90 89 87 86 85 83 82 81 80 78 77 76 75 74 73 72 71 70 68 68 66 70 89 120 127 128 128 128 128 128 128 128 128 128 128 128 128 128 128 128 128 128 130 134 139 143 147 151 155 159 163 166 169 173 176 179 182 184 187 189 191 193 196 197 199 201 202 204 205 207 208 209 211 212 213 214 215 216 217 218 219 220 220 221 222 222 223 224 224 225 225 226 227 227 227 228 229 229 229 230 230 231 225 164 131 128 127 125 123 121 120 118 116 114 113 111 109 107 106 104 102 101 99 98 96 95 93 92 90 89 87 86 85 83 82 81 80 78 77 76 75 74 73 72 71 70 68 68 66 70 89 120 127 128 128 128 128 128 128 128 128 128 128 128 128 128 128 128 128 128
128 128 128 128 128 128 128 128 128 128 128 128 128 128 128 128 128 128 128 135 178 188 187 186 185 184 183 182 180 179 178 177 176 175 173 172 171 169 168 167 166 164 163 161 160 158 157 155 154 152 150 149 147 146 144 142 140 139 137 135 133 132 130 128 128 128 102 23 23 24 24 24 25 25 26 26 27 27 28 28 29 29 30 30 31 32 32 33 34 35 35 36 37 38 39 40 41 42 44 45 46 47 49 50 52 54 55 57 59 62 64 66 69 71 74 77 80 84 87 91 95 99 103 107 112 116 120 125 128 128 128 128 128 128 128 128 128 128 128 128 128 128 128 128 128 128 128 135 178 188 187 186 185 184 183 182 180 179 178 177 176 175 173 172 171 169 168 167 166 164 163 161 160 158 157 155 154 152 150 149 147 146 144 142 140 139 137 135 133 132 130 128 127 127 127 127 127 127 127 127 127 127 127 127 127 127 127 127 127 127 127 127 127 127 127 127 127 127 127 127 127 127 127 127 127 0 0 0 0 0 0 0 0 0 0 0 0 0 0 0 0 0 0 0 0 0 0 0 0 0 0 0 0 0 0 0 0 0 0 0 0 0 0 0 0 0 0 0 0 0 0 0 0 0 0 0 0 0 0 0 0 0 0 0 0 0 127 127 127 127 127 127 127 127 127 127 127 127 127 127 127 127 127 127 127 127 127 127 127 127 127 127 127 127 127 127 127 127 127 127 127 127 123 121 120 118 116 114 113 111 110 108 106 105 103 101 100 98 97 95 94 92 91 90 88 87 86 84 83 82 80 79 78 77 75 74 73 72 71 70 69 68 72 93 121 127 128 128 128 128 128 128 128 128 128 128 128 128 128 128 128 128 128 128 130 134 139 144 148 152 156 160 164 168 172 175 178 181 184 186 189 191 193 196 198 200 201 203 205 206 208 209 210 212 213 214 215 216 217 218 219 220 220 221 222 223 223 224 225 225 226 226 227 228 228 229 229 229 230 230 231 231 231 232 229 191 135 128 127 125 123 121 120 118 116 114 113 111 110 108 106 105 103 101 100 98 97 95 94 92 91 90 88 87 86 84 83 82 80 79 78 77 75 74 73 72 71 70 69 68 72 93 121 127 128 128 128 128 128 128 128 128 128 128 128 128 128 128 128 128 128 128
128 128 128 128 128 128 128 128 128 128 128 128 128 128 128 128 128 128 128 128 133 173 186 185 184 183 182 181 180 179 177 176 175 174 173 171 170 169 167 166 165 163 162 161 159 158 156 155 153 152 150 148 147 145 144 142 140 138 137 135 133 132 130 128 128 128 77 22 22 22 23 23 23 24 24 25 25 25 26 27 27 28 28 29 29 30 31 32 32 33 34 35 35 36 37 38 39 40 41 43 44 45 47 48 50 51 53 55 57 59 61 64 66 69 72 75 78 82 85 89 93 97 101 106 110 115 120 125 128 128 128 128 128 128 128 128 128 128 128 128 128 128 128 128 128 128 128 128 133 173 186 185 184 183 182 181 180 179 177 176 175 174 173 171 170 169 167 166 165 163 162 161 159 158 156 155 153 152 150 148 147 145 144 142 140 138 137 135 133 132 130 128 127 127 127 127 127 127 127 127 127 127 127 127 127 127 127 127 127 127 127 127 127 127 127 127 127 127 127 127 127 127 127 127 127 0 0 0 0 0 0 0 0 0 0 0 0 0 0 0 0 0 0 0 0 0 0 0 0 0 0 0 0 0 0 0 0 0 0 0 0 0 0 0 0 0 0 0 0 0 0 0 0 0 0 0 0 0 0 0 0 0 0 0 0 0 127 127 127 127 127 127 127 127 127 127 127 127 127 127 127 127 127 127 127 127 127 127 127 127 127 127 127 127 127 127 127 127 127 127 127 127 123 122 120 118 117 115 113 112 110 108 107 105 103 102 100 99 97 96 94 93 92 90 89 88 86 85 84 82 81 80 79 77 76 75 74 73 72 71 70 75 98 123 128 128 128 128 128 128 128 128 128 128 128 128 128 128 128 128 128 128 128 128 130 135 140 144 149 154 158 162 166 170 173 177 180 183 186 189 191 194 196 198 200 202 204 205 207 209 210 211 212 214 215 216 217 218 219 220 221 221 222 223 224 224 225 226 226 227 227 228 228 229 229 230 230 231 231 231 232 232 232 233 232 212 140 128 127 125 123 122 120 118 117 115 113 112 110 108 107 105 103 102 100 99 97 96 94 93 92 90 89 88 86 85 84 82 81 80 79 77 76 75 74 73 72 71 70 75 98 123 128 128 128 128 128 128 128 128 128 128 128 128 128 128 128 128 128 128 128 128
128 128 128 128 128 128 128 128 128 128 128 128 128 128 128 128 128 128 128 128 128 131 167 184 183 182 181 180 179 178 177 175 174 173 172 171 169 168 167 165 164 163 161 160 159 157 156 154 153 151 150 148 146 145 143 142 140 138 137 135 133 131 130 128 128 129 34 20 21 21 21 22 22 22 23 23 24 24 25 25 25 26 27 27 28 28 29 29 30 31 32 33 34 34 35 36 37 38 39 40 42 43 44 46 47 49 51 53 55 56 59 61 64 66 69 72 76 79 83 87 91 95 100 104 109 115 120 125 128 128 128 128 128 128 128 128 128 128 128 128 128 128 128 128 128 128 128 128 128 131 167 184 183 182 181 180 179 178 177 175 174 173 172 171 169 168 167 165 164 163 161 160 159 157 156 154 153 151 150 148 146 145 143 142 140 138 137 135 133 131 130 128 127 127 127 127 127 127 127 127 127 127 127 127 127 127 127 127 127 127 127 127 127 127 127 127 127 127 127 127 127 127 127 127 127 0 0 0 0 0 0 0 0 0 0 0 0 0 0 0 0 0 0 0 0 0 0 0 0 0 0 0 0 0 0 0 0 0 0 0 0 0 0 0 0 0 0 0 0 0 0 0 0 0 0 0 0 0 0 0 0 0 0 0 0 0 127 127 127 127 127 127 127 127 127 127 127 127 127 127 127 127 127 127 127 127 127 127 127 127 127 127 127 127 127 127 127 127 127 127 127 127 123 122 120 118 117 115 114 112 110 109 107 105 104 102 101 99 98 96 95 94 92 91 89 88 87 86 84 83 82 81 80 79 77 76 75 74 73 73 78 102 124 128 128 128 128 128 128 128 128 128 128 128 128 128 128 128 128 128 128 128 128 128 130 135 140 146 151 155 160 164 168 172 176 179 183 186 189 191 194 196 198 200 202 204 206 208 209 211 212 213 214 216 217 218 219 220 221 222 222 223 224 225 225 226 227 227 228 228 229 229 230 230 231 231 232 232 232 233 233 234 234 234 235 226 151 129 127 125 123 122 120 118 117 115 114 112 110 109 107 105 104 102 101 99 98 96 95 94 92 91 89 88 87 86 84 83 82 81 80 79 77 76 75 74 73 73 78 102 124 128 128 128 128 128 128 128 128 128 128 128 128 128 128 128 128 128 128 128 128 128
128 128 128 128 128 128 128 128 128 128 128 128 128 128 128 128 128 128 128 128 128 128 129 157 181 181 180 179 178 177 176 175 174 172 171 170 169 167 166 165 164 162 161 159 158 156 155 154 152 151 149 148 146 144 143 141 140 138 137 135 133 132 130 128 128 116 20 19 20 20 20 20 21 21 21 22 22 23 23 24 24 25 25 26 26 27 27 28 29 29 30 31 32 32 33 34 35 36 37 38 39 41 42 44 45 46 48 50 52 54 56 59 61 64 67 70 73 77 80 85 89 93 98 103 108 114 119 125 128 128 128 128 128 128 128 128 128 128 128 128 128 128 128 128 128 128 128 128 128 128 129 157 181 181 180 179 178 177 176 175 174 172 171 170 169 167 166 165 164 162 161 159 158 156 155 154 152 151 149 148 146 144 143 141 140 138 137 135 133 132 130 128 127 127 127 127 127 127 127 127 127 127 127 127 127 127 127 127 127 127 127 127 127 127 127 127 127 127 127 127 127 127 127 127 127 0 0 0 0 0 0 0 0 0 0 0 0 0 0 0 0 0 0 0 0 0 0 0 0 0 0 0 0 0 0 0 0 0 0 0 0 0 0 0 0 0 0 0 0 0 0 0 0 0 0 0 0 0 0 0 0 0 0 0 0 0 127 127 127 127 127 127 127 127 127 127 127 127 127 127 127 127 127 127 127 127 127 127 127 127 127 127 127 127 127 127 127 127 127 127 127 127 123 122 120 119 117 115 114 112 110 109 107 106 104 103 101 100 99 97 96 94 93 91 90 89 88 86 85 84 83 81 80 79 78 77 76 75 75 82 109 125 128 128 128 128 128 128 128 128 128 128 128 128 128 128 128 128 128 128 128 128 128 128 130 136 141 147 152 157 162 166 170 174 178 182 185 188 191 194 197 199 201 203 205 207 209 210 212 213 214 216 217 218 219 220 221 222 223 224 224 225 226 226 227 228 228 229 229 230 231 231 231 232 232 233 233 234 234 234 235 235 235 236 236 231 173 132 127 125 123 122 120 119 117 115 114 112 110 109 107 106 104 103 101 100 99 97 96 94 93 91 90 89 88 86 85 84 83 81 80 79 78 77 76 75 75 82 109 125 128 128 128 128 128 128 128 128 128 128 128 128 128 128 128 128 128 128 128 128 128 128
128 128 128 128 128 128 128 128 128 128 128 128 128 128 128 128 128 128 128 128 128 128 128 128 146 177 179 178 177 176 175 174 173 172 171 169 168 167 166 164 163 161 160 159 157 156 155 153 152 150 149 147 145 144 143 141 140 138 136 135 133 132 130 128 128 100 18 18 18 18 19 19 19 20 20 21 21 21 22 22 22 23 23 24 24 25 26 26 27 28 28 29 30 30 31 32 33 34 35 36 37 38 40 41 42 44 45 47 49 51 53 56 58 61 63 67 70 74 78 82 86 91 96 101 107 113 119 125 128 128 128 128 128 128 128 128 128 128 128 128 128 128 128 128 128 128 128 128 128 128 128 128 146 177 179 178 177 176 175 174 173 172 171 169 168 167 166 164 163 161 160 159 157 156 155 153 152 150 149 147 145 144 143 141 140 138 136 135 133 132 130 128 127 127 127 127 127 127 127 127 127 127 127 127 127 127 127 127 127 127 127 127 127 127 127 127 127 127 127 127 127 127 127 127 127 0 0 0 0 0 0 0 0 0 0 0 0 0 0 0 0 0 0 0 0 0 0 0 0 0 0 0 0 0 0 0 0 0 0 0 0 0 0 0 0 0 0 0 0 0 0 0 0 0 0 0 0 0 0 0 0 0 0 0 0 0 127 127 127 127 127 127 127 127 127 127 127 127 127 127 127 127 127 127 127 127 127 127 127 127 127 127 127 127 127 127 127 127 127 127 127 127 123 122 120 119 117 115 114 112 111 110 108 106 105 103 102 100 99 98 96 95 93 92 91 90 88 87 86 85 84 82 81 80 79 78 77 78 89 116 126 128 128 128 128 128 128 128 128 128 128 128 128 128 128 128 128 128 128 128 128 128 128 128 131 137 142 148 154 159 164 169 173 177 181 185 188 191 194 197 199 202 204 206 208 210 211 213 214 216 217 218 219 220 221 222 223 224 225 226 226 227 228 228 229 229 230 231 231 231 232 232 233 233 234 234 234 235 235 236 236 236 237 237 237 234 194 135 127 125 123 122 120 119 117 115 114 112 111 110 108 106 105 103 102 100 99 98 96 95 93 92 91 90 88 87 86 85 84 82 81 80 79 78 77 78 89 116 126 128 128 128 128 128 128 128 128 128 128 128 128 128 128 128 128 128 128 128 128 128 128 128
128 128 128 128 128 128 128 128 128 128 128 128 128 128 128 128 128 128 128 128 128 128 128 128 128 136 168 178 176 175 174 173 172 171 170 169 167 166 165 164 162 161 160 158 157 156 154 153 151 150 148 147 145 144 142 141 139 138 136 135 133 131 130 128 128 81 16 16 17 17 17 18 18 18 19 19 19 20 20 20 21 21 22 22 23 23 24 24 25 25 26 27 28 28 29 30 31 31 33 34 35 36 37 38 40 41 43 44 46 48 51 53 55 58 61 64 67 71 75 79 84 89 94 99 105 111 118 124 128 128 128 128 128 128 128 128 128 128 128 128 128 128 128 128 128 128 128 128 128 128 128 128 128 136 168 178 176 175 174 173 172 171 170 169 167 166 165 164 162 161 160 158 157 156 154 153 151 150 148 147 145 144 142 141 139 138 136 135 133 131 130 128 127 127 127 127 127 127 127 127 127 127 127 127 127 127 127 127 127 127 127 127 127 127 127 127 127 127 127 127 127 127 127 127 127 0 0 0 0 0 0 0 0 0 0 0 0 0 0 0 0 0 0 0 0 0 0 0 0 0 0 0 0 0 0 0 0 0 0 0 0 0 0 0 0 0 0 0 0 0 0 0 0 0 0 0 0 0 0 0 0 0 0 0 0 0 127 127 127 127 127 127 127 127 127 127 127 127 127 127 127 127 127 127 127 127 127 127 127 127 127 127 127 127 127 127 127 127 127 127 127 127 123 122 120 119 117 116 114 113 111 110 108 107 105 104 102 101 100 98 97 95 94 93 91 90 89 88 87 85 84 83 82 81 80 79 82 98 121 127 128 128 128 128 128 128 128 128 128 128 128 128 128 128 128 128 128 128 128 128 128 128 128 128 131 137 144 150 156 161 166 171 176 180 184 188 191 195 197 200 202 205 207 209 211 212 214 215 217 218 219 220 221 222 223 224 225 226 227 228 228 229 229 230 231 231 232 232 233 233 234 234 235 235 235 236 236 236 237 237 237 238 238 238 238 237 212 138 127 125 123 122 120 119 117 116 114 113 111 110 108 107 105 104 102 101 100 98 97 95 94 93 91 90 89 88 87 85 84 83 82 81 80 79 82 98 121 127 128 128 128 128 128 128 128 128 128 128 128 128 128 128 128 128 128 128 128 128 128 128 128 128
128 128 128 128 128 128 128 128 128 128 128 128 128 128 128 128 128 128 128 128 128 128 128 128 128 128 130 155 175 175 173 173 171 170 169 168 167 165 164 163 162 160 159 158 156 155 154 152 151 149 148 146 145 144 142 140 139 138 136 135 133 131 130 128 128 63 15 15 15 16 16 16 17 17 17 18 18 18 18 19 19 20 20 20 21 22 22 23 23 24 24 25 25 26 27 28 29 29 30 31 32 33 34 36 37 38 40 42 43 45 47 49 52 54 57 60 64 67 72 76 81 86 91 97 104 110 117 124 128 128 128 128 128 128 128 128 128 128 128 128 128 128 128 128 128 128 128 128 128 128 128 128 128 128 130 155 175 175 173 173 171 170 169 168 167 165 164 163 162 160 159 158 156 155 154 152 151 149 148 146 145 144 142 140 139 138 136 135 133 131 130 128 127 127 127 127 127 127 127 127 127 127 127 127 127 127 127 127 127 127 127 127 127 127 127 127 127 127 127 127 127 127 127 127 127 0 0 0 0 0 0 0 0 0 0 0 0 0 0 0 0 0 0 0 0 0 0 0 0 0 0 0 0 0 0 0 0 0 0 0 0 0 0 0 0 0 0 0 0 0 0 0 0 0 0 0 0 0 0 0 0 0 0 0 0 0 127 127 127 127 127 127 127 127 127 127 127 127 127 127 127 127 127 127 127 127 127 127 127 127 127 127 127 127 127 127 127 127 127 127 127 127 124 122 120 119 117 116 115 113 111 110 109 107 106 104 103 101 100 99 97 96 95 93 92 91 89 88 87 86 85 84 83 81 82 88 109 125 128 128 128 128 128 128 128 128 128 128 128 128 128 128 128 128 128 128 128 128 128 128 128 128 128 128 131 138 145 152 158 164 169 174 179 183 187 191 195 198 201 203 205 208 210 212 213 215 217 218 219 220 222 223 224 225 226 227 227 228 229 229 230 231 231 232 233 233 234 234 234 235 235 236 236 237 237 237 238 238 238 238 239 239 239 239 240 239 226 143 127 125 124 122 120 119 117 116 115 113 111 110 109 107 106 104 103 101 100 99 97 96 95 93 92 91 89 88 87 86 85 84 83 81 82 88 109 125 128 128 128 128 128 128 128 128 128 128 128 128 128 128 128 128 128 128 128 128 128 128 128 128 128 128
128 128 128 128 128 128 128 128 128 128 128 128 128 128 128 128 128 128 128 128 128 128 128 128 128 128 128 128 140 166 173 172 171 170 168 167 166 165 164 162 161 160 159 157 156 155 153 152 150 149 148 146 145 143 142 140 139 137 136 134 133 131 130 128 130 25 14 14 14 14 15 15 15 16 16 16 16 17 17 17 18 18 19 19 19 20 20 20 21 22 22 23 23 24 25 25 26 27 28 29 30 31 32 33 34 36 37 39 40 42 44 46 48 51 54 57 60 64 68 72 77 83 88 95 101 109 116 124 128 128 128 128 128 128 128 128 128 128 128 128 128 128 128 128 128 128 128 128 128 128 128 128 128 128 128 128 140 166 173 172 171 170 168 167 166 165 164 162 161 160 159 157 156 155 153 152 150 149 148 146 145 143 142 140 139 137 136 134 133 131 130 128 127 127 127 127 127 127 127 127 127 127 127 127 127 127 127 127 127 127 127 127 127 127 127 127 127 127 127 127 127 127 127 127 127 0 0 0 0 0 0 0 0 0 0 0 0 0 0 0 0 0 0 0 0 0 0 0 0 0 0 0 0 0 0 0 0 0 0 0 0 0 0 0 0 0 0 0 0 0 0 0 0 0 0 0 0 0 0 0 0 0 0 0 0 0 127 127 127 127 127 127 127 127 127 127 127 127 127 127 127 127 127 127 127 127 127 127 127 127 127 127 127 127 127 127 127 127 127 127 127 127 124 122 121 119 118 116 115 113 112 110 109 108 106 105 103 102 100 99 98 96 95 94 92 91 90 89 88 87 86 84 84 86 98 119 126 128 128 128 128 128 128 128 128 128 128 128 128 128 128 128 128 128 128 128 128 128 128 128 128 128 128 128 132 139 147 154 160 167 173 178 183 187 191 195 198 201 204 207 209 211 213 215 217 218 220 221 222 223 224 225 226 227 228 229 230 230 231 232 232 233 233 234 234 235 235 236 236 237 237 237 238 238 238 239 239 239 240 240 240 240 241 241 241 241 234 154 128 125 124 122 121 119 118 116 115 113 112 110 109 108 106 105 103 102 100 99 98 96 95 94 92 91 90 89 88 87 86 84 84 86 98 119 126 128 128 128 128 128 128 128 128 128 128 128 128 128 128 128 128 128 128 128 128 128 128 128 128 128 128 128
128 128 128 128 128 128 128 128 128 128 128 128 128 128 128 128 128 128 128 128 128 128 128 128 128 128 128 128 128 130 151 169 170 169 168 167 165 164 163 162 161 159 158 157 155 154 153 151 150 149 147 146 145 143 142 140 139 137 136 134 133 131 130 128 116 14 12 13 13 13 13 14 14 14 14 15 15 15 16 16 16 16 17 17 17 18 18 19 19 19 20 21 21 22 22 23 24 24 25 26 27 28 29 30 31 32 34 35 37 39 40 42 45 47 50 53 56 60 64 68 73 79 85 92 99 106 115 123 128 128 128 128 128 128 128 128 128 128 128 128 128 128 128 128 128 128 128 128 128 128 128 128 128 128 128 128 128 130 151 169 170 169 168 167 165 164 163 162 161 159 158 157 155 154 153 151 150 149 147 146 145 143 142 140 139 137 136 134 133 131 130 128 127 127 127 127 127 127 127 127 127 127 127 127 127 127 127 127 127 127 127 127 127 127 127 127 127 127 127 127 127 127 127 127 127 0 0 0 0 0 0 0 0 0 0 0 0 0 0 0 0 0 0 0 0 0 0 0 0 0 0 0 0 0 0 0 0 0 0 0 0 0 0 0 0 0 0 0 0 0 0 0 0 0 0 0 0 0 0 0 0 0 0 0 0 0 127 127 127 127 127 127 127 127 127 127 127 127 127 127 127 127 127 127 127 127 127 127 127 127 127 127 127 127 127 127 127 127 127 127 127 127 124 122 121 119 118 116 115 113 112 111 109 108 106 105 104 102 101 100 98 97 96 94 93 92 91 90 89 87 86 87 93 111 125 127 128 128 128 128 128 128 128 128 128 128 128 128 128 128 128 128 128 128 128 128 128 128 128 128 128 128 128 128 132 140 148 156 163 170 176 182 187 191 195 199 202 205 208 210 213 215 216 218 220 221 222 224 225 226 227 228 229 230 231 231 232 233 233 234 234 235 236 236 236 237 237 238 238 238 239 239 239 240 240 240 241 241 241 241 241 242 242 242 242 243 238 172 131 125 124 122 121 119 118 116 115 113 112 111 109 108 106 105 104 102 101 100 98 97 96 94 93 92 91 90 89 87 86 87 93 111 125 127 128 128 128 128 128 128 128 128 128 128 128 128 128 128 128 128 128 128 128 128 128 128 128 128 128 128 128 128
128 128 128 128 128 128 128 128 128 128 128 128 128 128 128 128 128 128 128 128 128 128 128 128 128 128 128 128 128 128 128 134 156 168 167 166 165 164 163 161 160 159 157 156 155 154 152 151 150 148 147 145 144 143 141 140 138 137 136 134 132 131 130 128 114 11 11 12 12 12 12 12 12 13 13 13 13 14 14 14 14 15 15 15 16 16 17 17 17 18 18 19 19 20 20 21 22 22 23 24 24 25 26 27 28 29 31 32 33 35 37 39 41 43 46 48 52 55 59 64 69 75 81 88 96 104 113 123 128 128 128 128 128 128 128 128 128 128 128 128 128 128 128 128 128 128 128 128 128 128 128 128 128 128 128 128 128 128 128 134 156 168 167 166 165 164 163 161 160 159 157 156 155 154 152 151 150 148 147 145 144 143 141 140 138 137 136 134 132 131 130 128 127 127 127 127 127 127 127 127 127 127 127 127 127 127 127 127 127 127 127 127 127 127 127 127 127 127 127 127 127 127 127 127 127 0 0 0 0 0 0 0 0 0 0 0 0 0 0 0 0 0 0 0 0 0 0 0 0 0 0 0 0 0 0 0 0 0 0 0 0 0 0 0 0 0 0 0 0 0 0 0 0 0 0 0 0 0 0 0 0 0 0 0 0 0 127 127 127 127 127 127 127 127 127 127 127 127 127 127 127 127 127 127 127 127 127 127 127 127 127 127 127 127 127 127 127 127 127 127 127 127 124 122 121 120 118 117 115 114 112 111 109 108 107 105 104 103 101 100 99 97 96 95 94 93 91 90 89 90 93 107 122 127 128 128 128 128 128 128 128 128 128 128 128 128 128 128 128 128 128 128 128 128 128 128 128 128 128 128 128 128 128 128 133 142 151 159 167 174 180 186 191 196 200 203 206 209 212 214 216 218 220 222 223 224 226 227 228 229 230 231 231 232 233 234 234 235 235 236 236 237 237 238 238 239 239 239 240 240 240 241 241 241 241 242 242 242 242 243 243 243 243 243 244 244 240 186 133 125 124 122 121 120 118 117 115 114 112 111 109 108 107 105 104 103 101 100 99 97 96 95 94 93 91 90 89 90 93 107 122 127 128 128 128 128 128 128 128 128 128 128 128 128 128 128 128 128 128 128 128 128 128 128 128 128 128 128 128 128 128 128
128 128 128 128 128 128 128 128 128 128 128 128 128 128 128 128 128 128 128 128 128 128 128 128 128 128 128 128 128 128 128 128 128 138 157 165 164 163 162 161 159 158 157 156 154 153 152 151 149 148 146 145 144 142 141 140 138 137 135 134 132 131 130 128 96 10 10 10 10 10 11 11 11 11 11 11 12 12 12 13 13 13 13 13 14 14 15 15 15 16 16 16 17 17 18 18 19 20 20 21 22 22 23 24 25 26 27 28 30 31 33 35 36 39 41 44 47 50 54 59 64 70 76 84 92 102 111 122 128 128 128 128 128 128 128 128 128 128 128 128 128 128 128 128 128 128 128 128 128 128 128 128 128 128 128 128 128 128 128 128 128 138 157 165 164 163 162 161 159 158 157 156 154 153 152 151 149 148 146 145 144 142 141 140 138 137 135 134 132 131 130 128 127 127 127 127 127 127 127 127 127 127 127 127 127 127 127 127 127 127 127 127 127 127 127 127 127 127 127 127 127 127 127 127 127 0 0 0 0 0 0 0 0 0 0 0 0 0 0 0 0 0 0 0 0 0 0 0 0 0 0 0 0 0 0 0 0 0 0 0 0 0 0 0 0 0 0 0 0 0 0 0 0 0 0 0 0 0 0 0 0 0 0 0 0 0 127 127 127 127 127 127 127 127 127 127 127 127 127 127 127 127 127 127 127 127 127 127 127 127 127 127 127 127 127 127 127 127 127 127 127 127 124 123 121 120 118 117 115 114 113 111 110 108 107 106 104 103 102 100 99 98 97 96 94 93 92 92 94 106 120 126 128 128 128 128 128 128 128 128 128 128 128 128 128 128 128 128 128 128 128 128 128 128 128 128 128 128 128 128 128 128 128 128 134 144 154 163 171 179 185 191 196 201 205 208 211 214 216 218 220 222 224 225 227 228 229 230 231 232 232 233 234 235 235 236 237 237 238 238 239 239 239 240 240 240 241 241 241 242 242 242 243 243 243 243 244 244 244 244 244 244 245 245 245 245 242 199 135 125 124 123 121 120 118 117 115 114 113 111 110 108 107 106 104 103 102 100 99 98 97 96 94 93 92 92 94 106 120 126 128 128 128 128 128 128 128 128 128 128 128 128 128 128 128 128 128 128 128 128 128 128 128 128 128 128 128 128 128 128 128 128
128 128 128 128 128 128 128 128 128 128 128 128 128 128 128 128 128 128 128 128 128 128 128 128 128 128 128 128 128 128 128 128 128 128 128 138 155 162 161 160 159 158 157 155 154 153 152 150 149 148 146 145 143 142 141 139 138 137 135 134 132 131 130 128 99 8 9 9 9 9 9 9 9 10 10 10 10 10 11 11 11 11 11 12 12 12 13 13 13 14 14 14 15 15 16 16 17 17 18 18 19 19 20 21 22 23 24 25 26 27 29 31 32 34 36 39 42 45 49 53 58 64 71 78 87 98 109 121 128 128 128 128 128 128 128 128 128 128 128 128 128 128 128 128 128 128 128 128 128 128 128 128 128 128 128 128 128 128 128 128 128 128 128 138 155 162 161 160 159 158 157 155 154 153 152 150 149 148 146 145 143 142 141 139 138 137 135 134 132 131 130 128 127 127 127 127 127 127 127 127 127 127 127 127 127 127 127 127 127 127 127 127 127 127 127 127 127 127 127 127 127 127 127 127 127 0 0 0 0 0 0 0 0 0 0 0 0 0 0 0 0 0 0 0 0 0 0 0 0 0 0 0 0 0 0 0 0 0 0 0 0 0 0 0 0 0 0 0 0 0 0 0 0 0 0 0 0 0 0 0 0 0 0 0 0 0 127 127 127 127 127 127 127 127 127 127 127 127 127 127 127 127 127 127 127 127 127 127 127 127 127 127 127 127 127 127 127 127 127 127 127 127 124 123 121 120 118 117 116 114 113 112 110 109 107 106 105 103 102 101 100 98 97 96 95 95 97 107 120 126 128 128 128 128 128 128 128 128 128 128 128 128 128 128 128 128 128 128 128 128 128 128 128 128 128 128 128 128 128 128 128 128 128 129 135 146 157 168 177 184 191 197 202 206 210 213 216 219 221 223 224 226 228 229 230 231 232 233 234 235 235 236 237 237 238 238 239 239 240 240 241 241 241 242 242 242 243 243 243 244 244 244 244 244 245 245 245 245 245 246 246 246 246 246 246 247 244 209 137 125 124 123 121 120 118 117 116 114 113 112 110 109 107 106 105 103 102 101 100 98 97 96 95 95 97 107 120 126 128 128 128 128 128 128 128 128 128 128 128 128 128 128 128 128 128 128 128 128 128 128 128 128 128 128 128 128 128 128 128 128 128 128
128 128 128 128 128 128 128 128 128 128 128 128 128 128 128 128 128 128 128 128 128 128 128 128 128 128 128 128 128 128 128 128 128 128 128 128 128 136 150 159 159 157 156 155 154 152 151 150 148 147 146 145 143 142 140 139 138 136 135 134 132 131 130 128 73 7 7 7 8 8 8 8 8 8 8 8 9 9 9 9 9 10 10 10 10 11 11 11 11 12 12 12 12 13 13 14 14 14 15 16 16 17 17 18 19 19 20 21 22 23 25 26 28 30 32 34 36 39 43 47 51 57 64 72 82 93 106 120 128 128 128 128 128 128 128 128 128 128 128 128 128 128 128 128 128 128 128 128 128 128 128 128 128 128 128 128 128 128 128 128 128 128 128 128 128 136 150 159 159 157 156 155 154 152 151 150 148 147 146 145 143 142 140 139 138 136 135 134 132 131 130 128 127 127 127 127 127 127 127 127 127 127 127 127 127 127 127 127 127 127 127 127 127 127 127 127 127 127 127 127 127 127 127 127 127 0 0 0 0 0 0 0 0 0 0 0 0 0 0 0 0 0 0 0 0 0 0 0 0 0 0 0 0 0 0 0 0 0 0 0 0 0 0 0 0 0 0 0 0 0 0 0 0 0 0 0 0 0 0 0 0 0 0 0 0 0 127 127 127 127 127 127 127 127 127 127 127 127 127 127 127 127 127 127 127 127 127 127 127 127 127 127 127 127 127 127 127 127 127 127 127 127 124 123 121 120 118 117 116 114 113 112 111 109 108 106 105 104 102 101 100 99 99 99 100 110 122 126 127 128 128 128 128 128 128 128 128 128 128 128 128 128 128 128 128 128 128 128 128 128 128 128 128 128 128 128 128 128 128 128 128 128 128 129 136 149 162 174 183 191 198 204 209 213 216 219 222 224 226 227 229 230 231 233 234 235 236 236 237 238 238 239 240 240 240 241 241 242 242 243 243 243 244 244 244 244 245 245 245 245 245 246 246 246 246 246 246 247 247 247 247 247 247 248 248 248 246 220 139 125 124 123 121 120 118 117 116 114 113 112 111 109 108 106 105 104 102 101 100 99 99 99 100 110 122 126 127 128 128 128 128 128 128 128 128 128 128 128 128 128 128 128 128 128 128 128 128 128 128 128 128 128 128 128 128 128 128 128 128 128 128 128
128 128 128 128 128 128 128 128 128 128 128 128 128 128 128 128 128 128 128 128 128 128 128 128 128 128 128 128 128 128 128 128 128 128 128 128 128 128 128 132 143 153 156 154 153 152 151 150 148 147 146 144 143 142 140 139 138 136 135 134 132 131 129 128 73 6 6 6 6 6 6 6 7 7 7 7 7 7 8 8 8 8 8 8 9 8 9 9 9 10 10 10 10 11 11 11 12 12 12 13 13 13 14 15 15 16 17 18 19 19 21 22 23 25 26 28 30 33 36 40 44 49 56 64 74 86 101 119 128 128 128 128 128 128 128 128 128 128 128 128 128 128 128 128 128 128 128 128 128 128 128 128 128 128 128 128 128 128 128 128 128 128 128 128 128 128 128 132 143 153 156 154 153 152 151 150 148 147 146 144 143 142 140 139 138 136 135 134 132 131 129 128 127 127 127 127 127 127 127 127 127 127 127 127 127 127 127 127 127 127 127 127 127 127 127 127 127 127 127 127 127 127 127 127 127 0 0 0 0 0 0 0 0 0 0 0 0 0 0 0 0 0 0 0 0 0 0 0 0 0 0 0 0 0 0 0 0 0 0 0 0 0 0 0 0 0 0 0 0 0 0 0 0 0 0 0 0 0 0 0 0 0 0 0 0 0 127 127 127 127 127 127 127 127 127 127 127 127 127 127 127 127 127 127 127 127 127 127 127 127 127 127 127 127 127 127 127 127 127 127 127 127 124 123 121 120 119 117 116 115 113 112 111 109 108 107 106 104 103 102 102 102 106 116 124 126 128 128 128 128 128 128 128 128 128 128 128 128 128 128 128 128 128 128 128 128 128 128 128 128 128 128 128 128 128 128 128 128 128 128 128 128 128 129 137 154 169 181 191 199 206 211 215 219 222 225 227 229 231 232 233 235 236 237 237 238 239 240 240 241 241 242 242 243 243 244 244 244 245 245 245 245 246 246 246 246 247 247 247 247 247 247 248 248 248 248 248 248 248 248 249 249 249 249 249 249 247 225 139 125 124 123 121 120 119 117 116 115 113 112 111 109 108 107 106 104 103 102 102 102 106 116 124 126 128 128 128 128 128 128 128 128 128 128 128 128 128 128 128 128 128 128 128 128 128 128 128 128 128 128 128 128 128 128 128 128 128 128 128 128 128 128
128 128 128 128 128 128 128 128 128 128 128 128 128 128 128 128 128 128 128 128 128 128 128 128 128 128 128 128 128 128 128 128 128 128 128 128 128 128 128 128 128 128 135 144 150 152 150 149 148 146 145 144 143 141 140 139 138 136 135 133 132 131 130 128 77 4 5 5 5 5 5 5 5 5 5 5 5 6 6 6 6 6 6 6 6 7 7 7 7 7 8 8 8 8 8 9 9 9 10 10 10 11 11 12 12 13 13 14 14 15 16 17 18 19 21 22 24 26 29 32 36 40 46 54 64 77 95 116 128 128 128 128 128 128 128 128 128 128 128 128 128 128 128 128 128 128 128 128 128 128 128 128 128 128 128 128 128 128 128 128 128 128 128 128 128 128 128 128 128 128 135 144 150 152 150 149 148 146 145 144 143 141 140 139 138 136 135 133 132 131 130 128 127 127 127 127 127 127 127 127 127 127 127 127 127 127 127 127 127 127 127 127 127 127 127 127 127 127 127 127 127 127 127 127 127 0 0 0 0 0 0 0 0 0 0 0 0 0 0 0 0 0 0 0 0 0 0 0 0 0 0 0 0 0 0 0 0 0 0 0 0 0 0 0 0 0 0 0 0 0 0 0 0 0 0 0 0 0 0 0 0 0 0 0 0 0 127 127 127 127 127 127 127 127 127 127 127 127 127 127 127 127 127 127 127 127 127 127 127 127 127 127 127 127 127 127 127 127 127 127 127 127 124 123 121 120 119 117 116 115 113 112 111 110 108 107 107 106 106 109 115 122 126 127 128 128 128 128 128 128 128 128 128 128 128 128 128 128 128 128 128 128 128 128 128 128 128 128 128 128 128 128 128 128 128 128 128 128 128 128 128 128 128 129 140 161 178 191 201 209 215 220 223 226 229 231 233 234 236 237 238 239 240 241 241 242 242 243 244 244 244 245 245 246 246 246 247 246 247 247 247 247 247 248 248 248 248 249 249 249 249 249 249 249 249 249 250 250 250 250 250 250 250 250 250 251 249 230 140 126 124 123 121 120 119 117 116 115 113 112 111 110 108 107 107 106 106 109 115 122 126 127 128 128 128 128 128 128 128 128 128 128 128 128 128 128 128 128 128 128 128 128 128 128 128 128 128 128 128 128 128 128 128 128 128 128 128 128 128 128 128 128
128 128 128 128 128 128 128 128 128 128 128 128 128 128 128 128 128 128 128 128 128 128 128 128 128 128 128 128 128 128 128 128 128 128 128 128 128 128 128 128 128 128 128 128 128 134 140 145 147 146 145 144 142 141 140 139 137 136 135 133 132 131 129 128 72 3 3 3 3 3 4 4 4 4 4 4 4 4 4 4 4 4 4 5 5 5 5 5 5 5 5 6 6 6 6 6 6 7 7 7 7 8 8 8 9 9 9 10 10 11 12 12 13 14 15 16 17 19 21 23 26 30 35 41 51 64 84 112 128 128 128 128 128 128 128 128 128 128 128 128 128 128 128 128 128 128 128 128 128 128 128 128 128 128 128 128 128 128 128 128 128 128 128 128 128 128 128 128 128 128 128 128 128 134 140 145 147 146 145 144 142 141 140 139 137 136 135 133 132 131 129 128 127 127 127 127 127 127 127 127 127 127 127 127 127 127 127 127 127 127 127 127 127 127 127 127 127 127 127 127 127 127 127 127 127 0 0 0 0 0 0 0 0 0 0 0 0 0 0 0 0 0 0 0 0 0 0 0 0 0 0 0 0 0 0 0 0 0 0 0 0 0 0 0 0 0 0 0 0 0 0 0 0 0 0 0 0 0 0 0 0 0 0 0 0 0 127 127 127 127 127 127 127 127 127 127 127 127 127 127 127 127 127 127 127 127 127 127 127 127 127 127 127 127 127 127 127 127 127 127 127 127 124 123 122 120 119 117 116 115 114 112 112 111 110 110 114 118 123 126 127 128 128 128 128 128 128 128 128 128 128 128 128 128 128 128 128 128 128 128 128 128 128 128 128 128 128 128 128 128 128 128 128 128 128 128 128 128 128 128 128 128 128 129 146 172 192 205 214 220 225 229 232 234 236 238 239 240 241 242 243 244 244 245 245 246 246 246 247 247 247 248 248 248 248 249 249 249 249 249 249 250 250 250 250 250 250 250 251 250 251 251 251 251 251 251 251 251 251 251 251 252 252 252 252 252 251 236 141 126 124 123 122 120 119 117 116 115 114 112 112 111 110 110 114 118 123 126 127 128 128 128 128 128 128 128 128 128 128 128 128 128 128 128 128 128 128 128 128 128 128 128 128 128 128 128 128 128 128 128 128 128 128 128 128 128 128 128 128 128 128 128
128 128 128 128 128 128 128 128 128 128 128 128 128 128 128 128 128 128 128 128 128 128 128 128 128 128 128 128 128 128 128 128 128 128 128 128 128 128 128 128 128 128 128 128 128 128 128 128 129 133 137 139 141 141 140 138 137 136 135 133 132 131 129 128 53 2 2 2 2 2 2 2 2 2 2 2 2 3 2 2 3 3 3 3 3 3 3 3 3 3 3 3 4 4 4 4 4 4 4 4 5 5 5 5 5 5 6 6 6 7 7 7 8 8 9 10 10 12 13 14 16 19 22 27 34 45 65 103 128 128 128 128 128 128 128 128 128 128 128 128 128 128 128 128 128 128 128 128 128 128 128 128 128 128 128 128 128 128 128 128 128 128 128 128 128 128 128 128 128 128 128 128 128 128 128 128 129 133 137 139 141 141 140 138 137 136 135 133 132 131 129 128 127 127 127 127 127 127 127 127 127 127 127 127 127 127 127 127 127 127 127 127 127 127 127 127 127 127 127 127 127 127 127 127 127 0 0 0 0 0 0 0 0 0 0 0 0 0 0 0 0 0 0 0 0 0 0 0 0 0 0 0 0 0 0 0 0 0 0 0 0 0 0 0 0 0 0 0 0 0 0 0 0 0 0 0 0 0 0 0 0 0 0 0 0 0 127 127 127 127 127 127 127 127 127 127 127 127 127 127 127 127 127 127 127 127 127 127 127 127 127 127 127 127 127 127 127 127 127 127 127 127 124 123 122 120 119 118 117 116 115 116 118 120 123 126 127 127 128 128 128 128 128 128 128 128 128 128 128 128 128 128 128 128 128 128 128 128 128 128 128 128 128 128 128 128 128 128 128 128 128 128 128 128 128 128 128 128 128 128 128 128 128 131 159 193 211 222 229 234 236 239 241 242 244 244 245 246 247 247 248 248 248 249 249 249 250 250 250 250 250 251 251 251 251 251 251 251 252 252 252 252 252 252 252 252 252 252 252 252 252 252 252 253 253 253 253 253 253 253 253 253 253 253 253 253 252 241 142 125 124 123 122 120 119 118 117 116 115 116 118 120 123 126 127 127 128 128 128 128 128 128 128 128 128 128 128 128 128 128 128 128 128 128 128 128 128 128 128 128 128 128 128 128 128 128 128 128 128 128 128 128 128 128 128 128 128 128 128 128 128 128
128 128 128 128 128 128 128 128 128 128 128 128 128 128 128 128 128 128 128 128 128 128 128 128 128 128 128 128 128 128 128 128 128 128 128 128 128 128 128 128 128 128 128 128 128 128 128 128 128 128 128 128 128 129 131 132 133 133 133 132 131 130 129 128 48 40 40 40 40 40 40 40 40 40 40 40 40 40 40 40 40 40 40 40 40 40 40 40 40 40 40 40 40 40 40 40 40 40 40 40 40 40 40 40 40 40 40 40 40 40 40 40 40 40 41 41 41 41 41 41 41 41 42 42 43 45 51 81 128 128 128 128 128 128 128 128 128 128 128 128 128 128 128 128 128 128 128 128 128 128 128 128 128 128 128 128 128 128 128 128 128 128 128 128 128 128 128 128 128 128 128 128 128 128 128 128 128 128 128 128 128 129 131 132 133 133 133 132 131 130 129 128 127 127 127 127 127 127 127 127 127 127 127 127 127 127 127 127 127 127 127 127 127 127 127 127 127 127 127 127 127 127 127 127 127 0 0 0 0 0 0 0 0 0 0 0 0 0 0 0 0 0 0 0 0 0 0 0 0 0 0 0 0 0 0 0 0 0 0 0 0 0 0 0 0 0 0 0 0 0 0 0 0 0 0 0 0 0 0 0 0 0 0 0 0 0 127 127 127 127 127 127 127 127 127 127 127 127 127 127 127 127 127 127 127 127 127 127 127 127 127 127 127 127 127 127 127 127 127 127 127 127 125 125 124 124 124 124 124 125 126 127 127 127 128 128 128 128 128 128 128 128 128 128 128 128 128 128 128 128 128 128 128 128 128 128 128 128 128 128 128 128 128 128 128 128 128 128 128 128 128 128 128 128 128 128 128 128 128 128 128 128 128 134 182 214 226 231 234 235 236 237 238 238 239 239 240 240 241 241 241 241 241 241 242 242 242 242 242 242 242 242 242 242 242 242 242 243 242 242 243 243 243 243 243 243 243 243 243 243 243 243 243 243 243 243 243 243 243 243 243 243 243 243 243 243 243 234 142 126 125 125 124 124 124 124 124 125 126 127 127 127 128 128 128 128 128 128 128 128 128 128 128 128 128 128 128 128 128 128 128 128 128 128 128 128 128 128 128 128 128 128 128 128 128 128 128 128 128 128 128 128 128 128 128 128 128 128 128 128 128 128
